/* XPM */
static char *ab9c628a6c31464ea6b47d82ba7c9fff6KFoHAqSLAn28mkX[] = {
/* columns rows colors chars-per-pixel */
"389 359 256 2 ",
"   c #060609",
".  c #0B0A0D",
"X  c #0E0D12",
"o  c #0D0D19",
"O  c #110E12",
"+  c #100F14",
"@  c #160E16",
"#  c #121116",
"$  c #15141B",
"%  c #18171E",
"&  c #19181D",
"*  c #2A181B",
"=  c #2F211E",
"-  c #161723",
";  c #191721",
":  c #1B1A23",
">  c #1D1D29",
",  c #161C32",
"<  c #241D25",
"1  c #211E2A",
"2  c #331D27",
"3  c #1D252F",
"4  c #232926",
"5  c #23212D",
"6  c #272829",
"7  c #2B2C2E",
"8  c #37252A",
"9  c #253525",
"0  c #263926",
"q  c #2B352E",
"w  c #263929",
"e  c #2D392E",
"r  c #303B2F",
"t  c #252432",
"y  c #292634",
"u  c #2C2935",
"i  c #26283A",
"p  c #2C2A3B",
"a  c #342C38",
"s  c #2B3532",
"d  c #2E3A30",
"f  c #323D30",
"g  c #38323C",
"h  c #412120",
"j  c #46292B",
"k  c #552F2D",
"l  c #492D33",
"z  c #4A3339",
"x  c #573538",
"c  c #663B39",
"v  c #6F3C3A",
"b  c #1D4B38",
"n  c #26432D",
"m  c #2D422E",
"M  c #2F4330",
"N  c #294936",
"B  c #304530",
"V  c #304831",
"C  c #2C5038",
"Z  c #52453F",
"A  c #6B423C",
"S  c #74433E",
"D  c #1A1C4F",
"F  c #2B2C43",
"G  c #322E43",
"H  c #2D3247",
"J  c #343244",
"K  c #383749",
"L  c #2B2C56",
"P  c #383B55",
"I  c #363965",
"U  c #463B47",
"Y  c #593C44",
"T  c #453A55",
"R  c #503655",
"E  c #643D43",
"W  c #723D44",
"Q  c #4E3968",
"!  c #613F63",
"~  c #334E4E",
"^  c #2D714F",
"/  c #2B6956",
"(  c #3B456B",
")  c #4A424C",
"_  c #59424A",
"`  c #484658",
"'  c #564A57",
"]  c #58525D",
"[  c #684549",
"{  c #754948",
"}  c #79514D",
"|  c #694A55",
" . c #744D53",
".. c #69535B",
"X. c #785458",
"o. c #74615E",
"O. c #484A66",
"+. c #554B65",
"@. c #595668",
"#. c #4D4E71",
"$. c #585A76",
"%. c #665A67",
"&. c #775B66",
"*. c #6A5370",
"=. c #5C6377",
"-. c #6A626D",
";. c #78636B",
":. c #696577",
">. c #776976",
",. c #69747C",
"<. c #7A727C",
"1. c #865250",
"2. c #855858",
"3. c #92615E",
"4. c #865C65",
"5. c #886469",
"6. c #956769",
"7. c #876A76",
"8. c #946D74",
"9. c #87747B",
"0. c #98747A",
"q. c #A67478",
"w. c #2E875B",
"e. c #309665",
"r. c #31A86F",
"t. c #33B778",
"y. c #4D9379",
"u. c #33C47F",
"i. c #AE887B",
"p. c #375B94",
"a. c #3A619B",
"s. c #515A89",
"d. c #536591",
"f. c #676886",
"g. c #797687",
"h. c #666C9D",
"j. c #717090",
"k. c #6450C1",
"l. c #877987",
"z. c #987A87",
"x. c #897690",
"c. c #A57C86",
"v. c #B17B87",
"b. c #8F76A9",
"n. c #9276D4",
"m. c #7A8395",
"M. c #61B493",
"N. c #7887AD",
"B. c #57A7A3",
"V. c #37C481",
"C. c #4BC48B",
"Z. c #70C8A1",
"A. c #8A848D",
"S. c #97848B",
"D. c #898697",
"F. c #978997",
"G. c #9A929C",
"H. c #A7838B",
"J. c #A78897",
"K. c #B48D94",
"L. c #A7949B",
"P. c #AAA49D",
"I. c #898BA6",
"U. c #8F90AC",
"Y. c #9996A7",
"T. c #989CB5",
"R. c #A799A8",
"E. c #AC99AF",
"W. c #B598A8",
"Q. c #96ADB1",
"!. c #A9A2AC",
"~. c #B5A5AB",
"^. c #ABA4B3",
"/. c #A9A6B8",
"(. c #B8A9B7",
"). c #B4ACBB",
"_. c #A9B8B5",
"`. c #B7B4BB",
"'. c #BCB2BD",
"]. c #C69AA1",
"[. c #CAACB5",
"{. c #C5B5BC",
"}. c #C9B8BC",
"|. c #A0C9B5",
" X c #D0C1BE",
".X c #98A6C9",
"XX c #A7AAC5",
"oX c #B8ACC2",
"OX c #BCB4C3",
"+X c #B9B7C7",
"@X c #A2A6DA",
"#X c #ABB2D1",
"$X c #B8BBD6",
"%X c #C4B5C3",
"&X c #C7B5C7",
"*X c #CDB4C6",
"=X c #C4BAC4",
"-X c #CABBC4",
";X c #C4BCCA",
":X c #CCBECA",
">X c #C8BCD4",
",X c #CCBCE3",
"<X c #AADFCE",
"1X c #B9C5D1",
"2X c #BAC9EA",
"3X c #C9C4C9",
"4X c #CDC2CC",
"5X c #D3C3C5",
"6X c #D3C5CB",
"7X c #D8C7CA",
"8X c #DBCACC",
"9X c #CDC4D2",
"0X c #CAC8D8",
"qX c #D2C6D2",
"wX c #D4CAD5",
"eX c #DCCCD3",
"rX c #D4C5D9",
"tX c #D5CCDA",
"yX c #DACEDB",
"uX c #CFD3D4",
"iX c #D6D1DC",
"pX c #DBD1DD",
"aX c #E1CCCE",
"sX c #E1CED2",
"dX c #E2C8D6",
"fX c #E7D2D2",
"gX c #E2D2D8",
"hX c #D3E3DA",
"jX c #C8CBE6",
"kX c #D6CDE3",
"lX c #CAD4EA",
"zX c #D5D2E4",
"xX c #DBD4E3",
"cX c #D4D3EB",
"vX c #DBD4EB",
"bX c #DCD9E9",
"nX c #CACBF2",
"mX c #CAD8F6",
"MX c #D4D9F5",
"NX c #DCDCF2",
"BX c #EEDAE4",
"VX c #E4DAE8",
"CX c #E2DEF2",
"ZX c #D5E8EF",
"AX c #DAE4F8",
"SX c #E9E4EC",
"DX c #F3E6EC",
"FX c #E7E6F7",
"GX c #E3E5FA",
"HX c #E5EAFC",
"JX c #F5ECF5",
"KX c #E8F4FA",
"LX c #ECF3FC",
"PX c #F6F5FA",
"IX c #F4FAFD",
"UX c #FEFEFE",
/* pixels */
"7 7 7 7 7 7 7 7 7 7 7 7 7 7 7 7 7 7 7 7 7 7 6 6 7 7 7 7 7 7 7 7 7 7 7 7 7 7 7 7 7 7 7 7 7 7 7 7 7 7 7 7 7 7 7 7 7 7 7 7 7 7 7 7 7 7 7 7 7 7 7 7 7 7 7 7 7 7 7 7 7 7 7 7 q q q q q q q q q q q q q q q q q q q q q q q q q q q q q q q q q q q q q q q q q q q q q q q q q q q q q q q q q q q q q q q e e e e e e e e e e e e e e q q q q q q q q e e e q q q q q q q q q q q q q q q q q q q q q q q q q q q q q q q q q q q q q q q q q q q q q q q q q q q q q q q q q q q q q q e q q e e e e q e e e e e e e e e e q q q q q q q e q e q q q q e e e e e q q e e e e q q q e e e e e e e e e e e e e q q q q q q q e e e e e e e e e q e e e e e q e e e e e q e e e e e q e e e e e e e e e e e e e e e e e e e e e e e e e e e e e e e e e e e e e e e e e e e e e e e e e e e e e e e e e e e e e ",
"7 7 7 7 7 7 7 7 7 7 7 7 7 7 7 7 7 7 7 7 7 7 7 7 7 7 7 7 7 7 7 7 7 7 7 7 7 7 7 7 7 7 7 7 7 7 7 7 7 7 7 7 7 7 7 7 7 7 7 7 7 7 7 7 7 7 7 7 7 7 7 7 7 q 7 7 7 u 7 7 7 7 q q q q q q q q q q q q q q q q q q q q q q q q q q q q q q q q q q q q q q q q q q q q q q q q q q q q q q q q q q q q q e e e e e e e e e e e e e e e e e q q q q q q q q q q e e q q q q q q q q q q q q q q q q q q q q q q q q q q q q q q q q q q q q q q q q q q q q q q q q q q q q q q q q q q q q e e e e e e e e e q e e e e e e e e q q q q q q q q q q q q e e e e e e e e e q e e e e q q e e e e e e q q q e e e e e e q q q e e e e e e e e e e e e q q e e e e q q e e e e q q e e e e q q e e e e e e e e e e e e e e e e e e e e e e e e e e e e e e e e e e e e e e e e r e e e e e e e r r e e e e r r r r e e e ",
"7 7 7 7 7 7 7 7 7 7 7 7 7 7 7 7 7 7 7 7 7 7 7 7 7 7 7 7 7 7 7 7 7 7 7 7 7 7 7 7 7 7 7 7 7 7 7 7 7 7 7 7 7 7 7 7 7 7 7 7 7 7 7 7 7 7 7 7 7 7 7 7 q 7 7 7 7 7 7 7 7 q q q q q q q q q q q q q q q q q q q q q q q q q q q q q q q q q q q q q q q q q q q q q q q q q q q q q q q q q q q q q q e e e e e e e e e e e e e e e e e q q q q q q q q q q e e q q q q q q q q q q q q q q q q q q q q q q q q q q q q q q q q q q q q q q q q q q q q q q q q q q q q q e e q e e q q e e q q e e e e e e e e e e e e e e e q q q q q q q q q q q e e e e e e e e e e e e e e e e e e e e q q q q q e e e e e e e e e e e e e e e e e e e e e q e e e e e q e e e e e q e e e e e q e e e e e e e e e e e e e e e e e e e e e e e e e e e e e e e e e e e e e e e e e r r r e r r e e r r r r e e e r r e e e e ",
"7 7 7 7 7 7 7 7 7 7 7 7 7 7 7 7 7 7 7 6 6 7 7 7 7 7 7 7 7 7 7 7 7 7 7 7 7 7 7 7 7 7 7 7 7 7 7 7 7 7 7 7 7 7 7 7 7 7 7 7 7 7 7 7 7 7 7 7 7 7 7 7 7 7 7 7 7 7 7 q q q q q e q q q q q q q q q q q q q q q q q e q q q e e q q q q q q q q q q q q q q q q q q q q q q q q q q q q q q q q q q q e e e e e e e e e e e e e e e e e q q q q q q q q q q e e q q q q q q q q q q q q q q q q q q q q q q q q q q q q q q q q q q q q q q q q q q q q q q q q q q q q q q q e e e e e e q e q e e e e e e e e e e e e e e q q q q q q q q q q q q e e e e e e e e e e e e e e e e e e e e q q q e e e e e e e e e e e e e e e e e e e e e e q e e e e e e e e e e e q e e e e e e e e e e e e e e e e e e e e e e e e e e e e e e e e e e e e e e e e e e e e e e e e r r r r r r r r r r r r e e e r e e e e e ",
"7 7 7 7 7 7 7 7 7 7 7 7 7 7 7 7 7 7 7 7 7 7 7 7 7 7 7 7 7 7 7 7 7 7 7 7 7 7 7 7 7 7 7 7 7 7 7 7 7 7 7 7 7 7 7 7 7 7 7 7 7 7 7 7 7 7 7 7 7 7 7 7 7 u u 7 7 7 q q q e q q q q q q q q q q q q q q q q q q q e q e e e e e q q q q q q q q q q q q q q q q q q q q q q q q q q q q q q q q q e e e e e e e e e e e e e e e e e e e q q q q q q q q q q e q q q q q e M C ~ ^ ^ w.w.e.e.r.r.t.t.t.t.u.u.u.u.u.u.u.u.t.t.t.t.r.r.e.e.w.w.^ ^ ~ C M e q q q q q q q q d d q q e q q e q q q q d e e e e e e e e e e e e d q q q q q q q q q q q e e e e e e e e e e e q e e e e e e e e e e q e e e e e e e e e e e e q q e e q e e e e e e q q q e e e e e e e e q q e e e e e e e e e e e e e e e e e e e e e e e e e e e e e e e e e e e e e e e e e e e e e e e e r r r r r e e e e e e r r r r r e e e e e ",
"7 7 7 7 7 7 7 7 7 7 7 7 7 7 7 7 7 7 7 7 7 7 7 7 7 7 7 7 7 7 7 7 7 7 7 7 7 7 7 7 7 7 7 7 7 7 7 7 7 7 7 7 7 7 7 7 7 7 7 7 7 7 7 7 7 7 7 7 7 7 7 7 7 7 7 7 7 q q q q q q q q q q q q q q q q q q q q q q q q q e e e q q q q q q q q q q q q q q q q q q q q q q q q q q q q q q q q q q e e e e e e e e e e e e e e e e e e e e e q q q q q q q q q N ~ ^ ^ e.r.t.t.u.u.u.u.u.u.u.u.u.u.u.u.u.u.u.u.u.u.u.u.u.u.u.u.u.u.u.u.u.u.u.u.u.u.u.u.u.u.t.t.r.e.^ ^ ~ M d e d q q e d d e q q q q e e e e d d d q q q q q q q q q q q q q q q e e e e e q e e e e e e q q q e e e e e q q e e e q e e e e q e e e e e e q e q q e q q e q e e q q q e e e e e e q e e q e e e e e e e e e e e e e e e e e e e e e e e e e e e e e e e e e e e e e e e e e e e e e r r e e e r r r r e e e e e e e r r r e r r e e e ",
"7 7 7 7 7 7 7 7 7 7 7 7 7 7 7 7 7 7 7 7 7 7 7 7 7 7 7 7 7 7 7 7 7 7 7 7 7 7 7 7 7 7 7 7 7 7 7 7 7 7 7 7 7 7 7 7 7 7 7 7 7 7 7 7 7 7 7 7 7 7 7 7 7 7 7 q q q q e q q q q q q q q q q q q q q q q q q q q q q e q q q q q q q q q q q q q q q q q q q q q q q q q q q q q q q q q q q q e e e e e e e e e e e e e q e e e e e e e e e e N ~ ^ w.r.t.u.u.u.u.u.u.u.u.u.u.u.u.u.u.u.u.u.u.u.u.u.u.u.u.u.u.u.u.u.u.u.u.u.u.u.u.u.u.u.u.u.u.u.u.u.u.u.u.u.u.u.u.u.u.t.r.w.^ ~ N d d e e q e e e e e e q q q q q q q q q q q q e e e e e e e e e e q q e q e e e e q q q q e e e e q q e e e e q q e e q q q e e e e q e e e e e e e e e e e e q e e e e e e q e e e e e e e e e e e e e e e e e e e e e e e e e e e e e e e e e e e e e e e e e e e e e e e e r r r e e e r r e e e e e e e e r r e e r r r r e ",
"7 7 7 7 7 7 7 7 7 7 7 7 7 7 7 7 7 7 7 7 7 7 7 7 7 7 7 7 7 7 7 7 7 7 7 7 7 7 7 7 7 7 7 7 7 7 7 7 7 7 7 7 7 7 7 7 7 7 7 7 7 7 7 7 7 7 7 7 7 7 7 7 7 7 q q q q q q q q q q q q q q q q q q q q q q q q q q q e e q q q q q q q q q q q q q q q q q q q q q q q q q q q q q q q q q q q e e e e e q e e e e e e e e e e e d d d N ^ w.e.t.u.u.u.u.u.u.u.u.u.u.u.u.u.u.u.u.u.u.u.u.u.u.u.u.u.V.u.V.V.V.V.V.u.V.V.V.V.V.V.V.V.u.u.u.u.u.u.u.u.u.u.u.u.u.u.u.u.u.u.u.u.u.u.u.u.u.t.e.^ ^ N d d d e e e q q q q q q q q q q q e e e e e q e e e e e q q e q e e e e q q e e e e e e e e e e e e e e e e q e e e e e q q e e e e e e e e e e e e e e e e e e q q e e e e q q e e e e e e e e e e e e e e e e e e e e e e e e e e e e e e e e e e e e e e e e e e r r r e e e r r e e e e e e e e r r e e r r r r e ",
"7 7 7 7 7 7 7 7 7 7 7 7 7 7 7 7 7 7 7 7 7 7 7 7 7 7 7 7 7 7 7 7 7 7 7 7 7 7 7 7 7 7 7 7 7 7 7 7 7 7 7 7 7 7 7 7 7 7 7 7 7 7 7 7 7 7 7 7 7 7 7 7 7 q q e q q q q q e e q q q q q q q q q q q q q q q q e e e e q q q q q q q q q q q q q q q q q q q q q q q q q q q q q q q q q q e e e q e q q e e e e e e e d d M C ^ e.t.u.u.u.u.u.u.u.u.u.u.u.u.u.u.u.u.u.V.V.V.C.C.Z.Z.Z.Q.Q.Q._._.`.`.'.{.{.-X}.-X-X-X-X=X{.{.`.`._._.Q.Q.Q.Z.Z.M.M.C.V.V.V.u.u.u.V.u.u.u.u.u.u.u.u.u.u.u.u.u.t.e.^ C M d d q q q e e q d q q q q q q e e q q q q e e e e e e e e e e e e e e e e q e e e e e e e q e e e e e e e e e e e e e q q e e e e e e e e e e e e e e e q e e e e q e e e e e e e e e e e e e e e e e e e e e e e e e e e e e e e e e e e e e e e e e e e e e e e e e e e e e e r r r r r e e e e e e e e r ",
"7 7 7 7 7 7 7 7 7 7 7 7 7 7 7 7 7 7 7 7 7 7 7 7 7 7 7 7 7 7 7 7 7 7 7 7 7 7 7 7 7 7 7 7 7 7 7 7 7 7 7 7 7 7 7 7 7 7 7 7 7 7 7 7 7 7 7 7 7 7 7 q q q q e q q q q q e q q q q q q q q q q q q q q q e q e e e e q q q q q q q q q q q q q q q q q q q q q q q q q q q q q q q q q q e e e q q q q e e q d e M ~ ^ e.t.u.u.u.u.u.u.u.u.u.u.u.u.u.V.u.V.C.M.Z.Q._.`.{.-X}.-X-X-X-X{.{.{.{.{.{.}.{.-X}.-X-X}.-X-X-X-X-X-X-X-X-X}.-X}.-X-X}.}.}.}.}.{._._.Q.Z.M.C.V.u.V.u.u.u.u.u.u.u.u.u.u.u.u.u.t.e.^ ~ d e d e q q d d q q q e e d e e e e e e e e e e e q e e e e e e e e q q e e e e e e q e e e e e e e e e e e e e q q e e e e e e e e e e e e e e e q e e e e q q e e e e e e e e e e e e e e e e e e e e e e e e e e e e e e e e e e e e e e e e e r r e e e e e e e e e e r r r r r e e e e e e e e r ",
"7 7 7 7 7 7 7 7 7 7 7 7 7 7 7 7 7 7 7 7 7 7 7 7 7 7 7 7 7 7 7 7 7 7 7 7 7 7 7 7 7 7 7 7 7 7 7 7 7 7 7 7 7 7 7 7 7 7 7 7 7 7 7 7 7 7 7 7 7 7 q q q q q q q e q q e q q q q q q q q q q q q q q q q e e q q q q q q q q q q q q q q q q q q q q q q q q q q q q q q q q q q q e e e e e e q q e d d d N ^ e.t.u.u.u.u.u.u.u.u.u.u.u.u.V.V.C.Z.Q._.`.-X-X}.-X-X-X-X-X}.}.-X}.{.{.{.}.{.}.}.{.{.}.{.}.-X{.-X-X-X-X-X-X-X-X-X-X-X{.{.%X=X{.-X-X-X}.}.}.{.{.-X=X{.{.`._.Q.Z.C.V.V.u.u.u.u.u.u.u.u.u.u.u.u.t.e.^ N e e d e e e e e e e d d e e e e e e e e q q e e e e q e e d d e e e q q e e q q e e e e e e q q e e e e e q e e e e e e q q e q q e e e e q e e e e e e e e e e e e e e e e e e e e e e e e e e e e e e e e e e e e e e e e e e r r e e r r r r e e r r e e e e e e e e r e r e r e e e e f f ",
"7 7 7 7 7 7 7 7 7 7 7 7 7 7 7 7 7 7 7 7 7 7 7 7 7 7 7 7 7 7 7 7 7 7 7 7 7 7 7 7 7 7 7 7 7 7 7 7 7 7 7 7 7 7 7 7 7 7 7 7 7 7 7 7 7 7 7 7 q q q q q q q q e e q q q q q q q q q q q q q q q q q q q e e q q q q q q q q q q q q q q q q q q q q q q q q q q q q q q q q q q q e e e e e e d q M ~ ^ r.u.u.u.u.u.u.u.u.u.u.V.V.V.C.Z.Q._.{.-X-X-X-X-X-X-X-X}.}.}.}.}.}.-X-X-X}.}.{.{.{.}.{.}.{.{.{.{.-X-X-X}.-X-X-X-X-X-X-X-X-X-X-X-X-X-X-X-X}.-X}.}.-X{.{.{.{.}.{.{.{.{.{.{._.Q.Z.C.V.V.V.u.u.u.u.u.u.u.V.u.u.r.^ ~ d e d e e e e e e e e e e e e e e q q q e e e q e e d q e e e q q q e q q e e e e e e q q e e e e e e e e e e e q q e q q e e e e e e e e e e e e e e e e e e e e e e e e e e e e e e e e e e e e e e e e e e e e e e e e r r e e r r r r e e r r r r e e e e e e e e r r r e e e r r r ",
"7 7 7 7 7 7 7 7 7 7 7 7 7 7 7 7 7 7 7 7 7 7 7 7 7 7 7 7 7 7 7 7 7 7 7 7 7 7 7 7 7 7 7 7 7 7 7 7 7 7 7 7 7 7 7 7 7 7 7 7 7 7 7 7 7 7 7 q q q q q q q q q e q q q q q q q q q q q q q q q q q q q q q q q q q q q q q q q q q q q q q q q q q q q q q q q q q q q q q q q q q e e e d d M ~ w.t.u.u.u.u.u.u.u.u.u.u.V.C.M.Q._.'.}.}.}.}.-X-X-X-X-X}.}.}.}.}.}.{.}.{.}.{.}.}.}.}.}.{.}.-X}.}.}.{.-X{.}.-X-X}.}.-X{.-X-X-X-X-X-X-X-X-X-X-X-X-X-X-X}.}.-X}.{.{.}.}.}.}.}.{.{.{.}.{.{.}.{._.Q.M.C.V.u.u.u.u.u.u.u.u.u.u.r.w.~ M d d e e e e d q q e e e e e q e e e e q q e e d e e e e e e e q q e e e e e e q q e e e e q q q e e e e e e e e e e e e e e e e e e e e e e e e e e e e e e e e e e e e e e e e e e e e e e e e e e e e e e e e e e e e e e r r r e e r r e e e e r e e e r r r f f f e r r r r ",
"7 7 7 7 7 7 7 7 7 7 7 7 6 7 7 7 7 7 7 7 7 7 7 7 7 7 7 7 7 7 7 7 7 7 7 7 7 7 7 7 7 7 7 7 7 7 7 7 7 7 7 7 7 7 7 7 7 7 7 7 7 7 7 7 7 q q q q q q q q q q q q e q q q q q q q q q q q q q q q q q e q q q q q q q q q q q q q q q q q q q q q q q q q q q q q q q q q q q q e e d d M ~ w.t.u.u.u.u.u.u.u.u.u.u.C.M.Q._.{.}.{.{.{.}.{.-X-X-X-X{.-X{.}.}.}.}.}.{.}.{.}.}.}.{.}.}.}.{.}.}.{.-X-X}.}.-X%X-X{.}.}.{.{.{.-X-X-X-X{.=X-X-X-X-X-X-X-X-X}.}.}.}.{.{.{.{.{.{.}.}.-X{.-X-X{.}.}.-X{.-X{.{._.Q.M.C.V.u.u.u.u.u.u.u.u.u.t.w.~ M d d e e q q e e e e q q e e e e e q e q q q e e e e e e q q e e e e e e q q e e e e q q q q e e e e e e q e e e e e q e e e e e e e e e e e e e e e e e e e e e e e e e e e e e e e e e e e e e e e e e e e e e e e r r r r e e r r e e e e r r e e r r e f f e e r r r e ",
"7 7 7 7 7 6 6 6 7 6 6 6 7 7 7 7 7 7 7 7 7 7 7 7 7 7 7 7 7 7 7 7 7 7 7 7 7 7 7 7 7 7 7 7 7 7 7 7 7 7 7 7 7 7 7 7 7 7 7 7 7 7 7 q q q e e q q q q e e e q q q q q q q q q q q q q q q q q q e q q q q q q q q q q q q q q q q q q q q q q q q q q q q q q q q q q q q e e d M C w.r.u.u.u.u.u.u.u.V.V.V.C.Z._.{.}.{.{.{.{.{.{.{.}.-X-X-X-X-X-X-X{.}.{.}.{.{.{.{.}.}.{.{.{.{.{.}.}.}.}.}.{.-X}.-X%X%X%X{.-X}.}.{.{.{.%X%X-X{.{.-X-X-X-X-X{.{.-X{.{.{.-X{.{.{.{.{.{.{.{.}.-X{.-X}.}.}.-X-X}.}.}.}.{.{.{._.Z.C.V.V.V.u.u.u.u.u.u.u.r.w.C d d e e e e e e e e e e q q e e e q q q e e e e e e e e e e q q e e e e e e e e e q e e e e e e e e q q e e e e e e e e e e e e e e e e e e e e e e e e e e e e e e e e e e e e e e e e e e e e e e e e e e r r r r r r r r r e e e r r r r e e r r e e e e e e r f f ",
"7 7 7 7 7 7 6 6 6 6 7 6 7 7 7 7 7 7 7 7 7 7 7 7 7 7 7 7 7 7 7 7 7 7 7 7 7 7 7 7 7 7 7 7 7 7 7 7 7 7 7 7 7 7 7 q 7 7 7 7 7 q q q q q q q q q q q e e e q q q q q q q q q q q q q q q q q q q q q q q q q q q q q q q q q q q q q q q q q q q q q q q q q q q q q q e d C ^ r.u.u.u.u.u.u.u.V.V.C.M.Q.`.-X-X-X-X{.{.{.{.{.{.{.}.}.}.-X-X-X-X-X-X-X{.{.}.}.}.-X-X-X}.{.{.}.{.{.{.}.}.}.-X}.-X}.{.{.-X-X%X%X}.-X-X-X-X-X=X{.{.{.{.}.-X-X-X}.-X-X-X-X{.-X-X}.}.{.{.{.{.{.{.-X}.}.}.}.}.{.}.}.}.-X}.}.}.}.{.{.}._.Q.M.C.V.V.u.u.u.u.u.u.u.r.^ N d d e e e e e e e q q e e e d d e e e e e e e e e e e q q q q e e e e e e e e e e e e e e e q e q e e e e e e e e e e e e e e e e e e e e e e e e e e e e e e e e e e e e e e e e e e e e r r r e e e r r r r r r r e e e e e r r r r e e r r e e e e e r f f f ",
"7 7 7 7 7 7 7 7 7 7 7 7 7 7 7 7 7 7 7 7 7 7 7 7 7 7 7 7 7 7 7 7 7 7 7 7 7 7 7 7 7 7 7 7 7 7 7 7 7 7 7 7 7 7 7 7 7 7 7 7 q q q q e q q q q q e e e e q q q q q q q q q q q q q q e e q e q q q q q q q q q q q q q q q q q q q q q q q q q q q q q q q q q q q q M ^ e.t.u.u.u.u.u.u.u.u.C.Z.Q.`.-X-X-X-X-X-X-X-X-X{.{.{.{.{.}.}.}.-X-X-X-X}.-X-X{.-X}.}.-X-X-X-X-X-X}.}.}.}.{.}.}.}.-X-X{.{.{.{.-X{.-X-X-X{.-X%X-X-X-X}.}.{.{.-X-X-X}.{.-X-X}.}.}.}.{.}.}.}.{.{.{.{.{.}.}.{.}.}.{.{.-X{.}.-X}.}.}.}.}.{.{.{.{.{.'.Q.Z.C.u.u.u.u.u.u.u.u.t.e.~ M d e e e e e q q e e e d q q e d e e e e e e e e e e e e q e e e q e e e e e q e e e e q q e e e e e e e e e e e e e e e e e e e e e e e e e e e e e e e e e e e e e e e e e e e e e e e e e e e e e e e e e e e r r r r e e e e e e e e e e e e e e r r r ",
"7 7 7 7 7 7 7 7 7 7 7 7 7 7 7 7 7 7 7 7 7 7 7 7 7 7 7 7 7 7 7 7 7 7 7 7 7 7 7 7 7 7 7 7 7 7 7 7 7 7 7 7 7 7 7 7 7 7 7 7 q q q q q q q q q q q q q q q q q q q q q q q q q q q q e e e e q q q q q q q q q q q q q q q q q q q q q q q q q q q q q q q q q d N ^ r.u.u.u.u.u.u.V.V.C.Z.Q.'.-X{.-X{.-X-X-X-X-X-X-X{.}.}.{.{.=X-X}.-X}.-X-X-X-X-X-X-X-X-X}.-X-X-X-X-X{.}.{.}.}.{.{.{.-X-X{.-X{.{.{.{.{.{.}.%X-X-X%X-X-X{.-X{.}.}.}.}.-X-X{.{.-X{.-X}.-X{.{.{.{.}.-X{.{.}.}.}.}.{.{.{.{.}.}.-X-X-X}.-X}.}.}.}.{.{.{.{.{.{.`.Q.Z.C.u.V.u.u.u.u.u.u.r.^ N d d e e q q e e e d q e e d e e e e e e e e e e e e q q e e q q e e e e q q e e e e e e e e e e e e e e e e e e e e e e e e e e e e e e e e e e e e e e e e e e e e e e e e e e e e r e r r e e e e e e e e r r r r e e e e e e e e f f f f e e r r r ",
"7 7 7 7 7 7 7 7 7 7 7 7 7 7 7 7 7 7 7 7 7 7 7 7 7 7 7 7 7 7 7 7 7 7 7 7 7 7 7 7 7 7 7 7 7 7 7 7 7 7 7 7 7 7 7 7 7 7 q q q q q q q q q q q q q q q q q q q q q q q q q q q q q q q q q q q q q q q q q q q q q q q q q q q q q q q q q q q q q q q q q d C w.t.u.u.u.u.u.u.u.C.M.Q.`.-X-X%X-X%X-X-X-X-X-X-X-X{.-X{.}.{.{.-X-X-X-X-X-X-X-X%X-X-X-X-X-X-X-X-X-X-X-X%X{.}.}.}.}.{.{.}.-X{.-X{.{.{.}.{.}.{.{.-X-X-X-X=X-X-X-X{.{.}.-X-X}.{.-X-X-X{.}.}.-X{.{.{.}.}.{.{.{.{.{.{.{.{.{.{.{.{.{.{.}.-X{.}.}.-X}.{.}.-X}.}.}.{.{.{.{.`.Q.M.C.u.u.u.u.u.u.u.t.w.C d e e e e e e e q q d d e e e e e e e e e e e e e e e e e q e e e e e q e e e e e e e e e e e e e e e e e e e e e e e e e e e e e e e e e e e e e e e e e e e e e e e e e e r r r r r r r r e e e e e r r e r r e e r e e e e e r r e e e e e e r ",
"7 7 7 7 7 7 7 7 7 7 7 7 7 7 7 7 7 7 7 7 7 7 7 7 7 7 7 7 7 7 7 7 7 7 7 7 7 7 7 7 7 7 7 7 7 7 7 7 7 7 7 7 7 7 7 7 7 q q q q q q q q q q q q q q q q q q q q q q q q q q q q q q q q q q q q q q q q q q q q q q q q q q q q q q q q q q q q q q q q M ^ e.u.u.u.u.u.u.u.V.C.Q.`.-X-X-X-X-X-X-X-X-X-X=X-X=X=X{.{.-X}.}.%X{.-X-X-X-X-X-X{.%X-X%X-X%X-X-X-X-X-X-X-X-X-X{.}.}.}.}.{.{.{.}.-X=X{.{.{.{.-X{.{.-X-X%X-X-X-X-X-X-X=X{.{.-X-X-X-X{.-X{.{.{.-X{.-X{.{.}.-X%X{.{.{.{.{.{.{.{.{.{.{.{.{.{.-X-X-X}.-X{.}.-X-X{.-X-X-X-X=X{.-X}.=X_.Q.C.V.u.u.u.V.u.u.u.e.^ N d e e e q q q d d e e q q q q e e e e e e e e e e e e e e e e e e e e e e e e e e e e e e e e e e e e e e e e e e e e e e e e e e e e e e e e e e e e r r r r r e e e r r r r r r r e e e e e e r e e e e e e r r r r e e r r e e e e e e r ",
"7 7 7 7 7 7 7 7 7 7 7 7 7 7 7 7 7 7 7 7 7 7 7 7 7 7 7 7 7 7 7 7 7 7 7 7 7 7 7 7 7 7 7 7 7 7 7 7 7 7 7 7 7 7 7 q q q q q q q q q q q q q q q q q q q q q q q q q q q q q e q q q q q q q q q q q q q q q q q q q q q q q q q q q q q q q q q e N ^ r.u.u.u.u.u.u.V.C.Z._.=X-X-X-X-X-X:X-X-X-X-X-X-X-X-X-X-X-X{.-X-X-X-X-X-X-X-X-X-X-X}.-X-X%X-X-X%X-X-X:X:X-X-X-X-X}.{.-X{.{.{.}.}.-X-X-X-X%X-X%X-X-X-X-X-X-X=X-X-X:X=X-X-X-X-X-X-X-X{.-X-X{.-X-X-X-X-X-X{.-X-X-X-X{.{.{.{.{.}.{.}.}.{.{.{.{.{.{.%X}.}.-X-X-X-X}.}.-X-X-X-X-X{.{.=X{.{.=X_.Z.C.u.u.V.u.u.u.u.r.^ N d e e e e e d e q e e q q q e q q e e e q q q e e e e e e e e e e e e e e e e e e e e e e e e e e e e e e e e e e e e e e e e e e e e e e e e e e r r r r r e r r r r e r r r r r e e e e r r e e e e r r r r r r r r r r r e e e e e r ",
"7 7 7 7 7 7 7 7 7 7 7 7 7 7 7 7 7 7 7 7 7 7 7 7 7 7 7 7 7 7 7 7 7 7 7 7 7 7 7 7 7 7 7 7 7 7 7 7 u u 7 7 7 q q q q q q q q q q q q q q q q q q q q q q q q q q q q q e q e e q q q q q q q q q q q q q q q q q q q q q q q q q q q q q q d N ^ r.u.u.u.u.u.u.V.C.Q.`.-X-X-X-X-X:X-X-X:X-X-X-X-X-X-X-X-X-X}.=X-X-X-X-X-X-X-X-X-X:X-X-X}.-X=X=X-X-X-X-X:X:X:X-X-X-X-X-X-X-X-X-X{.-X}.-X-X%X-X-X-X-X-X-X=X-X-X-X=X-X=X:X:X%X-X%X-X=X=X=X-X-X=X-X-X-X-X-X-X-X-X%X-X-X-X}.{.{.{.{.}.}.{.}.{.{.{.{.{.{.{.}.{.}.{.-X-X{.-X%X-X-X-X%X{.{.{.{.-X%X-X-X`.Q.C.V.u.u.u.u.u.u.r.^ N d e q e e e q e e e e q e q q e e e e q q e e e e e e e e e e e e e e e e e e e e e e e e e e e e e e e e e e e e e e e e e e e e e e e e e e r r r r e e r e r r e r r r r r e e e e r r e e e e r r r r r r r r r r e e e e e e r ",
"7 7 7 7 7 7 7 7 7 7 7 7 7 7 7 7 7 7 7 7 7 7 7 7 7 7 7 7 7 7 7 7 7 7 7 7 7 7 7 7 7 7 7 7 7 7 7 7 7 7 7 7 7 q q q q q q q q q q q e e q q q q q q q q q q q q q q q q q q e e q e e e q q q q q q q q q q q q q q q q q q q q q q q q d N ^ r.u.u.u.u.u.u.V.C.|.3X-X-X-X-X-X-X-X-X-X-X-X-X-X-X-X-X-X-X-X-X-X-X-X-X-X-X-X-X-X-X=X:X:X-X-X:X:X:X-X-X:X-X-X-X-X-X-X-X-X:X=X-X-X%X-X%X-X{.-X-X-X-X-X=X=X:X:X:X:X-X-X-X=X=X=X-X=X=X=X=X=X=X-X-X-X-X-X-X:X-X-X=X-X-X%X-X}.}.}.{.{.{.{.{.{.{.}.{.{.}.{.{.{.}.{.}.{.}.{.}.{.-X=X-X%X-X}.{.}.{.{.-X-X-X-X-X{.Q.C.V.u.u.u.u.u.u.r.^ N d e e e e e e e e e e e e e e e e e e q e e e e e e e e e e e e e e e e e e e e e e e e e e e e e e e e e e e e e e e e e e e e e e e e r e r e e e e e e e e e e r r r r e e e r r r r r f f e e e e e e r e r r r e e e e e r ",
"7 7 7 7 7 7 7 7 7 7 7 7 7 7 7 7 7 7 7 7 7 7 7 7 7 7 7 7 7 7 7 7 7 7 7 7 7 7 7 7 7 7 7 7 7 7 7 7 7 7 7 q q q q q q q q q q q q q q q q q q q q q q q q q q q q q q q q q q q e e e q q q q q q q q q q q q q q q q q q q q q q q e N ^ r.u.u.u.u.u.V.C.Z._.:X4X:X=X:X:X:X-X-X-X-X-X:X-X-X-X-X-X-X:X:X:X:X-X-X-X-X-X-X-X-X:X=X:X:X:X-X-X-X:X:X:X:X-X-X-X-X-X-X:X-X-X-X%X=X%X-X-X-X-X-X-X-X-X-X-X-X-X:X-X-X=X-X-X-X-X=X=X=X:X:X:X:X-X-X-X-X-X-X:X:X-X-X-X:X-X-X-X-X{.}.}.{.{.{.{.{.{.{.{.{.{.-X-X%X-X-X-X{.}.{.{.-X-X-X-X%X%X=X-X{.{.}.}.{.-X%X-X-X%X%X%X_.M.C.V.u.u.u.u.u.r.^ N d e e e e q e e e e e e e e e e e q q e e e e e e e e e e e e e e e e e e e e e e e e e e e e e e e e e e e e e e e e e e e r r r e r e e e e e e e e e e e e r r r r e e e e r r r f f f e e e e e e e e r r r e r r e e e ",
"7 7 7 7 7 7 7 7 7 7 7 7 7 7 7 7 7 7 7 7 7 7 7 7 7 7 7 7 7 7 7 7 7 7 7 7 7 7 7 7 7 7 7 7 7 7 7 7 7 7 q q q q q q q q q e e e q q q q q q q q q q q q q q q q q q q q q q q e e q q q q q q q q q q q q q q q q q q q q q q q q N ^ r.u.u.u.u.u.V.C.Z._.-X:X-X-X-X:X-X-X-X-X:X:X-X-X-X-X-X-X-X:X4X:X-X-X-X-X-X-X-X-X-X-X-X-X-X-X:X:X:X:X:X:X:X:X:X:X:X:X:X:X:X-X:X-X-X-X-X%X-X-X-X-X-X-X-X-X%X-X-X=X-X-X:X-X-X-X-X-X-X-X%X-X-X-X-X-X-X-X-X-X:X-X-X:X:X:X=X:X-X-X-X}.{.{.{.{.{.}.}.{.{.{.{.{.{.-X-X-X-X-X-X-X-X{.-X{.%X%X-X-X{.-X{.%X{.{.-X%X-X%X{.{.{.{.-X{._.Z.C.V.u.u.u.u.u.r.^ N e e e e e e e e e e e e e e e e e e e e e e e e e e e e e e e e e e e e e e e e e e e e e e e e e e e e e e e e e e e e r r e e e r r r r e e r r r r e e e r e e e e r e e e r e f f r r r r r r r r r r e e r r r r e ",
"7 7 7 6 7 7 7 7 7 7 7 7 7 7 7 7 7 7 7 7 7 7 7 7 7 7 7 7 7 7 7 7 7 7 7 7 7 7 7 7 7 7 7 7 7 7 7 7 q q q q q q q q q q q e e q q q q q q q q q q q q q q q q q q q e q q q q q q q q q q q q q q q q q q q q q q q q q q q e M ^ r.u.u.u.u.u.V.C.Z.`.-X-X-X:X-X:X-X-X-X-X:X6X:X:X-X-X-X-X-X:X:X:X4X:X-X-X-X-X-X-X-X-X-X-X-X-X-X-X:X:X:X:X:X:X:X:X:X:X:X:X4X:X:X:X:X-X-X-X-X-X-X-X-X-X-X-X-X-X-X-X-X=X=X-X-X=X=X%X%X%X%X%X-X-X-X-X-X-X-X-X-X:X:X-X-X-X:X:X-X-X-X-X-X{.{.{.{.{.{.{.{.{.{.{.{.-X-X-X-X-X-X-X-X-X-X-X=X-X-X%X-X-X-X-X-X-X-X%X%X{.%X{.-X{.{.%X-X-X-X}._.Z.C.V.u.u.u.u.u.r.^ M e e e e e e e e e e e e e q e e e e e e e e e e e e e e e e e e e e e e e e e e e e e e e e e e e e e e e e e e e r r r e e e e e r r e e r r r r e e e e e e e f f f f f e e e e r r e r r r r r e r e e r r r r e ",
"7 7 6 7 7 7 7 7 7 7 7 7 7 7 7 7 7 7 7 7 7 7 7 7 7 7 7 7 7 7 7 7 7 7 7 7 7 7 7 7 7 7 7 7 7 7 7 q q q q q q q q q q q q q q q q q q q q q q q q q q q q q q q q e e q q q q q q q q q q q q q q q q q q q q q q q q q q M ~ e.u.u.u.u.u.V.C.Z.`.4X-X-X:X-X4X-X-X:X-X:X-X-X:X:X6X:X:X:X:X:X:X:X:X:X:X-X-X:X:X-X-X:X-X-X-X-X-X-X-X:X:X:X-X:X:X-X:X:X:X:X:X:X:X:X:X:X-X-X-X-X-X-X-X-X-X-X-X-X-X-X-X-X:X-X-X-X-X=X-X=X-X-X{.=X-X-X-X-X-X-X-X-X:X-X-X-X-X-X-X-X-X-X-X{.{.{.{.{.{.{.{.{.}.-X}.-X-X-X-X-X:X:X-X-X-X-X-X=X-X-X-X-X-X-X-X-X{.-X-X-X=X-X%X%X-X}.-X-X{.}.-X{.{._.Z.C.V.u.u.u.u.u.e.~ d d q e q q e e e e e e e e e e e e e e e e e e e e e e e e e e e e e e e e e e e e e e e e e e e e e e e e e e r r e e e e r r e e e e r r e e e e e e e e e f f f f f e e e e e e e e e e e e e e e e e e r e e ",
"7 7 6 6 7 7 7 7 7 7 7 7 7 7 7 7 7 7 7 7 7 7 7 7 7 7 7 7 7 7 7 7 7 7 7 7 7 7 7 7 7 7 7 7 7 7 q q q q q q q q q q q q q q q q q q q q q q q q q q q q q q q e q q q q q q q q q q q q q q q q q q q q q q q q q q q d C w.u.u.u.u.u.V.C.Z._.4X5X-X-X-X-X:X-X-X-X:X-X-X-X:X-X:X:X:X4X:X:X4X:X:X:X:X:X:X:X:X:X:X:X:X:X-X-X-X-X-X-X-X-X-X-X-X-X-X:X:X4X:X:X4X-X:X:X-X:X-X-X-X-X-X-X-X-X-X-X-X-X-X-X-X-X-X-X-X-X-X}.{.}.-X}.-X}.-X}.-X=X-X-X-X-X-X-X-X-X-X-X%X-X-X-X-X-X{.}.{.{.{.}.-X-X-X-X-X-X-X-X-X-X:X-X-X-X-X-X-X-X-X-X-X-X-X-X-X}.-X-X-X-X-X%X-X}.}.-X-X-X{.}.-X{.{.}._.Z.C.V.u.u.u.u.t.e.C d d q q e e e e e e e e e e e e e e e e e e e e e e e e e e e e e e e e e e e e e e e e e e e e e e e e r r r r e e e e r r e e e e r e e e e e e e e f f e e e e e e e e e e e e e e e e e e e e e e e e e e ",
"7 7 6 6 6 7 7 7 7 7 7 7 7 7 7 7 7 7 7 7 7 7 7 7 7 7 7 7 7 7 7 7 7 7 7 7 7 7 7 7 7 7 7 7 q q q q q q q q q q q e q q q q q q q q q q q q q q q q q q q q q e q q q q q q q q q q q q q q q q q q q q q q q q q e N ^ t.u.u.u.u.u.C.Z._.6X6X6X6X-X-X4X-X-X-X4X6X:X:X-X6X6X:X6X:X:X4X:X:X:X:X:X:X4X-X:X:X:X:X:X:X:X:X:X-X-X-X-X:X-X-X:X-X-X-X-X:X:X:X:X:X:X:X:X:X-X-X-X:X-X-X-X-X-X-X-X}.-X-X-X-X:X-X-X-X-X-X{.}.}.}.{.{.}.-X-X}.{.-X-X}.}.-X-X-X-X-X-X-X%X{.-X-X-X=X}.{.}.{.}.}.}.}.}.}.}.-X-X-X-X{.-X-X-X-X%X{.%X=X=X%X-X%X{.{.{.{.{.{.}.{.{.{.{.{.{.{.{.{.{.{.{.{.(.{.'.{._.M.C.u.u.u.u.u.t.^ N d e e e q e e e e e e e e e e e e e e e e e e e e e e e e e e e e e e e e e e e e e e e e e e e e r e e e e e e e e e e e r r r e e e e e e e e e e r r e e e e e e e e e e e r e e e e e e e e e e r r r ",
"6 7 7 7 7 7 7 7 7 7 7 7 7 7 7 7 7 7 7 7 7 7 7 7 7 7 7 7 7 7 7 7 7 7 7 7 7 7 7 7 7 7 q q q q q q q q q q q q e e q e q q q q q q q q q q q q q q q q q q e q q q q q q q q q q q q q q q q q q q q q q q q e M ^ r.u.u.u.u.u.C.M._.:X:X:X:X-X=X-X-X-X-X-X-X-X-X-X-X-X-X-X-X-X-X-X-X-X:X=X-X=X=X=X-X-X-X-X-X-X:X-X=X-X-X:X-X-X-X-X-X=X=X%X=X=X=X=X=X=X{.{.{.{.{.{.{.(.'.(.(.(.(.(.(.(.(.(.(.(.(.'.'.'.'.'.(.(.~.~.~.~.~.~.(.(.(.(.(.(.(.(.(.(.'.(.(.(.(.(.(.(.(.(.(.(.(.(.~.~.~.~.~.(.~.(.(.~.~.~.(.(.(.(.(.~.~.^.~.(.~.~.~.E.!.~.R.!.!.!.R.!.!.E.E.!.!.E.!.!.!.R.R.R.R.R.R.R.R.G.M.V.u.u.u.u.u.r.^ M d e e e e e e e e e e e e e e e e e e e e e e e e e e e e e e e e e e e e e e e e e e e e e e r e e e e e e e e e e e r r r e e e e r e e e e e r r r r e e e e e e e e r r e r e e e e e e e e r r r ",
"6 6 7 7 7 7 7 7 7 7 7 7 7 7 7 7 7 7 7 7 7 7 7 7 7 7 7 7 7 7 7 7 7 7 7 7 7 7 7 7 7 q q q q q q q q q q q q q q q q q q q q q q q q q q q q q q q q q e e e q q q q q q q q q q q q q q q q q q q q q q q d C e.u.u.u.V.u.V.C.Q.+X+X%X+X+X+XOXOXOXOXOXOXOXOXOXOXOXOXOXOXOXOXOX'.'.'.OXOXoXOX).).'.'.'.'.OXOX'.OXOX'.OXOX'.'.OX'.'.'.'.'.'.(.'.'.'.'.(.(.^.~.^.!.!.R.R.R.R.R.L.L.L.R.R.L.L.G.G.G.Y.R.R.R.R.R.G.F.F.F.G.G.G.L.G.G.G.G.G.G.G.G.G.R.R.R.R.Y.G.G.G.G.G.G.G.G.G.G.G.F.G.G.G.G.F.F.F.F.F.F.F.G.G.G.G.G.G.G.G.F.A.A.S.A.A.A.A.A.S.A.A.A.A.A.A.A.A.A.A.A.A.A.A.l.A.l.l.l.l.l.m.C.V.u.u.u.u.u.e.C d d d d e e e e e e e e e e e e e e e e e e e e e e e e e e e e e e e e e e e e e e e e e e r e e r e r r r r e e e e r r e e r r r r e e e e r r r r r r e e e e r r r r r r r r e e e e e e r r r ",
"6 6 7 7 7 7 7 7 7 7 7 7 7 7 7 7 7 7 7 7 7 7 7 7 7 7 7 7 7 7 7 7 7 7 7 7 7 7 7 q q q q q q q q q q q q q q q q q q q q q q q q q q q q q q q q q q e e e q q q q q q q q q q q q q q q q q q q q q q q N ^ t.u.u.u.u.V.C.Q.+X+X+XOXOXOXOXOXoXOXoXoXoX`.).oX).).).oX).oX).).).).).).)./.).)./././.).)./././././././././.)././././././.!./././././.^.!.!.E.R.R.G.G.D.D.D.A.A.l.g.g.l.<.<.g.g.g.g.g.g.g.g.g.g.<.<.<.>.>.<.<.<.<.<.<.<.g.<.<.g.g.g.g.g.g.g.g.g.<.<.<.g.<.<.<.<.:.>.>.>.:.:.>.:.:.:.:.:.,.<.<.<.<.g.g.g.<.:.:.-.-.%.%.%.-.%.-.@.@.@.@.-.@.%.=.%.%.@.@.@.@.] @.@.] ] ] ' ] ] y.t.u.u.u.u.u.r.^ N e d d e e e e e e e e e e e e e e e e e e e e e e e e e e e e e e e e e e e e e e e e e r e e r r r r r r e e e r r r r r r r r r e e r e r r r r r r r e e e r r r r r r r r r r e e e e r r e ",
"7 7 7 7 7 7 7 7 7 7 7 7 7 7 7 7 7 7 7 7 7 7 7 7 7 7 7 7 7 7 7 7 7 7 7 7 7 7 q q q q q q q q q q q q q q e q q q q q q q q q q q q q q q q q q q e e q q q q q q q q q q q q q q q q q q q q q q q d C e.V.u.u.u.V.C.Z._.+X+X+X+X+X+X+XoXoXoXoXoXoX).).oXXXoXoXoXoXXXXX).).).)./././././././././././././././././././././././././.!.T.T.T.Y.Y.!.!.T.T.T.Y.G.D.l.g.:.:.-.-.-.%.] ] ` ) ~ K s g s s s J ~ K g g g a s s u g g K K K g g g K K K K K K K g g g J K g a K g a s u s s 5 5 5 t t t 6 5 3 t H J J K ~ ~ ` ) J 3 > : 1 1 > > : - - > : > > : > > > : $ & & % % - $ - $ $ % % $ $ 3 ^ t.u.u.u.u.u.e.~ d d e e e e e e e e e e e e e e e e e e e e e e e e e e e e e e e e r e r r r r r e r r r e e e r r r r r r r e e e e e f f f r r r r r e e e r r r r r r r e e e r r r r r r r r e e e e e e ",
"7 7 7 7 7 7 7 7 7 7 7 7 7 7 7 7 7 7 7 7 7 7 7 7 7 7 7 7 7 7 7 7 7 7 7 7 7 q q q q q q q q q q q q q q q q q q q q q q q q q q q q q q q q q q q q q q q q q q q q q q q q q q q q q q q q q q q N ^ t.u.u.V.V.V.C.Q.oXoXoXoXoXoXoXoXoXoXoXoXoXoXoX).).XXXX).).)./././././.XX/./././.XXXX/./././././././././.T./.T././././.T./././.T.T.T.!.!.T.T.T.T.!.T.Y.D.g.:.@.` ] ' ` ) K K g u 5 # # # $ $ # $ $ $ $ $ $ $ $ $ $ $ $ $ $ $ % $ $ % & $ $ $ $ % % $ $ % % % % % : : % $ % $ $ $ $ $ $ $ $ # $ $ 3 t t i K K P K i - $ $ $ $ $ $ $ $ $ $ $ $ $ $ $ $ $ % $ $ $ $ $ $ $ $ $ $ $ $ $ $ $ $ b e.t.u.u.u.u.t.^ N e e e e e e e e e e e e e e e e e e e e e e e e e e e e e e e e e e r r r r e e r r e e e e r r r r e r r r e e e e e f r r r r e e e e r r r r r r r r e e e e r r r r r r r r r e e e e ",
"7 7 7 7 7 7 7 7 7 7 7 7 7 7 7 7 7 7 7 7 7 7 7 7 7 7 7 7 7 7 7 7 7 7 7 q q q q q q q q q q q q q e e q q q q q q q q q q q q q q q q q q q q q q q q q q q q q q q q q q q q q q q q q q q q d C e.u.u.V.u.V.C.Z.XXXXoXXXXXoXoXXXXXXXXXXXoXoXoXoXXXXXXX/.XXXXXXoXoXoXoX+X$X;X0X0X0X0XjXjX0XjX0X1X1X1X$X$X$X$X#X#X$X#X#X#X#XXXXXXXXXXXXXXX/./.T.T.T.T././.Y.D.g.:.+.` ' ' ' ` ` K g u > $ # # # # $ X # $ $ X $ $ $ $ $ $ $ $ $ $ % $ % $ : u 5 % $ $ $ $ $ % $ $ $ $ $ $ $ $ $ $ $ $ $ $ $ $ $ $ # - 3 t t i H P P K p - % % $ $ % % $ % $ % $ $ $ $ $ % % $ $ $ $ $ $ $ $ $ $ $ $ $ $ $ $ - - > / r.u.u.u.u.u.e.~ d d e e e e e e e e e e e e e e e e e e e e e e e e e e e e e e e e r e e e e r r r e e e e e e e e e r r r r r r e e e r e e e e e e e e r r r r e e e e e e e e r r f r e e r r e r e ",
"7 7 7 7 7 7 7 7 7 7 7 7 7 7 7 7 7 7 7 7 7 7 7 7 7 7 7 7 7 7 7 7 7 7 7 q q q q q q q q q q q q e e e q q q q q q q q q q q q q q q q q q q q q q q q q q q q q q e q q q q q q q q q q q q N ^ t.u.V.u.u.V.M.Q././././././././././././././.XX/././.XX/././././.XXoXOX;X9XrXxXxXVXVXVXVXBXVXSXVXVXSXVXVXVXVXVXVXVXVXVXbXbXbXxXxXxXxXzX0X0XzXtX0X0X1X$X$X#X/.I.g.:.O.` ] ] ] @.] ' ) a 5 $ # # # # X X $ $ $ # $ $ $ # $ $ $ $ $ $ $ $ $ % % X $ u # $ $ $ $ $ $ $ $ $ $ # % $ $ $ o $ $ $ $ $ $ $ $ - 3 t t i K P P K F - % % % % % % % % % % & $ % $ % % $ % % % $ $ $ $ $ % $ $ $ $ $ $ % % - > > s w.t.u.u.u.u.t.^ C e e e e d e e e e e e e e e e e e e e e e e e e e e e e e e e r r e e e e r r r e e e e e e e e e r r r r e r r r e e e e e e e e e e r r r e e e e e e e e e e f f r e e r r e e e ",
"7 7 7 7 7 7 7 7 7 7 7 7 7 7 7 7 7 7 7 7 7 7 7 7 7 7 7 7 7 7 7 7 7 q q q q q q q q q q q q q e e e q q q q q q q q q q q q q q q q q q q q q q q q q q q q q q q q q q q q q q q q q q d C e.u.u.u.u.V.C.Z./.T.T.T.T.T.T.T.T.T.T.T.Y.T.T.T.T.T.T.T.T.T./.T./././.).+X9X0XpXVXVXSXBXDXDXDXJXJXJXJXJXJXDXDXDXDXDXJXDXSXDXDXDXDXDXSXSXSXSXSXSXDXSXSXSXSXVXtX+XI.j.=.O.` ] +.@.%.-.@.) g 5 $ $ $ # # o $ X $ $ $ $ $ $ $ 5 u + $ $ $ $ $ $ 5 % $ # > > $ $ $ $ $ $ $ $ $ $ $ $ $ $ $ $ $ $ $ $ $ $ $ $ - 3 t t i P P ~ K G > : : - - : % % : - : % - % % % % - % % % % % $ $ $ $ $ $ $ $ $ $ $ : : - > 5 > ~ r.u.V.u.u.u.e.C d e e d e e e e e e e e e e e e e e e e r r e e e e r r e e e e e e r r e e e e r r e e e e r r r e e e e e r r r r e e e e e e e e e e e e e e r r r r e e r r r r e e r f f f f ",
"7 7 7 7 7 7 7 7 7 7 7 7 7 7 7 7 7 7 7 7 7 7 7 7 7 7 7 7 7 7 7 q q q q q q q q q q q q q q q q e q q q q q q q q q q q q q q q q q q q q q q q q q q q q q q q q q q q q q q q q q q N ^ r.u.u.u.u.V.M.Q./.T.T.T.T.T.T.T.Y.Y.U.U.U.U.U.U.Y.Y.Y.Y.Y.T.T.T.T.T././.oX+X0XzXVXVXSXDXJXJXJXJXJXJXJXJXJXJXJXJXJXJXJXJXJXJXJXJXJXJXJXJXJXJXJXJXJXJXDXDXJXDXDXBXkXT.f.$.] ] +.-.%.:.-.%.` J 5 $ $ # $ $ X X $ $ X $ X X $ $ : a g 5 > % $ $ % > X a u > $ $ $ $ $ $ % $ $ $ $ $ $ $ $ $ $ $ $ $ $ $ $ $ $ - t t p p P P ~ P G > : - - - : : - - : & : ; - % : % % % $ $ % % $ $ % % $ % % % % % % - - > > 1 1 > w w.t.u.u.u.u.r.^ N d d e e e e e e e e e e e e e e e e r r e e e e r r e e e e e e r r e e e e r e e e e e r r e e e e e e r e r r e e e e e e e e e e e e e e r r r r e e r r r r e e r f f f f ",
"7 7 7 7 7 7 7 7 7 7 7 7 7 7 7 7 7 7 7 7 7 7 7 7 7 7 7 7 7 7 q q q q q q q q q q q q q q q e e e q q q q q q q q q q q q q q q q q q q q q q q q q q q q q q q q q q q q q q q q q N w.u.u.u.u.V.C.Z././././.T.T.T.T.T.T.Y.U.U.U.I.U.I.U.U.Y.Y.U.Y.Y.Y.T.T.T././.oX$XtXVXBXDXDXJXJXPXPXPXPXPXPXPXPXPXPXPXPXPXPXPXPXPXPXPXPXPXPXPXPXPXPXPXPXPXPXPXPXPXDXDXVX#Xf.@.` +.@.@.-.-.-.@.] K 1 $ 5 5 $ $ > $ $ $ # + u u $ $ $ $ # a $ 5 p $ > 6 ) 5 o $ $ $ # $ $ - $ $ $ $ $ $ $ % $ $ $ $ $ $ % % $ % % - t p p H ~ ~ ` P H > - - - - - : : : - : : - - - - - - - - $ % % $ $ $ $ % % % % - % % - - > > 1 5 5 t 1 / r.u.u.u.u.u.w.C e e e e e e e e e e e e e e e e r r r e e e r r r e e e e r r r r e e r r r r e e e r r r e e e e e e e e r r e e e e r r r r e e e e e e r r e e e e e r r e e e e f f f f ",
"7 7 7 7 7 7 7 7 7 7 7 7 7 7 7 7 7 7 7 7 7 7 7 7 7 7 7 7 q q q q q q q q q q q q q q q q q q e q q q q q q q q q q q q q q q q q q q q q q q q q q q q q q q q q q q q q q q q d C e.u.u.u.u.V.M.Q././././.T.T.T.T.T.T.Y.T.Y.U.U.U.U.U.U.U.U.U.U.U.Y.Y.Y.Y.T././.oX9XpXVXSXDXJXJXPXPXPXPXPXPXPXPXPXPXUXPXUXPXUXUXPXUXPXUXPXUXUXUXUXPXPXPXPXPXPXPXPXPXJXJXSX0Xj.@.+.+.:.-.<.>.-.-.] K t - % g K $ a & 6 % u a & u $ - p T ` ' ; > T ' ; ' J - > > > > > > > > > > - - - - > > > 5 5 > > > - > > 5 1 t G J K P ` O.` ` P i 5 > > > - - > > > 5 5 5 3 3 > > > > - > - - - - - - > > > > - : % % - > t t p J J J K ~ r.t.u.u.u.u.e.C f e e e e e e e e e e e e e e r r r e e e r r r r r e e e r r r e e e r r r e e e r r r e e e e e e e e r r e e e e r f f f f f f f f f e r e e e e e r e e e e f f f f f ",
"7 7 7 7 7 7 7 7 7 7 7 7 7 7 7 7 7 7 7 7 7 7 7 7 7 7 7 q q q q q q q q q q q q q q e e e q q q q q q q q q q q q q q q q q q q q q q q q q q q q q q q q q q q q q q q q q q M ^ r.u.u.u.u.C.M.T./.T.T./.T.T.T.T.T.T.T.Y.Y.Y.Y.U.Y.Y.U.U.U.U.Y.Y.U.Y.Y.Y.T.T./.).+X9XxXBXDXDXJXJXPXPXPXPXUXUXPXUXPXPXPXPXPXPXUXUXPXPXPXPXPXUXUXPXPXPXPXUXUXUXUXPXPXPXPXJXDXzXm.%.+.-.>.-.g.g.:.-.@.~ i > J y u U ) ] ) ' K u J ] ' ' +.@.] ] :.` ` @.] ` ` ) J J J J J J J J J p p i p p J J K J J J g p p J J J J K ) ` ` ` @.@.@.+.` H g p p i t u i p p g g p p p p p p p i i u u u t i i i u u t 5 - - - > t p K K T ) ` ` ` @.y.t.u.u.u.u.r.^ N d e e e e e e e e e e e e r e e e e r r e e r r e e e e e e e e e r r r e e f r r r e e e r r r e e e r r r e e e e e e e e r r r r r r e e e e e e e f f f f f f f f ",
"7 7 7 7 7 7 7 7 7 7 7 7 7 7 7 7 7 7 7 7 7 7 7 7 7 q q q q q q q q q q q q q q q q e e e q q q q q q q q q q q q q q q q q q q q q q q q q q q q q q q q q q q q q q q q q N w.u.u.u.u.V.C.Q.T.T.T.T.T.T.!.T.T.T.T.Y.Y.Y.Y.Y.Y.Y.Y.Y.Y.Y.Y.Y.Y.Y.Y.Y.Y.T.!.T./.).+X9XxXBXDXDXJXPXPXPXPXUXUXUXUXUXUXUXUXPXUXUXUXUXUXUXPXUXUXUXUXUXUXUXUXUXPXUXUXUXUXPXPXJXDXxXY.:.>.<.<.%.<.<.g.:.%.` F K ) u ) ' %.] ] -.) ] l.S.F.L.E.A.F.F.9.l.%.%.<.-.>.>.:.] ` ` ` ` ` ` ` ` P P P ) ) ` ` ` ` ` T K T T ) ` ` ` +.+.+.@.$.$.$.$.O.` ) ) K K K K K K K K K K K K K K K K K K K K K K K K K K J g u 1 - > 5 p J K ` ` ] ' ' @.%.:.,.t.V.u.u.V.u.w.C e e e e e e e e e e e e r e e e e r r e e r r e e e e e e e e e e r r e e f f r e e e e r r r e e e r r r r e r r e e e e e e r r r r e e e e e e f f f f d d f f f ",
"7 7 7 7 7 7 7 7 7 7 7 7 7 7 7 7 7 7 7 7 7 7 7 7 q q q d q q q q q q q q q q q q q e e q q q q q q q q q q q q q q q q q q q q q q q q q q q q q q q q q q q q q q q q d C e.u.u.u.u.V.M.Q././././././.!.!.!.!.!.!.!.!.!.!.!.R.R.Y.R.Y.T.Y.Y.R.R.R.Y.!.!.!./.).oX;XwXgXSXDXDXJXPXPXPXPXUXUXUXUXUXUXUXUXUXPXPXPXUXPXPXUXUXUXUXUXUXUXPXUXUXUXUXUXUXUXUXPXJXDXVX+X:.A.A.A.<.>.l.g.:.<.' ` >.:.%.g >.>.-.>.S.l.l.F.S.F.R.A.F.G.L.F.F.-.<.R.l.A.<.<.l.@.+.@.@.@.+.+.+.` ` +.+.@.@.+.@.+.' ` ] ] ] ] @.@.+.@.@.@.@.=.:.:.$.@.+.+.` ` ` ` ` ` ` ` ` ` ` ` ` ` ` ` ` ` ` ` ` ` ` ` T ` ` T K p 5 > > t J ) ` ` +.@.@.@.@.%.:.<.,.y.V.u.V.u.u.e.C d e e e e e e e e e e r e e r e r r e e r r r e r r r r e e e e r r r e r r e e e e r r r r e e e e r r r r r r r r e e e e e e r e e e e e e f f f d d d f f f f ",
"7 7 7 7 7 7 7 7 7 7 7 7 7 7 7 7 7 7 7 7 7 7 7 q q q q q q q q q q q q q q q q q q q q q q q q q q q q q q q q q q q e e q q q q q q q q q q q q q q q q q q q q q q M ~ r.u.u.u.u.C.Z.).).).)./././.^././././././././.^.^.^.!.^.!.!.^.^.!.^.^.E.^./.^././.).oXOX:XwXgXBXDXDXJXJXPXPXPXUXUXPXPXPXUXUXUXUXPXPXUXPXPXPXUXPXPXPXUXUXPXPXUXUXUXUXUXUXUXPXPXPXJXSX0Xj.A.A.l.%.S.S.A.S.l.>.F.F.S.R.A.9.l.%.R.S.G.G.A.S.S.L.<.-.<.F.F.~.R.F.A.A.<.Y.<.g.f.g.:.$.:.$.@.@.@.@.@.@.@.@.%.%.@.@.+.@.@.@.@.@.@.$.$.@.@.=.:.:.:.:.$.@.@.@.@.+.+.+.+.+.+.+.+.+.+.+.+.@.O.O.+.+.+.+.+.' ' ` ` ' ` T J t > 3 i K ` ' +.+.@.@.@.@.@.-.-.=.g.M.C.u.u.u.u.r.~ d d e e d e e e e e r e e r r r r e e r r e e r r r r e e e r r r r e r r e e e e r r r r e e e e r r r r r r r e e e e e e e e e e e e e f f f f f f d d f f f ",
"7 7 7 7 7 7 7 7 7 7 7 7 7 7 7 7 7 7 7 7 7 7 q q q d q q q q q q q q q q q q e q q q q q q q q q q q q q q q q q e e e e q q q q q q q q q q q q q q q q q q q q q M ^ t.u.u.u.V.C.Q.'.'.'.).`.).).).).).(.).).).).).^.^.).).).^.^.^.^.^.).).^.^.).^.).).).OXOX=X4XtXpXBXSXSXJXJXPXPXPXPXPXPXPXPXPXUXUXUXPXPXPXPXPXPXPXPXUXPXPXUXPXPXPXUXPXUXUXPXUXPXPXPXJXSX0XT.g.G.S.l.A.R.F.L.F.L.G.F.G.S.R.L.L.F.F.F.F.l.l.S.A.D.R.G.G.g.!.A.A.S.G.G.G.G.F.R.g.<.<.g.,.:.:.%.@.@.@.:.=.@.@.@.@.@.@.@.@.@.@.%.=.=.$.$.$.=.:.:.:.:.=.@.@.@.@.@.@.@.@.@.@.+.+.+.+.+.+.@.@.@.@.@.@.@.@.+.+.' ] ' ` U J t > 3 i K ` +.@.@.+.@.@.@.=.:.:.$.D.Y.Q.C.u.u.u.u.t.^ N d e e e e e e e e e r r r e e e e e e e e r e e e r f r r e r r r e e e e e r r r r e e e e e e e r r e e r r r r r r e e e e e e e d f f f f f f f f f f f ",
"7 7 7 7 7 7 7 7 7 7 7 7 7 7 7 7 7 7 7 7 q q q q q q q q q q q q q q q q q e q e q q q q q q q q q q q q q q q q q q q q q q q q q q q q q q q q q q q q q q q q N w.u.u.u.u.V.M._.'.(.'.'.'.'.).`.).).(.(.'.(.'.'.'.(.(.(.).(.).(.(.(.(.).).'.).(.).(.).'.'.OX%X:X9XpXgXVXVXSXJXJXJXPXPXPXPXPXPXPXPXPXPXPXPXPXPXPXPXPXPXPXPXPXUXPXPXPXPXPXPXPXPXPXPXPXPXJXSXzX/.g.S.A.(.R.A.L.F.S.A.L.R.L.S.S.L.L.R.L.S.l.>.>.-.%.<.R.<.l.l.A.F.9.9.-.9.F.F.L.F.L.G.l.:.@.@.@.:.@.@.$.@.@.%.@.%.@.@.@.@.@.@.@.@.@.@.=.$.$.=.:.:.:.:.$.@.@.@.@.@.@.@.@.@.+.@.+.] +.O.+.O.@.@.@.@.@.@.+.@.+.+.] ] ` T J t > 3 p K ` @.@.@.@.@.@.=.-.:.:.g.G.Y.R.Q.M.V.u.u.u.u.w.N d r e e e e e r e r r r r r e e e e e e e r e e r e r r e r r r e e e e e e r r r r e e e e e e r f f e r r r r r r e e e e e e d d f f d r r f f f f d f ",
"7 7 7 7 7 7 7 7 7 7 7 7 7 7 7 7 7 7 q q q q q q q q q q q q q q q q q q q e e e q q q q q q q q q q q q q q q q q q q q q q q q q q q q q q q q q q q q q q q C w.u.u.u.u.C.Z.).'.(.'.'.`.'.'.'.).`.).'.'.).).'.'.'.'.'.(.(.(.(.(.(.'.(.).(.).(.(.).(.(.(.(.'.OX%X4XqXyXpXVXVXVXSXJXJXJXJXJXJXJXJXJXJXJXJXJXJXJXJXJXJXJXJXPXJXJXJXJXPXJXPXPXPXPXPXPXJXJXJXSXxXoX%Xl.R.L.L.!.A.A.A.l.9.l.l.A.9.S.S.S.l.;.>.>.>.l.>.%.>.] %...] -.%.] ;.>.&.9.F.~.S.L.R.g.%.@.-.:.@.@.@.@.@.@.@.@.@.@.@.@.@.@.@.@.%.@.@.@.$.=.:.:.=.:.=.@.@.@.@.@.@.@.@.@.+.+.+.] ` O.+.+.@.@.@.@.@.@.+.+.' ] ` ] ` T J t 1 3 p P ] +.+.@.@.@.@.%.@.:.:.g.G.Y.R.R.!.M.C.u.u.u.u.e.C r r r e e e e e e r r r r r e e r e r e e e e e e e e e e r r e e e e e e e e e e e e e e e e f f f e e e e e r e r r e e e e f f f f f r f d f f d e e ",
"7 7 7 7 7 7 7 7 7 7 7 7 7 7 7 7 7 q q q q q q q q q q q q q q q q q e q q e q q q q q q q q q q q q q q q e e q q q q q q q q q q q q q q q q q q q q q q q C e.u.u.u.u.C.Q.'.'.'.OX'.'.OXOXOXOX'.'.'.OXOX'.'.'.'.'.'.).'.'.'.).(.(.).).).).(.(.(.(.(.(.).(.'.'.'.OX:X4XwXyXpXxXbXVXVXSXSXSXSXSXSXSXSXSXSXSXSXSXSXSXSXSXSXSXSXSXSXSXSXSXSXSXDXJXSXSXSXSXVXVXwX4XF.'.{.R.R.A.l.9.9.F.l.>.%.>.9.>.A.<.-.] ] %.%.] g ' ) ) 6 ' a g 7 g g _ %.9.l.l.L.L.L.G.l.>.%.@.@.@.@.@.@.@.@.@.@.@.O.O.O.+.@.@.@.@.@.@.@.@.=.:.:.$.@.O.@.@.@.+.+.@.+.] ` ` ` ` ` ` O.O.O.@.@.@.+.+.+.+.] ` ` ` ` T J i 3 3 p K ` ' +.@.@.@.:.-.@.@.g.D.F.Y.R.!.Y.G.M.C.u.u.u.u.e.C f r r e e e e r r r r r r r e e r e f f f f f e e e e e r r r e e e e e e e e e e e e e e f f f f e e e e e r e e f e e e e f f f f f f f d f r e e e ",
"7 7 7 7 7 7 7 7 7 7 7 7 7 7 7 q q q q q q q q q q q q q q q q q q e e q q q q q q q q q q q q q q q q q e e q q q q q q q q q q q q q q q q q q q q q q q C r.u.u.u.V.C.Q.`.).'.OXOX'.OX'.OXOXOXOXOXOXOXOX'.OX'.OXOX'.'.'.'.'.).).'.).).).).).(.).(.(.(.(.(.).).(.).'.OX=X3X3X9X0XtXiXiXiXiXxXxXxXxXxXxXxXxXbXbXbXbXbXbXbXbXxXxXbXVXVXbXbXVXVXVXVXVXVXVXVXpX4X!.!.(.G.F.l.-.>.l.-.>.>.>.%.;.>.!.F.>.] ] ' ) %.6 g a ) a ) ' a : a ' -.-.' %.%.;.9.l.S.A.F.A.l.%.@.] ` ` ] ] ` ` ` ` ` ` ` ` ` O.` ` ] +.@.O.$.$.$.@.O.` ` ` ` ` ` ` ` P P P K K P P ` ` @.@.@.@.+.+.+.' ` ` ` ` ` ) K i i i p K ` +.@.@.:.:.:.:.-.:.g.D.G.Y.R.T.Y.Y.Y.M.C.V.u.u.u.r.C d r r r r e e r r r r r r e e e f f f f f f e e e e e e e e e e e e r e e e e e e e e e f f f f e e e r r r f f f e e e d d f f f f f d e r r r e r ",
"7 7 7 7 7 7 7 7 7 7 7 7 7 7 q q q q q q q q q q q q q q q q q q q e e e q q q q q q q q q q q q q q q q q q q q q q q q q q q q q q q q q q q q q q q M ~ r.u.u.u.V.C.Q.).).).'.).).`.'.'.OXOXOXOXOXOXOX+XOXOX'.'.'.'.'.'.'.'.'.'.'.'.'.'.'.).).(.(.).^.(.~.(.^.^.^.~.~.~.).).).`.).).).`.`.`.+X'.+X+X+X3X3X1X3X3X3X3X3X3X3X3X3X3X3X3X3X9X9X0X0X0XiX0XtXyX4X(.^.!.G.G.R.>.-.<.] %.-.-.-.-.>.] >.] ) ' U a ' ) ' ) a g : % g ] u U ) a a a K ) ' ' <.S.S.S.l.%.-.@.:.@.) K K P K P ` P ` P P P K K P ~ ` ` ` #.O.#.O.~ H K K K K K H J J G G G F G H K ` ` +.@.+.+.+.] ` ` ` ` ` ` ) K F i i p K ` @.:.g.g.g.<.:.:.g.l.D.G.Y.R.Y.Y.Y.Y.G.m.C.V.u.u.u.r.~ f e r r e e r r r r e r e e r r r r e e e e e e e e r e e e e e r r e e r r e r e e e e e e e e e e r r f f f f d d f f d d f f f f d d f f e e e ",
"7 7 7 7 7 7 7 7 7 7 7 7 7 q q q q q q q q q q q q q q q q q q q q q e q q q q q q q q q q q q q q q q q q q q q q q q q q q q q q q q q q q q q q q M ^ r.u.u.u.V.M.Q.!.^.!.^.^.^.).).).).`.`.`.'.'.'.'.OX'.OX'.'.'.'.OX'.'.'.'.OX'.'.'.'.).'.).).).).(.^.).^.^.^.^.^.^.!.!.!.!.!.!.!.!.!.!.!.!.!.!.!.!.!.!.!.!.!.!.!.!.!.!.!.!.!.!.!.!.!.!.!.^.!.!.'.3X'.(.^.A.A.F.l.l.-.%.] ) ] ` U ] _ _ ..] ' U < :.) u K U $ U y K ) g g ) 6 U z U ) a z -.] %.l.~.W.S.S.9.F.F.l.%.] @.u i K +.] K J H F F p H P P K ~ O.O.O.O.K i i t i i i i i 3 t 3 3 i i i G P ` +.+.+.+.+.` ` ` ` ` ` ` ) K J i i G K O.f.D.Y.Y.D.g.:.f.g.x.D.Y.Y.Y.Y.Y.Y.Y.G.G.D.M.V.u.u.u.t.^ M d e e e e e e e e e e e e e r e e e r r r e r r r r e e e r r r r r r r r r r r e e r r r r e e e e f f f f f f f f f f f f f r f f f f d q q ",
"7 7 7 7 7 7 7 7 7 7 7 q q q q q q q q q q q q q q q q q q q q q q q q q q q q q q q q q q q q q q q q q q q q q q q q q q q q q q q q q q q q q q M ^ t.u.u.u.V.M.D.D.D.G.G.G.Y.Y.Y.Y.Y.Y.R.!.!.^.^.^.^.^.^./.^.^.^.^.^.^.^.^.^.^.^.^.^.^.^.^.^.^.^.^.^.!.!.!.!.!.!.R.R.R.Y.Y.Y.R.Y.Y.Y.Y.Y.Y.Y.Y.Y.R.R.Y.R.Y.Y.Y.Y.Y.Y.G.G.Y.Y.R.R.Y.R.Y.Y.G.G.G.R.!.(.(.(.G.G.<.<.' -.:.] ] ' ' ) U a U U ) ' U U @.5 > < : > 5 u K a ) K a U U a U z U U _ ' ;.>.F.S.S.S.L.F.G.(.:X:Xl.) U ) ] @.) T K i i 3 t i H H F H ( ~ ~ P F , > > > - - - - - - - - - : > i J P ` +.+.+.` ` ` ` ` ` ` ` ` P J p p H P =.G.R.~.!.G.l.,.g.g.D.D.Y.Y.Y.Y.Y.Y.Y.G.G.G.I.M.V.u.u.u.t.^ M d e e e e e e e e d e e e e e e e r r e e r r r r e e e r r r r r r r r r r r e e r r r r e e e f f f f f f f f f f d f f f r f d f d q q q ",
"7 7 7 7 7 7 7 7 7 7 q q q q q q q q q q q q q q q q q q q q q q q q q q q q q q q q q q q q q q q e e q q q q q q q q q q q q q q q q q q q q q M ^ t.u.V.u.V.B.f.f.f.g.g.g.g.g.g.m.m.A.D.D.D.D.D.D.D.I.Y.G.Y.Y.Y.Y.Y.Y.Y.Y.Y.Y.Y.Y.Y.Y.Y.Y.Y.Y.Y.Y.Y.Y.Y.Y.Y.Y.Y.G.G.G.G.G.G.D.D.D.D.D.D.D.D.D.D.D.D.F.F.D.D.D.D.D.D.D.D.D.D.D.D.D.D.D.D.G.G.Y.!.F.Y.(.(.G.l.l.l.' ) @.) J J J U y ) K %.' ] %.] ) ' U K u ) u 5 6 a a U ] %.) u g g 6 g U ' ..-.R.F.9.9.l.9.S.S.F.F.'.~.F.9.] -.p ` t K 3 > - - > F H H H ( ~ P P F - $ # $ # # # # # # # # # # $ > F K ` ' ` ` ` ` ` ` ` ` ` ` ` P P H G H O.D.^.'.{.(.R.D.g.g.g.D.G.Y.Y.Y.Y.Y.Y.G.G.G.D.D.D.M.V.u.u.u.t.^ N d e e e e e e e f f f e r r e e r r r r r e e e r r r r e e r r r r e r r e e e e e e r e e f f f f f f f f f d f f f f f r r e e q q q q ",
"7 7 7 7 7 7 7 7 q q q q q q q q q q q q q q q q q q q q q q q q q q q q q q q q q q q q q q q q q e e q q q q q q q q q q q q q q q q q q q q N ^ u.u.V.u.V.B.m.m.m.m.m.m.N.N.m.m.N.N.N.N.N.N.N.N.U.U.U.U.U.I.U.U.U.U.U.U.U.U.U.U.U.U.U.U.U.I.U.U.U.D.D.D.D.D.D.D.D.D.D.D.D.m.m.m.m.m.g.m.m.m.g.A.m.m.A.m.g.m.g.g.g.g.g.g.g.g.g.g.g.g.g.D.g.g.g.A.S.R.(.R.9.>.g.-.' ] ) U K g 1 u g ) ' ) ' %.U _ ' ] U u a u 6 : 5 a u a U U ' ) g z ' ) U _ ' -.>...;.] >.-.>.l.;.A.F.R.R.L.L.l.) K H K 3 , t - , H P ~ O.O.` ` ~ K t 3 - o o o o o X o o o # o o , i H ` ` ` ` ` ` ` ` ` ` ` ` ` ~ P H H ~ g.^.{.-X-X'.R.A.g.g.x.D.G.Y.Y.Y.Y.Y.G.D.F.G.D.D.G.G.M.C.u.u.u.u.^ V d e e e e r r f f f e r r e e r r r r r e e e r r r r e e r r r r r r r r r r r e e e e r f f f f f f f f d d f f f f f f d q q q q q q ",
"7 7 7 7 7 7 7 q q q q q q q q q q q q q q q q q q q q q q q q q q q q q q q q q q q q q q q q q q q q q q q q q q q q q q q q q q q q e q q N ^ u.u.u.u.C.Z.).'.`.`.OXOX+X;X;X+X;XOX+X+X;X;X3X3X3X9X9X0X9X9X3X9X9X9X9X9X3X3X3X3X3X3X4X+X+X+XOXOX`.`.).).^.!.T.T.Y.Y.Y.Y.U.I.I.D.D.D.D.D.D.D.D.D.D.D.D.D.D.m.m.m.m.m.m.m.m.m.g.m.m.D.A.D.m.m.m.m.D.^.L.R.9.<.-.%.' ] @.' K K ) K g g a 5 U ) ] U g 6 5 g 5 7 < < & < < u a a g 6 & < a g U z ' ' -.-.%.] %.-.;.9.>.%.>.>.9.>.l.}.R.>.:.` @.~ P ` H ` @.@.$.=.=.=.=.$.O.` ` K H H H H H H G J J H H H P O.@.$.:.$.=.=.=.$.$.$.=.=.=.@.$.@.#.@.:.D.).%X-X-X%XR.D.g.g.D.U.Y.Y.Y.Y.Y.Y.G.G.U.Y.Y.U.Y.U.U.M.C.u.u.u.u.^ V f f f f r r e e r r r r e e e f r r e e e e e r e e e e r r r e r r e e e e e e e e r r f f d d f f r f d d f r r e e q q q q q q q q ",
"7 7 7 7 7 7 q q q q q q q q q q q q q q q q q q q q q q q q q q q q q q q q q q q q q q q e q q q q q q q q q q q q q q q q q q q q q q q N ^ V.u.u.u.C.Q.=X:X:X3X3X4X4X4XqXqXqXqXqXqXqXqXqXwXwXwXwXyXyXpXwXwXwXyXwXyXwXwXwXwXwXwXwXwXqX9X9X9X4X3X4X3X=X;XOXOX'.).).).^.^.^.^.!.!.!.!.R.R.R.R.Y.R.Y.Y.Y.Y.Y.Y.G.Y.Y.Y.Y.U.Y.G.G.Y.Y.Y.Y.G.G.G.Y.R.~.R.F.>.>.-.] K U U U g g J J K u 7 7 a a 5 J < % 5 5 5 & & 5 < < 6 5 5 < < & & < < < u a g U ' _ ' ' ) ' ..%.%.-.>.-.<.<.l.S.!.R.F.F.A.g.l.g.g.g.g.g.g.D.D.m.m.g.g.g.g.g.g.,.g.g.g.f.f.g.g.g.g.g.g.g.m.D.D.D.D.A.D.D.D.D.D.D.D.D.D.A.A.A.D.T.).=X-X:X%XR.G.D.U.Y.Y.Y.Y.R.R.Y.Y.Y.Y.T.T.T.R.R.Y.Y.R.M.C.u.u.u.V.^ V f f f r r e e e r r r e e e f r e e e e e e e e e e e r r e e e e e e e e e e e e e f f d f f f f e e d d f f e e q q q q q q q q q ",
"7 7 7 7 7 q q q q q q q q q q q q q q q q q q q e q q q q q q q q q q q q q q q q q q q q e q q q q q q q q q q q q q q q q q q q q q q N ^ V.V.u.u.C.|.6X4X6XqXqXwXwXwXwXeXeXeXeXeXeXeXpXeXeXeXyXpXpXpXpXpXpXpXpXpXeXeXyXyXeXyXyXyXeXeXeXeXwXwXwXwX6X6X4X4X4X4X3X=X=X=X-X=X{.{.{.'.'.'.{.'.'.'.'.'.'.`.`.`.(.(.(.(.(.~.~.~.~.(.(.~.(.{.'.(.(.}.[.{.L.l.l.>.%.' ) ) ) K U a J a u 6 5 a a u g 1 : & $ $ $ $ : & < < 6 8 < < < & $ & : < : < 7 g U U ' ) ) g ) ' ' ' %.-.>.;.>.9.l.J.~.R.L.~.~.G.Y.Y.R.R.R.R.R.R.R.R.R.Y.R.Y.G.G.G.Y.R.R.R.R.R.R.R.R.!.!.!.^.~.^.!.!.!.!.^.!.^.^.!.!.^.!.!.!.^.).%X:X4X:X%X^.!.^.^.^.^.).^.^.).^.^.^.).).).).).^.).).).).Q.C.u.u.V.u.^ C f f r e r f r e e e e e e f e e e e e e e r r r e e e r e e e e r r r r r e e e e f d d d f f f r r r f f e q q q q q q q q q q q ",
"7 7 7 q q q q q q q q q q q q q q q q q q q q q q q q q q q q q q q q q q q e q e q q q e e q q q q q q q q q q q q q q q q q q q q q N ^ V.V.u.u.C.|.7XwXwXwXeXeXwXeXeXpXpXpXpXpXeXpXpXpXpXpXpXpXpXpXgXpXpXpXgXpXpXgXpXpXpXpXpXpXpXpXpXpXeXpXeXeXeXeXeXeXeXeX7X6X6X6X6X7X6X6X6X5X4X5X5X5X5X5X-X5X:X-X4X-X5X-X4X-X-X-X-X-X-X{.-X-X{.4X-X}.}.-X5X[.(.S.>.:.%.%.' ) ) U U J g 5 < 6 7 a 7 6 < y 5 & $ < < < < & 6 8 8 8 8 8 8 2 8 < < & & & # # & 6 u g a U ) z U U ' ' ....;.-.-.9.9.F.~.(.~.(.~.(.(.(.(.(.(.(.'.'.(.(.(.(.(.(.(.(.(.(.(.'.'.'.'.(.'.'.'.{.'.{.{.{.'.'.'.'.{.{.{.{.{.'.'.{.'.'.%X:X:X4X:X{.'.'.'.'.'.{.'.=X%X{.'.'.'.{.%X%X=X'.'.'.'.'.'.%XQ.C.u.V.u.V.^ V d r r r r e r e r e e e f e e e e e e e r r r e e r r e e e e r r r r r r e d d f d d d e e e f f e e q q q q q q q q q q q q q ",
"7 7 q q q q q q q q q q q q q q q q q q e e e q q q q q q q q q q q q q q q q e e e e q q q q q q q q q q q q q q q q q q q q q q q M ^ u.u.u.u.C.|.7X7X7X8XeXeXeXeXeXeXeXeXeXeXeXeXeXeXeXpXeXeXpXeXeXeXpXpXeXeXpXpXpXpXpXeXeXeXpXeXeXpXeXeXeXeXeXeXeXeXeXeX8X8X8X7X8X8X8X7X7X8X7X7X7X7X7X7X7X7X7X7X7X7X7X7X7X7X7X7X7X5X5X7X5X5X5X7X5X7X5X7X}.(.R.A.9.;.] ] ' U g K a a g a 5 a a a 8 8 8 a 5 < < < < < 6 8 8 8 j j j j j 8 j j 8 8 8 z 8 6 < & 7 5 8 g g z ) ' ..' ' ' .._ -.;.;.l.z.L.[.{.{.{.{.{.{.{.{.-X}.}.=X}.-X}.-X}.}.}.}.}.}.}.-X-X-X4X-X-X-X-X-X-X-X-X-X-X-X-X-X-X-X-X:X-X-X-X-X-X4X:X-X-X:X-X-X-X-X-X:X:X-X-X-X-X-X:X:X=X:X-X4X4X-X=X=X=X=X-X:X:XQ.C.V.V.V.u.^ N e e e e e e r r r r e f e e e e r f f f r r e e e e r r e e e e e e e e e f f f f f r r f f f f e q q q q q q q q q q q q q q ",
"q q q q q q q q q q q q q q q q q q q q e e q q q q q q q q q q q q q q q q q e e e e q q q q q q q q q q q q q q q q q q q q q q M ^ u.u.u.u.C.|.7X7X7X7X7X7X7X7X8X8X8X8X7X7X8X8X8X8X8X8X8X8X7X8X8X7X8X7X8X8X8X8X8X7X8X7X8X8X7X7X7X7X8X8X8X8X7X8X7X7X7X7X7X8X7X8X8X8X7X8X8X8X8X8X8X8X8X8X8X7X7X7X7X7X7X8X7X8X7X8X7X7X7X7X7X7X7X7X7X5X5X}.(.F.S.S.9.;.%.] ' K J U g g g u u 5 8 8 l z l z z l g g z l l l l j l j l l j j j j j j j 8 8 8 8 8 8 l 8 a z U U U U _ ) ' %.] ] ..;.7.7.9.l.L.}. X}.-X}.}.}.-X5X-X5X5X5X5X5X5X5X5X}.5X5X5X5X5X5X5X5X5X6X5X5X5X-X-X5X5X5X5X5X5X5X5X5X5X5X5X5X-X5X5X5X5X5X5X5X5X5X5X5X-X6X-X4X5X5X5X4X-X4X6X6X6X6X4X:X-X-X-X-X-X-X-X|.C.V.V.V.u.^ M d e e e e r r r r e f e e e e e f f f r r e e e e r f r e e e e e e e f f f f f f f f f f e q q q q q q q q q q q q q q q q ",
"q q q q q q q q q q q q q q q q q q q q q q q q q q q q q q q q q q q q q q q e e e q q q q q q q q q q q q q q q q q q q q q q M ^ t.u.u.u.C.|.7X7X7X7X7X7X8X8X8X7X7X7X7X8X8X8X8X8X8X8XeX8X7X7X7X7X7X7X7X7X7X7X8X7X7X7X7X7X7X7X7X7X7X7X8X8X8X8X8X7X7X8X7X8X7X7X7X8X8X8X8X8X8XaX8X8XaX7X8X8X8X7X8X7X8X8X8X8X8X8X8X8X8X8XaX8X8X8X8X7X}.[.L.S.A.l.l.l.%.' ) U U U U g g a 8 8 z x Y x x Y x Y Y Y z z z l x z l l j l l l l j l j j j j j j j j l l z z z Y U &.' ) _ ' ..%.' %.-.9.9.9.9.l.~.}.5X}.5X X5X5X5X7X7X7X5X5X7X5X7X5X5X5X5X5X5X7X7X7X7X7X5X5X5X5X5X5X5X7X5X5X5X5X5X5X5X5X5X5X5X5X5X5X5X5X5X5X5X5X7X5X7X5X5X5X5X5X7X5X5X5X5X5X6X6X6X4X-X}.-X}.}.5X-X}.}.|.C.u.u.u.t.^ M e e r e e e r r e e r r r e f f f f e e e e e e f f e e e e e e e f f r r r f f f f d q q q q q q q q q q q q q q q q q q ",
"q q q q q q q q q q q q q q q q q q q q q q q q q q q q q q q q q q q q q q q e e q q q q e q q q q q q q q q q q q q q q q q M ^ t.u.u.u.C.|.7X7X7X7X7X7XeX8X8X8X8XwXwX7XeXeXeXwXwXwXwXwX7X7X6X7X7X7X7X5X8X7X8X7X8X8X7X7X8X7X7X7X7X7X8X7X7X7X7X7X7X7X7X8X8X8X8X7X8X8X7X8X8X7X8X8X7X8X7X8X8X8X8X8X8X8X7X8X8X8X7X8X7X8X8X8X8X8XaX8X X[.L.l.l.l.l.g.l.%.] ' ) U U U U z l x Y Y E [ x E E E Y Y Y Y x x z l z l z l l l l l j l j j l j j j l l l z x _ Y Y _ _ ......-.;.>.>.U _ %.9.9.9.z.S.}.5X7X7X5X7X7X7X7X7X7X8X7X7X7X7X7X7X7X7X7X7X7X7X7X7X7X7X7X7X7X7X7X7X7X7X7X7X7X7X7X7X5X7X5X7X5X7X7X7X5X7X5X7X7X7X5X7X7X7X7X7X7X7X7X7X7X7X7X7X7X7X5X7X5X5X-X5X5X7X7X5X5X|.C.u.u.u.t.^ d e r r e e e e e e e e e e f f f f e e e e r f f f e e e e e e f f f r r r f f d d q q q q q q q q q q q q q q q q q q q ",
"q q q q q q q q q q q q q q q q q q e e q q q q q q q q q q q q q q q q e q q q q q q q q q q q q q q q q q q q q q q q q q d ~ t.u.u.u.C.|.6X6X6X6X6X6XqX6XwXwXqXqXqXqXqX6XwXwXwXwXqXqXwXwXqX6X6X6X6X7X7X6X7X7X7X7X7X7XwX7X7X7X7X7X8X8X7X8X8X7X7X8X7X8X8XeX8XeX8X8XeX8XeX8X8X8X8X8X8X8X8XeXeXsXeXeXeX8XeXeXeXeX8XaX8X8XaXaXaXaX5X}.R.l.l.l.>.%.@.' @.%.' _ Y Y Y Y Y E [ [ [ E E Y Y E [ E Y Y Y E x Y x x k l z l l l l l l l l j l l l l l z z x Y Y _ | ..;.%.7.l.;.<.>.) ' _ &.;.9.9.z.~.5X7X8X7X7X7X8X8X8X8X8X8X7X8X8X8X8X8X7X7X8X8X8X8X7X8X7X8X8X7X7X7X8X7X8X7X7X7X7X7X7X7X7X7X7X7X7X7X7X7X7X7X7X7X7X7X7X7X7X8X8X8X8X8X8X8X8X7X8X8X7X7X7X7X7X7X7X7X7X7X7X7X7X|.C.u.u.u.t.~ f r r e e e e r r r e e e r r e e e e r r r r f f f f f f f e e e r r r r e d q q q q q q q q q q q q q q q q q q q q q ",
"q q q q q q q q q q q q q q q q q q q q q q q q q q q q q q q q q q q q e q q q q q q q q q q q q q q q q q q q q q q q q e C r.u.u.u.C.|.qX4XqX6X6XqXqX6X6XqX6X6XqXqXqXqXqXqXqXqXqXqXqXqX9XqX9X4X4XqXqXqX6X6X6XqX6XqX6X6XqX7X7X7X6XqXwXwX8X7X8X8X8X7XeXeXeXeXeXeXeXeXeXeXeXeXeXeXeX8X8XgXsXeXeXsXeXeXsXsXsXsXsXsXaX8XfXsXsXaX7X}.~.A.<.<.<.%.] ] ) -.-.%..._ _ [ [ [ [ [ [ [ E E E E E [ [ E E E x x x x x k x k l l z l l l l l l l l l l l l l x x [ _ | ..;.7.9.<.l.>.&.l.....' ;.9.9.z.S.}.7X8XaX8XaXaXaXaXaXaXaXaX8X8XaXaX8X8XaXaXaXaXaX8X8X8XaX8XaX8X8XaXaXaX8X8X8X8X8XaXaX8XaX8X8X8X8X8X8X8X8X8X7X8X8X8X8XaX8X8XeXeXeXeXeXeXeXeXeX8X7X8X8X7X7X7X8X7X8X8X8X8X8X|.C.u.u.u.r.C f r d d e e r r e e e e r r e e e e r r r r f f f f f d e e f r r f f e e q q q q q q q q q q q q q q q q q q q q q q ",
"q q q q q q q q q q q q q q q q q q q q q q q q q q q q q q q q q q q q q q q q q q q q q q q q q q q q q q q q q q q q q C r.u.u.u.C.|.qX4XqX4X4X6X4X4X4X6X6XqXqXqX9X9XqXqXqXqX9XqXqXqXqXqXqX9XwX6XqXqXqX6X6X6X6XqX6XqXqXqX6X6X6XwXqX6XqX6XwXqXeXeX7XeXeXeXeXeXeXeXeXeXeXeXeXeXeXeXsXsXsXsXsXsXgXgXsXsXgXsXsXsXsXsXfXaXfXeXsX{.L.A.l.-.-.:.] ' ' %...%.| | | [ [  . . .[ [ [ [ [ [ [ [ E [ E E E E c x x x x k k z l x l l l l l l l l l l l l z z x Y x ..&.;.l.9.S.G.z.9.l.;.9...&.>.;.9.S.P.}.aX8XaXaXsXsXfXsXsXsXsXsXfXsXsXsXsXaXfXfXaXsXsXsXaXsXsXaXsXsXfXsXsXfXsXsXsXaXaXsXsXsXsXsXaXaXsXsXsXaXaXaXsXgXsXaXaXsXsXeXsXeXgXsXgXeXeXeXsXaX8X8X8X8XaXaX8X8XaXaX8X8X8X|.C.u.u.u.r.C r e e e e e e e e r r r r e e e e e e e e f f f f e e e f f f f f e q q q q q q q q q q q q q q q q q q q q q q q q ",
"q q q q q q q q q q q q q q e q q q q q q q q q q q q q q q q q q q q q q q q q q q q q q q q q q q q q q q q q q q q q C e.u.u.u.C.Q.4X4XqX9X6X6X6X4X6XqX6XqXqX9X9XqX4X4X4X4X4X4XqXqXqX9XqXqXqXqXqXqX4XqXqXqX6X6XqXqXqXqX6XqXqXwXqXqXqX6XqXwXqXqXqXwXwXeXqX7XqXeXeXeXeXeXeXeXeXeXeX8XsXsXsXsXsXeXgXeXgXsXsXaXsXsXfXgXsXeX8X'.G.S.<.<.] ` ) ' ' ' ' %.......X.| |  .[  .[  .[ [ [ [ E [ E E [ E c x x x x x x z x z l z j z l l l l j j l l l l l l x x x _ ..>.9.S.z.L.l.S.G.F.~.F.&.' ..;.7.9.P.}.8X8XfXsXgXaXaXaXsXsXsXsXsXaXfXsXsXfXsXsXfXsXsXsXaXfXsXsXsXsXsXsXfXsXsXsXsXsXsXfXsXsX8XsXaXsXfXsXsXsXaXsXsXsX8XsXsXsXsXeXeXgXeXeXeXeXeXsXaXaXaX8X8X8X8X8XaXaXaXaX7X8X8X|.C.u.u.u.e.C f e e e e e e e r r r r e e e e e e f f f f r r e e f f f f e q q q q q q q q q q q q q q q q q q q q q q q q q q ",
"q q q q q q q q q q q q q q q q q q q q q q q q q q q q q q q q q q q q q q q q q q q q q q q q q q q q q q q q q q q N w.u.u.u.V.Z.4X6X4X4X4X9XqXqXqX6X6X6XqXqXqXqX6X6X4XqX4X4X4X4XqXqXqX4XqXqXqX9X9X9X4XqX6XqX9XqX9XqXqXqXqXqXqXqXqXqXwXwXqXqXqXqXqXwXqXwXqXqXeXeXwX8X7XeX7XeXeXeX8X8X8X8XeXeXeXeXdXeXeXeX8X8X8X8XaX8X8X{.Y.A.<.>.] ] U U ' %.....&.&.&.X.X. .|  . . .[  .| [ [ [ [ [ E [ E c c c c x x x x x x k k z l k z k l l z l j l l l l l z x x _ _ ;.9.S.~.S.L.F.E.R.~.~.z.' U ' 7.7.z.F.(.sX7XsXaXsXaX8X8X8X8XaXaX8XsXsXaXsX8X8X8XaXsXaXaXaX8X8XsXsXeXsXeXeXeXeX8XeXeXsXeXeX8XeXeXeXeXeXeXeXeXeXeXeXeXeXeXeXeXeXeXeXeXeXeXeX8X8X8X7X8X7X7X7X8X8X8X8X8X8X7X7X7X7XZ.V.u.u.u.e.N e e e r r e e r e r e e e e e e f f f e e e e r r f f f d q q q q q q q q q q q q q q q q q q q q q q q q q q q ",
"q q q q q q q q q q q q q q q q q q q q q q q q q q q q q q q q e q q q q q q q q q q q q q q q q q q q q q q q q q M w.u.u.u.V.Z.3X6X6X4X4X4X9X9XqXqX6X6X6XqXqXqXqXqXqXqXqX4X9X4X9X4X9XqXqX9XqX4XqXqXqXqXqX6XqX4XqXqXqXqXqXwXqXqXqXqXqXqXqXqXqXqXqXqXqXqXqXqX6X6X6X6X6X6X6X6X6X6X6X7X6X7X7X7X7XwX7X8X8XwX8X7X7X7X8X8X8X-XL.A.l.l.' U U a ] %.;.5.5.5.5.4.&.X. . . . .[ [  .[ [ [ [ { [ [ [ [ E c c c c x x x x x k x z z k z z l l l l z l z z l l z x x x _ _ >.9.z.L.J.R.R.~.{.(.~.>.U _ ' >.9.l.9.(.}.8X8X8X8X8X8X8X8X8X8X8XeX7X7X8X8X7X8X8X7X7X8X8X7X7X7X7XeXeXeX8X7XeXeX8XqXeX7XeX7XwX7XeXeXwXeXeXeXwXwXqXwXeXwXwXwXwXwXeXqXqXqX7X7X7X7X7X7X7X7X7X7X5X5X7X5X7X7X5X5X5X3XZ.V.u.u.u.w.N d d f r e e e e r e e e e e f f f f e e e r r f f d q q q q q q q q q q q q q q q q q q q q q q q q q q q q q ",
"q q q q q q q q q q q q q q q q q q q q q q q q q q q q q q q q q e e q q q q q q q q q q q q q q q q q q q q q q d ^ u.u.u.V.C.1X6X6X6X6XqXqXqXqXqXqXqX4X6XqXqXqXqX6X4XqX6X4XqX4X4X4XqX4X9X4X4XqX9XqXqXqXqXqXqXqXqXqXqXqXqXqXqXqXqXqXqXqXqXqX6XqX4XqXqX6X6X6XqX6X6X:X:X4X:X:X:X6X6X6X6X6X6X6X7X7X7X6X7X7X7X7X7X7X8X8XsX(.l.l.l.%.a K g U &.;.7.8.8.5.5.5.4.X.X. . . . . . . .[ [ [ [ [ [ [ E E c c c c c x x k k x k x k x l l k k k z l z k l l x x z z x x _ ..;.S.F.R.L.E.E.~.R.~.F...U ) %.;.l.l.S.S.L.5X8XsX8X8X7X7X7X8X7XeX7X7X8X7X7X7X7X7X8X8X7X8X7X8XeX7X7X7X7X8X8X7X7X7X7X7X7X7X7XeXeXeXeX8XeX7XeXeXeXeXeXeXeXwXwXwXeXqX6XwX7X7X7X7X7X7X6X6X7X7X5X5X5X5X5X6X5X6X5X5X`.C.V.u.u.u.^ M e r r r r e e e e r r r r f f f f f e f f f d q q q q q q q q q q q q q q q q q q q q q q q q q q q q q q q ",
"q q q q q q q q q q q q q q q q q q q q q q q q q q q q q q e q q q q q q q q q q q q q q q q q q q q q q q q q d ~ t.u.u.u.C.|.6X6X6X6X6X4X4XqXqXqXqXqX6X6XqXqXqXqXqXqXqXqXqXqXqXqXqXqXqX9XqXqX4XqXqXqXqXqXqXqXqXqXqXwXqXwXqXqXqXqXqXqXqXqXqXqXqXqXqXwXwXqXwXwX6X:X=X=X%X=X=X=X-X:X:X:X6X6X6X:X6X6X6X6X6X6X6X6X6X5XsX8XL.x.>.>.' a K U ..7.z.0.0.8.6.5.5.&.X.X.X. . .X. . .{ { {  .[ [ [ [ E E c c c c c c x x x k x x x k l z k x x z l z z z x x z x z z x z ;...9.7.F.R.~.{.{.'.R.R.l.' z ) %.9.<.9.S.9.S.~.7X8X7X7X7X7X7X7X7X7XeX7X7X7X7X7X7X7X7X8X7X7X7X7X7X7X7X7X7X8X7X7X7X7X7X7X7X7X7X7X7X7X8X7XeXeX7XeX7XeXwXqXwXwXqX6X7X6X6X7X6X7X6X6X6X6X6X6X6X-X6X-X5X6X6X-X4X-X-X-X_.C.u.u.u.t.~ d r r e r e e e e r r f f f e e f f f f d d q q q q q q q q q q q q q q q q q q q q q q q q q q q q q q q q ",
"q q q q q q q q q q q q q q q q q q q q q q q q q q q e e e e q q q q q q q q q q q q q q q q q q q q q q q q q C r.V.V.u.C.|.6XqXqXqX6XqXqXqXqXqXqXqXqX6XqXqX9XqXqX9XqXqXqXqXqXqXqXqXqXqX9XqXwXqXqXqXqXqXqXqX6XqXqXqXqXqXqXwXqXqXqXqXwXqXwXwXwXwXeXeXeXeXeXeXwX6X=XOX'.'.'.{.{.-X:X4X4X6XqXqXqXqXqX6XqXqXqXqXqX6XeXsX4XA.x.-.@.' a ) ..7.z.z.0.0.0.8.5.4.4.&.X.X. .X.X.X. . .{ { [ { { { [ [ E E c c c c c c x x x x x x x x k k k z x z z x x x x x x x x x x | &...9.S.F.F.R.{.{.~.R.z.%.' ' ' ;.;.-.-.%.-.l.L.5X7XeX8X8X7X7XqX7XqX7X7XqX7X7X7XeX7XqXqX7X7X7XqX7X7X7X7X7XeX7X7X7X7X7XqXqXeXeXeXeXeXeX7XwXwXwXwXwXqXwXwXwXwX7X6XqX6X4XqX6X6XqX6X6X6X6X6X6X6X6X-X:X:X4X:X:X-X=X=XQ.C.u.V.u.r.C e e e e e e e e e d f f f e e e f f d q q q q q q q q q q q q q q q q q q q q q q q q q q q q q q q q q q ",
"q q q q q q e e q q q q q q q q q q q q q q q q q q q q q q q q q q q q q q q q q q q e e e q q q q q q q q q N e.V.V.V.C.|.qXqXqXqXqXqXqXqXqXqXqXqXqXqXqXqXqX9XqXqXqXqXwXqXqXqXqXqXqXqXqXqXqXqXqXwXqXqXwXqXqXqXqXqXqXqXqXwXwXwXeXwXwXwXwXwXeXwXeXeXeXeXeXeXeXeX6X=XOX(.'.'.=X:X:XqXqXqXrXwXrXtXrXwXrXtXtXtXwXtXeXeXgX'.S.g.>.] K U ' ;.0.z.z.z.z.0.7.5.4.5.4.2.X. .X.X. . .X. .{ { { { { { { [ [ E E E c c c c c x x x x k x x k k k l l z z x x x Y _ Y x x Y Y | | ;.9.G.G.R.~.{.(.~.L.;.' Y ) >.;.;.9.;.-.-.-.-XsXeXgXgXeXyXwXwXwXtXtXwXeXeXeXtXtXeXeXtXeXtXtXtXeXwXtXwXeXeXeXwXeXwXeXeXtXyXwXtXeXeXtXwXtXtXtXtXwXtXwXtXwXwXwXwXqXqXqXrXqXwXqXwXwXwXqXqX4X:X:X4X4X9X9X9X:X:X4X:XQ.C.V.u.u.e.N d e e e e f f f f e r r f f f d q q q q q q q q q q q q q q q q q q q q q q q q q q q q q q q q q q q q ",
"q q q q q q e e q q q q q q q q q q q q q q q q q q q q q q q q q q q q q q q q q q q e e e q q q q q q q q M w.u.u.u.V.Z.qXqXqXqXqXqXqXqXqXqXwXqXqXqXqXwXqXqXqXqXqX6X6X6XwXqXqXqXqXqXqXqXwXqXwXwXqXqXwXqXqXqXqXwXqXqXqXwXwXwXeXeXeXeXeXeXeXeXeXeXgXeXgXgXgXgXeX6X4X'.(.(.OX%X:X9XtXtXxXyXyXxXyXtXyXxXyXtXyXVXVXyXVXgX~.g.l.%.) U U ;.z.z.z.z.z.z.0.7.5.5.5.4.4.X.X.X. .X. .X.X.X. . .} { { { { [ E E W c c c c c x x x x x x x x k k x x x x x x x Y Y x [ [ Y _ | | 7.9.l.R.R.R.(.(.{.L.S...) _ ' ..>.;.l.;.<.<.G.sXgXeXgXpXtXtXyXyXyXxXxXtXyXyXyXxXyXxXyXtXxXtXxXtXtXyXyXyXyXxXyXyXxXxXyXyXyXyXxXtXxXxXxXxXyXxXyXxXxXyXtXxXyXyXyXyXyXtXtXyXyXtXyXtXtXtXwXqX9X9X9XqXqXrXqXqXqX9X4X=XZ.V.u.u.u.w.N f f f f d d d e e r r f f d q q q q q q q q q q q q q q q q q q q q q q q q q q q q q q q q q q q q q ",
"q q q q q q q q q q q q q q q q q q q q q q q e q q q q q q q q q q q q q q q q q q q e e e q q q q q q q d ^ u.u.u.V.Z.+X4X4X4X4X4X4X4X4X:X4X4X4X4X4X4X4X4X4X4X:X4X4X4X4X:X4X6X6X6X6X4X4XqXqXqXqXwXqXqXqXwXqXqX9XqXqXqXwXwXwXwXwXwXeXeXyXeXyXeXeXgXgXgXgXgXgXeXwX4X=X+X:X4X4X9XtXtXxXxXxXkXkXkXkXkXxXVXVXVXVXVXBXBXBXG.<.-.) p U ;.z.S.z.z.z.H.0.8.0.8.7.5.5.4.X.4.X.4.4.4.X. . .X.X. .{ X.{ { { [ [ [ [ E c c c c x k x x x x k x x x x x x x z x E Y E [ _ Y _ _ [ | &.l.9.G.R.E.~.(.W.z.%.' ) ' ' ] ;.>.A.;.-.l.{.BXBXVXyXtXxXxXxXxXxXxXkXxXxXxXxXxXxXxXxXxXxXxXxXxXxXxXkXxXkXxXkXkXxXxXxXxXkXxXxXxXxXxXxXxXxXxXkXkXkXxXxXkXxXyXyXxXxXxXxXxXyXyXxXxXyXtXrXqX9XrXrXtXtXtXtXtXwXqX4XOXM.V.u.u.u.^ f f f f e e e r r f f d e q q q q q q q q q q q q q q q q q q q q q q q q q q q q q q q q q q q q q e ",
"q q e q q q q q q q q q q q q q q q q q q q e e q q e q q q q q q q q q q q q q q q q q q q q q q q q q q C r.u.u.u.C._.'.'.'.'.OX'.'.'.'.'.OXOXOX'.'.OXOXOXOXOXOXOX'.'.OX'.OX'.%X=X%X=X;X;X:X:X4X4X9X9X0X0XtX0X0X0X0XtXtXrXtXyXyXyXyXyXyXyXyXyXyXpXxXpXyXxXyXyXyXyXtXrXrXrXkXkXnXcXcXcXcXcXcXcXcXcXvXvXVXvXCXDXSXDXgXF.%.%.U U %.z.J.J.J.H.c.z.z.0.8.8.8.7.5.4.4.4.4.4.4.4.4.X.} X.X. . .} } { { { { { [ { [ c c c c x x x x x x x x x x x x x x x E E [ Y Y Y [ [ _ [ ..;.9.S.L.~.(.{.~.J.9.%.' ) ' U %._ >.<.9.>.!.SXBXVXVXVXvXvXvXvXvXvXvXvXcXcXcXvXcXvXvXcXvXkXvXvXkXvXvXvXvXcXcXkXvXcXcXcXvXcXcXcXvXvXvXvXvXcXvXvXkXcXcXvXcXcXcXcXcXcXkXcXcXkXcXcXcXcXjXjXjXjXkXcXkXcXcXkXzXxXtXwX1XC.V.u.u.t.C e e e f r r f f d e q q q q q q q q q q q q q q q q q q q q q q q q q q q q q q q q q q q q q q e d ",
"q e e e q q q q q q q q q q q q q q q q q q e e q e e e q q q q q q q q q q q q q q q q q q q q q q q q N e.u.u.u.C.M.Y.Y.Y.Y.Y.R.R.R.R.R.R.R.R.R.E.R.R.!.!.R.R.R.R.Y.R.R.R.R.!.^.^././.^.^.).`.`.oX;X0XyXxXVXVXbXVXxXbXxXbXVXbXVXbXbXxXVXbXxXVXxXxXbXxXxXxXVXVXxXxXvXVXNXcXMXAXHXHXAXHXAXAXAXGXHXGXHXHXHXJXJXJXDXBX4XA.%.) U ) 9.S.J.J.J.H.H.H.z.0.8.8.7.0.8.4.8.5.6.5.5.2.X.4.X.} X.} X. .{ } { [ } { { { [ c A c c c c c c x x x x x x x x x x [ [ [ [ x Y [ Y [ [ [ | ..;.7.L.F.~.{.(.R.l.>.8 8 U U _ -._ -.>.;.l.SXSXFXNXMXNXMXMXMXMXMXMXMXMXMXMXMXMXMXMXMXMXMXMXMXMXMXMXMXMXMXMXMXMXMXMXMXMXMXMXMXMXMXMXMXMXMXMXMXMXMXMXMXMXMXMXMXMXMXMXMXMXMXAXMXMXAXMXmXmXMXMXMXMXAXMXMXNXvXxXgXgX|.C.u.u.u.e.C d e f f f f d q q q q q q q q q q q q q q q q q q q q q q q q q q q q q q q q q q q q q q q e e d ",
"q q e q q q q q q q q q q q q q q q q q q e q q e e e q q q q q q q q q q q q q q q q q q q q q q q q M w.u.u.u.V.M.g.g.g.g.g.g.g.g.g.g.g.g.m.g.D.A.m.A.D.m.m.m.D.m.m.m.m.g.A.D.D.D.D.D.G.D.U.Y.T.T.oX9XpXBXBXSXVXVXVXVXVXVXVXVXVXVXVXVXVXSXVXVXVXVXVXVXVXVXVXVXVXNXJXJXJXGXLXUXUXUXUXUXUXUXUXUXUXUXUXUXUXPXPXJXSXqXA.l.+.' U %.z.J.L.L.L.J.S.z.z.z.z.0.7.7.5.5.8.8.8.8.7.4.4.X.4.2.4.4. . .X.} { { } { { { [ v v [ E c c x x x x x x x x x Y Y [ [ [ [ Y x [ Y Y [ _ _ [ | ..;.z.F.~.~.{.~.F.;.z 6 u a g %.' %.>.9.l.%XPXPXPXPXPXIXIXPXIXIXPXIXIXIXPXIXIXPXPXIXPXPXIXIXIXIXIXIXPXPXIXIXPXIXPXPXIXPXUXPXIXIXUXPXUXPXIXUXPXUXPXUXPXIXUXUXUXUXPXUXPXUXPXUXUXUXUXPXPXPXUXUXUXUXUXUXPXHXvXxXgXgX|.C.u.u.u.w.N f f f e e q q q q q q q q q q q q q q q q q q q q q q q q q q q q q q q q q q q q q q q e e e e ",
"q q q q q q q q q q q q q q q q q q q e q q q e e q q q q q q q q q q q q e e e e q q q q q q q q q q ^ u.u.u.u.e.P K K K K K K K K K K ~ K ~ ~ P P K ~ ` ` ` ` O.` ` ( ~ ~ ~ ~ O.@.O.O.$.=.:.,.,.m.T.;XyXVXSXDXSXSXSXSXSXSXSXSXSXSXSXSXSXSXSXSXSXSXSXSXSXSXVXVXbXHXPXPXPXPXUXUXUXUXUXUXUXUXUXUXUXUXUXUXUXUXUXPXVXY.l.' ' T U 9.F.R.W.L.L.J.J.J.z.z.z.z.0.z.0.5.0.8.8.7.5.5.5.5.4.4.4.4.X. .} { } { { [ c { [ W E c c c c c c x c x c x x x x Y [ Y E x [ [ [ [ Y x Y Y [ | ..;.9.S.L.~.~.~.R.>._ g 5 u a ) %...>.<.l.E.JXUXUXUXUXUXUXUXUXUXUXUXUXUXUXUXUXUXUXUXUXUXUXUXUXUXUXUXUXUXUXUXUXUXUXUXUXUXUXUXUXUXUXUXUXUXUXUXUXUXUXUXUXUXUXUXUXUXUXUXUXUXUXUXUXUXUXUXUXUXUXUXUXUXUXUXUXPXFXCXVXVXxXZ.V.u.u.u.^ d f d q q q q q q q q q q q q q q q q q q q q q q q q q q q q q q q q q q q q q q q q q e e e e ",
"q q q q q q q q q q q q q q q q q q e e q q q q q q q q q q q q q q q q q e e e e q q q q q q q q q C r.u.u.u.r.H i i t t i 3 3 3 3 3 3 3 3 3 3 3 3 i i H H H H P H H H H t i i i i i i i H P ~ ~ O.N.oXtXVXBXSXDXDXSXSXSXSXSXSXSXSXSXSXSXSXSXSXSXSXSXSXSXSXSXVXNXLXPXUXUXUXUXUXUXUXUXUXUXUXUXUXUXUXUXUXUXPXPXFX!.A.>.%.) U ..l.L.W.W.R.L.J.J.F.J.z.S.z.0.8.z.0.0.8.0.8.7.5.5.5.5.4.4.4.2. .{ { } { { [ { W { [ c x c c c c c c c E x x x x Y Y x x [ Y Y _ [ [ _ Y Y Y Y _ | ..7.S.G.R.~.R.E.l.%.U 6 5 u g U ] %.;.l.R.SXUXUXUXUXUXUXUXUXUXUXUXUXUXUXUXUXUXUXUXUXUXUXUXUXUXUXUXUXUXUXUXUXUXUXUXUXUXUXUXUXUXUXUXUXUXUXUXUXUXUXUXUXUXUXUXUXUXUXUXUXUXUXUXUXUXUXUXUXUXUXUXUXUXUXUXUXUXUXPXFXSXxXuXC.V.u.u.r.C q q q q q q q q q q q q q q q q q q q q q q q q q q q q q q q q q q q q q q q q q q f r r e e ",
"q q q q q q q q q q q q q q q q q q e e q q q q q q q q q q q q q q q q q e e e e q q q q q q q q N e.u.u.u.t.~ i i i t t t t t t t 3 i 3 t t t t i t i H H P P P P H H F i i t i i t 3 t t 3 3 t i H U.0XxXVXVXSXSXSXSXSXSXSXSXSXSXSXSXSXSXSXSXSXSXSXSXSXSXSXVXNXLXUXUXUXUXUXUXUXUXUXUXUXUXUXUXUXUXUXUXUXPXPX0XD.%.@.%.' U >.S.L.W.W.W.R.R.J.J.J.z.z.z.z.z.z.0.z.8.0.7.7.7.5.5.8.5.2.5.2.2.X.} } { { [ { [ W [ [ c c c c c c c c x x x k x Y x Y x E Y Y Y Y Y _ Y [ Y _ Y | ..;.9.S.E.E.R.R.R.;.%.U 6 5 u U ) %.-.l.F.zXUXUXUXUXUXUXUXUXUXUXUXUXUXUXUXUXUXUXUXUXUXUXUXUXUXUXUXUXUXUXUXUXUXUXUXUXUXUXUXUXUXUXUXUXUXUXUXUXUXUXUXUXUXUXUXUXUXUXUXUXUXUXUXUXUXUXUXUXUXUXUXUXUXUXUXUXUXUXUXJXFXzXbX<XC.u.u.u.e.M q q q q q q q q q q q q q q q q q q q q q q q q q q q q q q q q q q q q q q q q f f r e e d ",
"q q q q q q q q q q q q q q q q q q q q q q q q q q q q q q q q q q e e e e e e e e q q q q q q d ^ V.u.u.t./ i i t t i i t i t t i t i i t 3 t t i t i H K H P P H H H F 3 t i t t 3 3 i 3 3 t 3 i t F N.+X0XpXVXVXSXVXSXVXSXSXSXSXSXSXSXSXSXSXSXSXSXSXSXSXSXVXcXLXUXUXUXUXUXUXUXUXUXUXUXUXUXUXUXUXUXUXUXPX1XG.<.] ' %.%.-.9.S.R.W.W.W.L.R.L.R.L.z.z.z.z.z.z.7.0.z.z.7.7.5.7.5.5.8.5.2.X. .X.X.X.X.E { { W v c W v c c c c c c x x x x x x c x x x x x x x _ _ Y x Y [ [ [ | | ;.7.l.L.L.R.~.R.9.;.' g u g U U %.>.l.F.0XUXUXUXUXUXUXUXUXUXUXUXUXUXUXUXUXUXUXUXUXUXUXUXUXUXUXUXUXUXUXUXUXUXUXUXUXUXUXUXUXUXUXUXUXUXUXUXUXUXUXUXUXUXUXUXUXUXUXUXUXUXUXUXUXUXUXUXUXUXUXUXUXUXUXUXUXUXUXUXPXFXcXVXVX|.C.u.u.V.^ d q q q q q q q q q q q q q q q q q q q q q q q q q q q q q q q q q q q q q e e e e e e e r ",
"q q q q q q q q q q q q q q q e q q q q q q q q q q q q q q q q q q e e e e e e e q q q q q q q C t.u.u.u.e.i i t t 3 3 i i i i i i i t i t i t t i t i H K K P P H H H F i i 3 3 3 3 3 3 t t t t i t i ( m.+X0XiXxXVXVXVXVXVXVXVXVXVXVXVXVXVXVXVXVXVXVXVXVXVXxXcXLXUXUXUXUXUXUXUXUXUXUXUXUXUXUXUXUXUXUXUXFXT.A.:.] %.-.>.>.l.F.W.~.W.W.R.L.R.J.J.H.z.z.z.z.S.8.z.0.z.z.7.7.5.5.7.5.6.4.X.X.2.X.} X.} { } { { W v c c c x c c c c x x x x x x x x z x x x z x x x Y Y [ [ [ [ | &.;.S.G.L.L.R.L.S.;...U a a g g ] ] l.S.oXPXUXUXUXUXUXUXUXUXUXUXUXUXUXUXUXUXUXUXUXUXUXUXUXUXUXUXUXUXUXUXUXUXUXUXUXUXUXUXUXUXUXUXUXUXUXUXUXUXUXUXUXUXUXUXUXUXUXUXUXUXUXUXUXUXUXUXUXUXUXUXUXUXUXUXUXUXUXUXPXJXNXSXSXVXZ.V.u.u.t.C q q q q q q q q q q q q q q q q q q q q q q q q q q q q q q q q q q q q q e e e e e e e r ",
"q q q q q q q q q q q q q q e q q q q q q q q q q q q q q q q q q q e e e e e e e q q q q q q N e.u.u.V.r.~ i t i t 3 3 i i i i i i t i i i t t i i i i H K P P P H H H F t t 3 3 3 3 3 t 3 t t i i t i P O.m./.$X0XtXiXiXpXxXxXxXxXxXxXxXxXbXxXxXxXbXxXbXVXxXxXkXHXPXUXUXUXUXUXUXUXUXUXUXUXUXUXUXUXUXUXLX#XF.<.%.-.+.-.>.;.z.J.W.~.W.W.R.R.J.J.J.z.z.z.z.z.z.J.z.z.0.0.8.8.8.5.5.6.4.2.} 2. .2.X.} } } { { [ v { v c c c c c x x x x k x x x x l z z z z x x x x x Y _ Y Y | | &.;.z.F.L.F.L.R.R.l...) g a a g ] %.;.l.!.HXUXUXUXUXUXUXUXUXUXUXUXUXUXUXUXUXUXUXUXUXUXUXUXUXUXUXUXUXUXUXUXUXUXUXUXUXUXUXUXUXUXUXUXUXUXUXUXUXUXUXUXUXUXUXUXUXUXUXUXUXUXUXUXUXUXUXUXUXUXUXUXUXUXUXUXUXUXUXPXPXSXJXDXDXhXC.u.u.u.e.N q q q q q q q q q q q q q q q q q q q q q q q q q q q q q q q q q q e d e e r e e e e r ",
"q q q q q q q q q q q q e e e q q q q q q q q q q q q q q q q q q q e e e q q q q q q q q q d ^ u.u.u.t./ i i i t i i i i i i i i i i i i i i i i i i i H P P P P H H H F i t 3 3 3 i 3 t t t t t i i i P O.O.j.T.XX+X3X0X0X0X0X0X0X0X0X0XtXtXtXtXtXtXtXtXyXyXtX0XlXLXPXUXUXUXUXUXUXUXUXUXUXUXUXUXUXUXUX1XY.g.-.-.>.%.@.%.>.l.J.E.E.W.E.R.L.J.H.J.z.z.z.z.z.z.z.J.z.z.0.8.5.8.5.5.6.2.X.X.X.X.1.} } } { { [ v v { v v v v v c c c x x x x x x k l l x z x x x x z x x x _ Y | | &.7.S.J.L.E.L.L.R.S.| ' z g a a U ] >.l.S.zXUXUXUXUXUXUXUXUXUXUXUXUXUXUXUXUXUXUXUXUXUXUXUXUXUXUXUXUXUXUXUXUXUXUXUXUXUXUXUXUXUXUXUXUXUXUXUXUXUXUXUXUXUXUXUXUXUXUXUXUXUXUXUXUXUXUXUXUXUXUXUXUXUXUXUXUXUXUXPXPXJXDXDXJXDX<XC.V.u.u.^ d q q q q q q q q q q q q q q q q q q q q q q q q q q q q q q q q q e e e e r r e e r r ",
"q q q q q q q q q q q e e q e e q q q q q q q q q q q q q q q q q q e e e q q q q q q q q q C t.u.u.u.w.t i i i t i i i i i i i i i i i i i i i i i i F K P P P ( P H H H i i t i i t 3 3 t t t i i t i P ( O.#.f.j.I.Y././.).oX+X+X+X+X+X+X+X+X+X;X;X3X3X9X9X9X;X$XlXGXKXKXIXLXIXIXIXIXUXUXUXUXUXUXPXbX).F.g.>.>.%.%.-.%.>.S.L.~.(.(.~.R.L.J.J.H.H.z.S.z.z.0.z.z.z.0.8.8.7.4.2.2.5.2.5.2.} } { } } } { { { v S S v S v v v c c c c x c x x x x k l l z l z x x x x x x x Y [ | ..7.z.S.R.R.F.R.S.L.;.' ' ' ) g g ' %.>.l.3XUXUXUXUXUXUXUXUXUXUXUXUXUXUXUXUXUXUXUXUXUXUXUXUXUXUXUXUXUXUXUXUXUXUXUXUXUXUXUXUXUXUXUXUXUXUXUXUXUXUXUXUXUXUXUXUXUXUXUXUXUXUXUXUXUXUXUXUXUXUXUXUXUXUXUXUXUXPXPXJXDXDXDXDXDXDXZ.u.u.u.t.C q q q q q q q q q q q q q q q q q q q q q q q q q q q q q q q e e e e e e r r r r r r ",
"q q q q q q q q q q q q q q e e q q q q q q q q q q q q q q q q q q e e e q q q q q q q q M e.u.u.u.r.~ F F F F F H H H H H H H H H H H H H H H H H H P ( ` O.O.#.O.( ( P H H F F F F F F F F F F F F H ( O.#.$.$.=.f.g.D.D.Y.T.T.Y.Y.Y.Y.Y.Y.Y.T.T././././././.).).).+X1X1X3X3XuXuXuXuXuXuXuXuXuXbXSX3XY.D.g.g.>.] @.@.%.l.z.W.(.(.(.W.R.J.J.J.z.z.z.z.0.0.0.0.z.8.8.7.5.6.5.5.2.5.5.5.2.2.2.} } } 1.{ W { S v [ v v v v v c c k x k x x x k k k k k l l l z x x x x x x Y [ | &.;.l.G.E.~.~.L.G.F.z.9.l.;.%._ U ) %.l.F.=XJXJXSXhXhXhXhXhXhXhXhXhXhXhXhXhXhXhXhXhXhXhXhXhXhXhXhXbXhXhXZXZXZXZXZXSXZXSXSXSXSXSXSXSXSXSXSXSXSXhXhXhXuXhXhXhXhXhXhXuXhXuXhXhXhXhXhXhXhXSXSXDXJXJXJXJXJXJXJXJXDXDXDXDXSXSXhXC.u.u.u.e.N q q q q q q q q q q q q q q q q q q q q q q q q q q q q q q r e e q e e r r r r r r ",
"q q q q q q q q q q q q q q q e q q q q q q q q q q q q q q q q q q e e e q q q q q q q d ^ u.u.u.V.y.=.=.=.=.=.=.=.f.f.f.f.f.f.f.f.f.f.f.f.f.f.f.f.j.j.j.j.j.j.j.j.j.f.f.=.f.f.=.=.=.=.=.$.=.$.=.=.=.=.f.f.j.j.j.j.j.g.D.U.Y.T.Y.Y.Y.U.U.U.Y.Y.Y.T.T.T.T.T.T././././.).).).+XOXOX+X+X+X+X+X+X+X;X3XSX^.A.l.g.<.-.' K ) 9.S.J.W.(.(.(.~.R.J.J.J.S.z.z.z.9.8.8.8.0.8.5.6.5.5.6.5.5.2.} 2.1.X.} } { { } { v v v W { v S S S v c c c c x x x k k k x k k k l l l x z z z x Y [ | | X.7.l.S.W.{.R.R.R.F.F.R.L.l.>.%._ ] ] >.l.(.DXDXgXeX'.).).`.`.).).).`.`.`.OX`.OXOX%X'.OX`.'.+X3X3X3X3X3X4X3X4X4XqXwXwXwXwXwXwXwXwXwXyXyXwX9X3X:X).!.!.!.!.!.!.!.!.!.!.!.!.!.^.^.).).3XpXgXSXDXDXJXJXSXDXDXSXDXSXSXSXSXVXSX<XC.u.u.u.^ d q q q q q q q q q q q q q q q q q q q q q q q q q q q q r r r r q e e r e e r r r ",
"q q q q q q q q q q q q q q q q q q q q q q q q q q q q q q q q q q e e e q q q q q q q C t.u.u.V.M.Y.Y.Y.Y.Y.Y.Y.R.Y.R.R.R.R.R.Y.R.R.Y.R.R.!.!.!.!.!.^.^.^.^.^.^.^.^.^.!.!.!.R.R.R.Y.Y.Y.Y.Y.Y.Y.R.Y.Y.Y.Y.Y.Y.Y.Y.Y.Y.Y.!.^.^.).).)./.^.!./././.).).).).).).).).`.).`.`.+XOXOXOX+X+X;X+X;X;X0XqX=XpXF.A.l.<.<.>.@.U ] l.J.L.R.(.E.(.E.W.R.J.J.S.z.z.H.z.8.7.8.0.8.5.2.2.1.1.} 2.2.1.} } } } { } 2.{ [ v v v { v S v v v v v c k k x k k k k k k k x k k k z x x x x z | [ |  .7.&.9.F.L.(.(.R.R.E.R.G.S.F.L.;.' _ ] %.>.S.gXgXBXgXgX4X4X6X6X4X4X4X4X4X4X:X:X3X4X=X:X=X=X%X=X4X:X:X:X:X:X4X4X4X4X4XqXqXqXqXqXqXwXwXyXwX9X4X4X=X).).(.(.(.(.(.~.~.~.~.~.!.^.^.^.^.'.4XwXpXVXSXSXVXVXSXVXVXVXVXVXVXxXxXxXpXxXZ.V.u.u.r.C q q q q q q q q q q q q q q q q q q q q q q q q q q e r r r r r d e e e e e e e r ",
"q q q q q q q q q q q q q q q q q q q q q q q q q q q q q q q q q q e e e q q q q q q M e.u.u.u.C.Q.~.(.(.(.(.(.(.(.(.(.(.(.(.(.(.(.(.(.(.(.'.'.'.'.{.{.%X%X%X'.{.{.{.'.'.{.'.'.'.'.(.(.(.(.(.(.(.(.(.(.(.(.~.(.(.(.(.(.(.'.{.{.%X{.{.{.'.{.'.{.{.%X%X%X{.{.{.%X=X=X=X:X=X=X=X:X:X3X3X3X:X4X4X3X8XgX=Xl.l.l.l.-.@.) ' ;.z.J.L.W.(.[.(.~.W.L.J.J.S.H.z.z.z.0.7.8.4.4.2.2.2.2.2.1.1.1.} { { { } } { 1.{ v c c [ v v S v S S S v v v v c v c c x x c x x k x x x x x x z x Y [ [ | 9.7.9.z.L.~.~.~.L.R.L.L.L.R.L.l.;.&.%.] -.<.6XgXfXgXeX8XqXqXwX7X7X7X7X7X6X6X4X4X4X4X3X:X:X4X4X4X4X4X4X4X4X4X4X4X4X6X6X6XqXqX6XqXqXqXqXqXqX4X:X=X%X%X=X=X%X{.{.{.{.{.{.{.'.'.'.{.{.%X%XqXpXpXVXxXpXxXpXpXyXyXyXeXeXwXeXwXwXwX1XC.u.u.u.e.d q q q q q q q q q q q q q q q q q q q q q q q q q f f r e r f d e e e e e r r r ",
"q q q q q q e e e e q q q q q q q q q q q q q q q q q q q q q q q q q q q q q q q q q ^ u.u.u.V.Q.%X=X=X%X=X=X{.{.%X=X=X=X=X=X=X-X-X=X=X-X:X:X4X:X4X:X4X-X4X:X:X:X-X-X-X-X-X-X-X-X-X-X}.{.{.}.}.}.}.}.}.{.{.{.{.{.}.}.-X}.-X-X5X-X4X4X-X-X:X-X-X4X5X:X4X:X:X4X4X6X6X6X7X6X7X6X6X7X7X7X7X7X7X7X8X7XsX(.g.A.l.:.] ' U R l.F.J.L.E.(.(.(.E.R.L.L.H.H.c.z.z.8.7.8.0.0.5.5.2.2.2.2.} } 1.1.{ { { { { { } } E c c v v v S S S S S S { S v v v v v c c c c c x c x x x x x x z x x Y X.9.>.z.G.L.!.E.R.R.R.L.L.W.E.R.S.9.9.9.%.] %.G.8XgXsXsXeXeXeXeXeXeX8XeX8XeX7XqXqX7X7X6X6X7X6X6X6X6XqX6X7X6X6X6X4X4X6X6X6XqX6XqX6XqXqX6X6X6X4X4X-X6X:X4X5X-X-X-X-X-X-X-X}.-X=X-X-X:X=X=X:XqXeXwXqXwXwXwXwXwXwXqXqX6X7X6X6X6X6X6X|.V.u.u.u.^ q q q q q q q q q q q q q q q q q q q q q q q e e f f r r r r e e e e e e r r r ",
"q q q q q q e e e q q q q q q q q q q q q q q q q q q q q q q q q q q q q q q q q q N r.u.u.u.C.=X:X:X4X4X4X4X4X4X4X:X4X4X4X4X4X6X4X4X6X4X6X6X6X6X7X7X7X7X7X7X7X7X6X7X7X7X7X6X7X6X6X4X6X5X5X5X5X5X5X5X5X-X5X-X5X-X-X5X5X5X5X5X7X7X5X5X7X7X7X7X7X7X7X7X7X7X7X7X8X8X8X8X8X8X8X8X8X8X8X8X8X8X8X8XaX8XfX(.l.l.<.<.+.' ` ' l.F.R.R.W.(.(.(.(.L.L.J.J.J.H.z.z.8.0.8.0.0.6.6.6.5.5.5.6.q.1.1.{ { 1.{ 1.{ } { [ x c [ v { { { S S S { { S { { { S S v c c [ c c c c c x x x x z z z x  .7.9.z.F.~.R.~.R.R.~.~.R.~.!.R.F.F.l.;.%.] %.>.eX8X8XeXeXeXeXeXeXeXeXeX8XeXeXeXeXeX7X7X7X7XqXqX6X7XeX7X7XqX6X6X7X6X6X6X7XqX6X7X7X7X6X6X6X6X6X6X6X7X6X7X5X6X6X5X5X6X-X6X5X5X-X5X6X:X-X4X}.-X4X6X4X6X6X6X6X4X4X4X5X5X5X4X5X:X:X:X{.C.u.u.u.r.N q q q q q q q q q q q q q q q q q q q q q q e e f f r r e r e e r r e e e r r ",
"q q q q q q e e q q q q q q q q q q q q q q q q q q q q q q q q q q q q q q q q q d ^ u.u.u.C.|.7X6X7X7X7X7X7X7X7X7X7X7X7X7X8X7X7X7X7X8X8XeX8XeX8XeXeXeXeX8XeX8XeX8XeX8X8XeX8X8X7X8X7X7X8X8X7X7X8X8X8X8X7X7X7X7X7X7X7X7X7X8X7X7X8X7X8X7X7X8X8X8X8X8X7X8X7X7X7X8X8X8X8X8XaX8X8X8X8X8XaXaXaXaX8XeXsXfX!.F.x.F.:.] K ) -.F.E.E.(.(.(.E.(.~.L.L.J.J.J.z.z.z.0.8.0.8.8.6.6.2.2.2.2.6.2.6.8.{ { { 1.{ 1.} 2.W x { } { { { { S { S { { { { { { S S S c c c c x x x x x x k l l l 8 l ) ..9.9.9.L.wX~.(.R.L.W.R.L.L.R.R.R.F.>.' ) %.-.A.=X5X8XeXgXeXeXeXeXeXeXeXeXeX7X7X7X8X7X7X7X7X7X7X7X7XqXqX7X7X6X7X7X7X7X7X7X7X5X7X7X7X7X7X7X7X7X7X7X7X7X8X7X7X7X7X7X7X5X7X5X7X5X5X5X5X7X5X5X5X5X7X7X7X6X6X5X6X6X6X7X5X5X5X6X6X5X5X_.C.u.u.u.^ d q q q q q q q q q q q q q q q q q q q e f e e f f e e e e e e r r e e r r r ",
"q q q q q q q q q q q q q q q q q q q q q q q q q q q q q q q q q q q q q q q q q C t.u.u.V.Z.8X8X8X8X8X8X8X8X8X8X8X8X7X8X8X8X8X7X8X8X8X8X8X8X8X8X8X8X8X8X8X8X8X8X8X8X8X8X8X8X8X8X8X8X8X8X8X8X8X7X8X8X7X8X8X8X8X8X8X8X8X8X8X8X8X8X8XaX8X8X8X7X7X8X7X7X7X7X7X7X7X7X8X8X8X7X7X7X7X8X8X8X8X8X8X8XeX8X8X!.S.F.A.@.' U ' l.R.E.(.E.(.(.{.(.~.W.J.J.J.H.H.z.8.0.5.6.6.6.6.6.3.2.2.6.6.6.6.6.2.2.} 2.1.{ 1.2.{ { { { { 1.1.1.{ { { } } { { { { { S { A [ c [ [ Y x z _ Y z z z 8 8 a u g z %.;.F.{.:X'.~.R.~.~.W.R.E.E.E.G.<._ U ) ] >.-.!.7X8X7X7X7X7X6X6X6X6X7X7X7X6X6X6X6X6X6X6X6X6X7X7XqX7X7X7X6X6X6X6X7X6X6X7X5X5X7X6X5X6X7X7X5X5X7X6X7X5X5X5X5X7X5X7X5X5X5X5X5X5X5X5X5X5X5X7X7X7X7X7X7X7X5X7X7X7X7X7X5X7X5X5X7X5X5XZ.V.u.u.t.C q q q q q q q q q q q q q q q q q q e e e e e f f e e e e r r r r e e e e e ",
"q q q q q q q q q q q q q q q q q q q q q q q q q q q q q q q q q q q q q e e q d w.u.u.u.C.3XaXaX8XsX8XaX8XaXaXaXaXaXaXaXaXsX8XsXaXsXsXaXsXsXaXaXaXaXaXaXaXaXaXsXaXaXaXaXaXaXaXaXaXaXaXaXaXaXaXaXaXaXaXaXaXaXaXaXaXaXaXaXaXaXaXaXaXaXaX8X8X8X8XaX8X8X8X8X8X8X8X8X8X8X8X8X7X7X8X7X8X8X8X8X7X8X8X8X7XR.A.l.<.@.+.` ;.G.(.E.(.(.(.%X(.(.~.W.L.J.J.c.z.0.0.6.6.6.6.6.6.6.6.0.0.8.q.6.6.5.2.2.2.5.2.1.1.2.2.2.1.1.1.} 1.1.1.} 2.{ } 1.1.{ { { { { { {  . .X._ l g a 8 a 8 8 g 7 < 5 5 5 5 ' 9.A.'.{.-X~.J.L.R.R.E.E.~.R.l.' g g U %.] :.!.7X5X7X7X7X6X6X6X6X6X6X6X6X6X6X6X6X6X6X6X6X6X6X6X6X6X6X6X6X6X6X6X6X4X6X6X6X4X6X6X6X6X5X7X7X6X6X6X6X5X5X7X5X6X5X5X5X5X5X7X5X7X5X7X7X5X7X7X7X7X7X7X7X7X7X7X7X7X7X7X7X8X8X7X7X7X=XC.u.u.u.w.d q q q q q q q q q q q q q q q q e d e e e e d f e e e e r e r r r e e e e ",
"q q q q q q q q q q q q q q q q q q q q q q q q q q q q q q q q q q q q q q q q ~ t.u.u.V.|.sXsXaXsX8XsXsXeXsXsXaXsXsXsXsXeXsXsXsXaXsXsXsXeX8X8XsXsXsXsXsXsXsXsXsXsXsXsXsXsXsXsXsXsXsXsXsX8XsXaXfXaXaXaXaXsXsXsXaXsXsXaXsXaXsXaXaXaXaXaXaX8X8X8X8XaXaX8X8X8X8X8X8XeX8X8X7X8X7X7X7X7X7X8X8X7X7X8X7X6XG.F.>.%.%.%.-.F.R.(.^.oX(.(.&X[.E.W.W.L.J.H.c.0.6.5.6.6.6.6.8.q.q.H.8.q.0.q.c.0.0.c.6.5.5.2.2.1.6.2.2.1.1.{ 1.1.1.1.2.1.1.1.1.} } } { { {  . . .| _ 8 7 7 5 u 6 < & 5 < a u u 6 6 a U %.<.R.=X=X~.E.L.W.~.E.R.R.S.] U g g ' ] ' 9.eX5X6X7X6X4X6X4X6X6X6X4X4X4X4X6X6X6X4X6X4X4XqX4X4XqX6X4X4X4X4X4X4X6X6X4X6X4X4X4X4X4X6X6X4X6X6X4X4X4X6X6X6X6X6X-X5X5X5X5X5X6X7X5X7X5X7X7X7X7X7X7X7X7X7X7X7X7X7X7X8X7X8X7X7X7X7X|.V.u.u.t.~ q q q q q q q q q q q q q q q e e e e q e e f f r r e e e e e e r r e e e ",
"e e q q q q q q q e q q q q q q q q q q q q q q q q q q q q q q q q q q q q q M e.u.u.u.C.wXeXeXeXeXeXeXeXeXeXeXeXeXeXeXeXeXeXeXeXeXeXeXeXeXeXeXeXeXeXeXeXeXeXeXeXeXeXeXeXeXeXeXsXsXeXsX8XsXeX8XeXsXsX8XeX8XeX8XsX8X8X8XeX8XeX8X8X8X8X8X8XeX7X8X8X8X7X8X7X7X8X8X7X7X7X7X8X6X6X6X6X6X7X7X6X6X6X7X7X-XR.F.+.U @.-.F.%X^.(.(.(.(.(.%X(.(.W.L.J.J.z.0.0.8.5.5.5.5.6.8.q.z.c.K.H.z.H.H.q.c.H.0.0.5.6.2.2.5.2.2.2.3.1.1.1.1.2.2.2.1.1.1.1.} {  . . .| z z z a g g u 5 < u 5 u 6 < 6 u a g 7 g g ) ) >.R.'.{.(.E.R.E.'.~.~.G.<.' a J ] ] %.G.:X-X4X6X4X4X4X4X:X6X4X4X:X4X4X4X4X4X4X4X4X6X4X:X4X:X:X4X4X:X4X4X4XqX4X6X4X4X4X4X4X4X4X4X:X4X4X6X4X4X:X4X4X4X4X4X4X-X6X4X6X6X6X6X6X7X7X7X5X7X7X7X7X7X7X7X7X7X7X7X7X7X7X7X7X7X7X5XC.u.u.u.e.M q q q q q q q q q q q q q e e e e e e e e f f r e e e e e e e r r e e e ",
"e e q q q q q q e e e q q q q q q q q q q q q q q q q q q q q q q q q q q q q ^ u.u.u.C.|.eXsXsXsXsXeXeXsXeXsXsXgXsXsXsXsXsXsXsXeXeXeXeXsXsXeXsXeXeXgXsXeXgXeXeXeXgXeXsXsXgXeXsXeXsXsXsXsXsXeXsXsXsXsXsXsXsXsXsXsXsXsXsXeXsXsXsXsXeXeX8X8X8X8X8X8X8X8X8X8X8X7XeX7X6X6X6X6X6X6X6X4X6X4X4X4X4X4X6X7X{.G.F.-.` %.>.E.oX(.oX&XoXoXoX(.(.W.L.J.c.z.7.5.6.5.6.5.5.4.5.6.0.H.H.W.K.H.J.c.c.c.c.J.8.8.6.6.2.2.2.2.2.2.1.1.1.2.2.2.2.2.1.2.2.}  .[ | _ l _ z 8 7 a a 5 < 5 6 < 6 < g z g g z ' ' U U ' %.A.R.(.~.~.E.~.(.(.~.~.l.%.U K K ] -.R.-X4X6X6X:X:X4X4X4X:X4X4X4X4X4X4X4X4X4X4X4X4X6X4X4X:X4X4X4X4X4X4X4X4X4X4X4X4X4X:X:X4X4X4X4X4X4X4X4X:X:X:X:X4X4X4X4X6X4X4X4X:X4X-X6X6X6X7X7X7X7X7X7X7X8X8X8X8X8X8X7X7X7X7X7X7X8X8X|.C.u.u.u.^ q q q q q q q q q q q q e e e e e e d e e f f e e e r r r e e r r r r e ",
"e e q q q q q e e e e q q q q q q q q q q q q q q q q q q q q q q q q q q q N r.u.u.u.Z.eXeXeXeXeXeXeXeXgXeXeXsXeXeXeXeXsXeXgXeXeXeXsXeXeXeXsXeXeXsXeXsXeXeXeXeXeXeXeXsXsXeXeXeXsXsXsXsXeXsXeXsXsXsXsXgXsXsXeXsXgXsXsXsXsXsXsXsXsXsXeXsXsX8XaXaXsXsXeX8X8X8XeX7X7X6X4X:X-X5X6X7X7X7X6X4X4X:X:X-X-X{.!.l.@.` -.l.(.).).&X&XoXoX(.%X{.W.J.H.z.7.7.&.&.5.8.z.7.7.;.z.9.z.J.W.W.K.K.z.0.z.c.H.8.8.0.6.6.6.2.2.2.2.1.1.1.2.2.2.2.2.1.2.2. . . .Y Y x l a a 7 g 6 < < 6 < < < u 6 U 6 u U u u u a _ 9.>.9.(.~.~.~.(.(.{.(.!.A.l.U g g ] >.R.5X4X4X4X:X4X4X4X:X4X4X4X4X4X4X:X4X4X4X4X4X4X4X4X4X4X4X4X:X4X4X4X4X4X4X4X4X4X:X4X4X4X4X4X4X6X4X4X4X4X4X:X4X6XwX7XeX7X7X7X4X=X%X:X-X4X4X6X7XqX7X7X7X7X8X7XeX7X8X8X7X7X7X7X7X7X7X7X7XZ.u.u.u.r.M q q q q q q q q q q e f r e e e e d e e r f e e e e r r e e r r e e e ",
"q e e e e e e e e e e e e e q q q q q q q q q q q q q q q q q q q e e e q q ^ V.u.u.C.1XyXeXeXeXeXeXeXyXyXeXyXeXyXyXeXyXpXeXeXeXeXeXeXeXeXeXeXeXeXeXeXeXeXeXeXeXeXeXeXeXeXeXeXeXeXeXeXeXeXeXeXeXgXeXeXeXeXeXeXeXeXeXeXeXeXeXeXeXeXeXeXeXeXeXeXeXeXeXeXeXeX7XwX7X6X:X=X=X%X5X5X7X8X7X7X5X-X-X4X-X6X(.A.>.@.' :.R.oXOX&X:X:X%X(.%X[.(.R.J.z.7.<.%.;.7.9.z.l.z.;.l.A.l.J.J.7.S.z.J.0.7.8.z.z.8.0.q.6.6.5.5.2.2.2.2.2.1.1.1.1.2.1.2.} } X. .[ [ _ z z 8 $ $ # + + # $ + X $ $ $ $ $ - ; - : ; : % X ) !.G.(.(.~.~.(.{.(.~.S.9.' a g ' %.G.6X-X6X-X:X-X:X4X-X:X4X4X4X4X6X4X4X4X:X4X4X4X:X4X4X:X4X4X4X6X4X4X6X6X4X4X:X6X6X6X6XqX6X7X6X6X7X6XqXwXwX6X6X6X8XeXsXeX8X5X-X%X'.%X=X:X4X6XqXqXwXqX7XqXwXqXqXeXeXqXeX7X7XqX7XeXeXqX7X`.C.u.u.u.^ q q q q q q q q q e e e e e e e e e e e e e e e e e r r r e e e e e e ",
"q q q q q q q q q q q q q q q q q q q q q q q q q q q q q q q q q e e q q N r.u.u.V.Z.yXxXyXyXyXxXyXyXyXxXyXyXyXyXyXxXxXyXyXyXyXyXxXyXyXyXyXxXyXyXxXyXxXyXyXyXyXyXyXyXyXyXyXyXyXyXyXyXyXyXyXyXxXyXyXxXyXyXyXyXyXyXyXyXyXpXyXxXyXyXyXyXyXyXyXyXyXeXwXeXeXwXwXwXqX6X:X%X'.{.-X-X7X8X8X7X6X4X4X-X5X7XR.G.-.T ` %.R.&X;X:X:X;X>X%X%X(.R.J.7.<.%.%.' ] %.%.] ' ] @.) U g ) ' &.&.;.%.&.&.0.8.8.8.8.0.5.6.5.2.2.2.1.2.1.2.2.1.1.1.} 1.1.} } { [ Y z z & $ $ $ $ & : 5 5 > ; o o o o $ ; : 1 t u u u y 5 < <.~.{.~.{.{.(.'.~.F.<.' K U ) -.G.-X-X-X-X-X%X%X=X-X:X:X:X:X:X:X:X:X:X:X:X:X:X:X:X:X:X:X:X:X:X-X:X:X-X:X:X:X-X-X-X:X:X:X6X6X7X6XwXgXgXgXyXqXwXeXeXsXeXwX6X:X%X'.%X=X:X4XqXtXtXrXtXtXtXtXtXtXtXtXtXtXtXtXtXtXtXtXtXtXtXZ.V.u.u.r.N q q q q q q q q e e e e e e e e e e e e e e e e e r r r e e e e e e ",
"q q q q q q q q q q q q q q q q q q q q q q q q q q q q q q q q q e e q d ^ u.u.u.C.1XkXvXvXxXxXxXxXxXxXxXxXxXxXxXvXxXxXxXxXxXxXxXxXxXxXxXxXxXxXxXxXVXxXxXxXxXxXxXxXxXxXxXxXxXxXxXxXxXxXxXxXxXxXxXxXxXxXxXxXxXxXxXxXxXxXxXxXxXxXxXxXxXxXxXxXxXxXxXyXyXyXyXyXyXtX9X4X&X'.%X-X-X7X7X7X7X6X-X4X4X-X7X!.R.:.K @.>.(.;X>XqX9X9X:X%X%X(.F.l.A.U ; < ; ; ; - ; : $ $ $ - - $ $ # X X + X # & | 5.5.5.5.5.6.4.2.2.2.2.2.} 1.1.1.} 1.} } } }  .[ x l 8 % % $ > 6 5 < < 6 a g U U _ ' | ' ' ' _ z 8 < < y u u ; %.'.'.{.(.~.'.'.L.>.' K ) U %.S.(.-X{.(.(.(.(.(.'.'.'.OXOX{.'.{.OXOX%X'.%X'.'.'.'.'.'.'.'.'.'.(.(.(.(.(.'.'.'.{.{.%X=X-X:X:XwXBXBXBXBXBXVXVXgXgXgXpXwX6X6X:X;X;X9X9XtXtXkXkXtXkXkXkXxXxXkXkXxXkXxXkXxXxXkXkXzXkXxXkX1XC.u.u.u.^ q q q q q q e d e e e e e e e e e e e e e r r r r e e e r e e r r e ",
"q q q q q q q q q q q e e q q e e e e e q q q q q q q q q q q q e e q q N r.u.u.V.Z.mXmXmXmXmXmXmXmXmXmXlXmXmXmXmXmXmXmXmXmXmXmXmXmXMXmXmXMXmXmXmXmXmXMXmXmXmXmXmXmXMXMXmXmXmXMXMXMXMXMXMXMXMXMXMXMXMXMXMXMXMXcXcXcXcXvXcXcXcXMXMXcXcXcXcXcXcXcXnXnXcXcXcXcXnXcXjX0X9X4X4X4X6X7X7X7X5X4X:X:X4X-X7X~.g.T U @.:.E.&XrXqXrXqX:X%X%XL.A.G.1 y u p p p p u u t 5 : : ; ; : : 1 1 > > - - % X 2  .{ X.5.2.X.} 2.2.2.2.} } } } } } { } } { [ x l 8 # & 5 u < < g R ' ' ' ! | | | *.&.*.*.&.;.7.7.7.| 8 < t u < a (.%X-X(.{.(.L.>.' u g ' -.S.~.{.~.R.Y.Y.R.!.^.~.~.^.^.^.^.^.).).^.^.^.^.).^.^.(.~.^.!.R.R.R.R.R.R.R.R.R.R.R.!.^.(.).'.9XVXBXBXBXBXSXBXBXBXBXgXgXyXwXwX0X0X0XjXlXlXnXmXlXmXmXnXmXmXmXmXmXmXlXlXmXlXmXmXlXmXlXlXlXmXZ.V.u.u.r.N q q q q e r e e e e e e e e d d e e r e r r r r e e e r e e r r e ",
"e e e e q q q q q q q q q q q q e e e e q q q q q q q q e e e e e e q d ^ u.u.u.C.ZXIXIXIXIXIXIXLXIXIXIXIXLXLXIXLXIXIXLXLXLXLXLXLXLXLXLXLXLXLXLXLXLXIXLXLXLXLXLXLXLXLXHXLXLXLXLXHXLXLXHXLXHXLXHXLXHXHXHXHXHXHXKXHXHXKXKXHXHXHXHXHXHXHXHXHXHXHXHXAXAXHXHXHXHXHXAXAXMXkXtXqX6X6X6X4X4X4X=X=X=X=X6X6X=Xl.-.' -.%.G.rXrXrXrXrX:X&X(.A.l.y J g t @ @ 8 U ] %.>.:.:.:.>.:.:.%.@.' K < $ - 1 : % @ [ { } } } } 2.X.X.X.{ { } } } { { { [ c k j < @ & a < u ' ' R Y Y R R | ..| *.*.&.&.&.&.&.>.>.l.l.F.l.U : u y & G.eX-X'.~.L...g U y U >.S.(.}.G.F.F.D.D.Y.R.!.!.!.^.^./.!./.^.^.^.^./.^./.).(.^.Y.F.A.l.l.g.g.g.l.l.A.A.D.F.G.Y.Y.+XyXgXBXDXBXDXBXBXBXgXBXgXgXeXwXzXFXSXAXAXHXPXPXPXIXIXIXIXIXIXPXIXIXIXIXIXIXIXIXIXIXIXIXIXIXLXZXC.u.u.u.^ d q q e f r e e e e e e d d d d r r r r r r e e e e r r e r r r e ",
"e e e e e e e q e e q q q q q q q e e e q q q q q e e e e e e e e q q N r.u.u.V.|.UXUXUXUXUXUXUXUXUXUXUXUXUXUXUXUXUXUXUXUXUXUXUXUXUXUXUXUXUXUXUXUXUXUXUXUXUXUXUXUXUXUXUXUXUXUXUXUXUXUXUXUXUXUXUXUXUXUXUXUXUXUXUXUXUXUXUXUXUXUXUXUXUXUXUXUXUXUXUXUXUXUXUXUXUXUXUXPXLXAXcXyXwX4X4X:X:X=X=XOXOX=X=X4X'.R.%.' :.>.R.:XrXkXrXqX:XoXY.@.p g ; @ 8 *.>.x.x.f.*.$.*.#.+.@.+.+.@.%.%.%.%.%.' u $ < : @ j { [ { }  .{ { { { { { { { { c c k j 8 * $ 5 6 6 ' T U U R R R Y ! | | ..&.&.&.&.&.&.;.f.x.x.x.x.F.R.&.2 y t < g >.G.!.R.G.l.' ) U ] A.R.~.G.g.g.g.D.G.R.!.!.^.^.^.^.^.).).)././.^.).+X%X{.!.F.,.@.` ` ~ ~ ~ ` ` ` ' @.=.:.g.D.+XqXgXBXBXBXBXBXgXBXgXgXgXeXpXtXGXJXPXPXPXPXUXUXUXUXUXUXUXUXUXUXUXUXUXUXUXUXUXUXUXUXUXUXUXUXUXUX|.V.u.u.r.N q e d r r e e e e e e d d f f r r r r r e e e e e r r r r r r e ",
"e e e e e e e e e e e q q q q q q q q q q q q q q e e e e e e e q q e ^ u.u.u.C.ZXUXUXUXUXUXUXUXUXUXUXUXUXUXUXUXUXUXUXUXUXUXUXUXUXUXUXUXUXUXUXUXUXUXUXUXUXUXUXUXUXUXUXUXUXUXUXUXUXUXUXUXUXUXUXUXUXUXUXUXUXUXUXUXUXUXUXUXUXUXUXUXUXUXUXUXUXUXUXUXUXUXUXUXUXUXUXUXUXUXPXLXcXiX4X:X%X%X'.(.).'.'.'.'.~.l.` +.@.g.E.9XrXkXtXrX9XE.@.p u < U 7.G.Y.b.b.x.b.j.x.x.g.*.*.*.*.*.&.*.*.+.+.+.*.] y < > $ & x E [ [ Y l z 8 8 8 8 2 = = 8 8 = $ $ 5 7 a ' U U U U z U Y Y | | | ......&.*.&.&.;.>.f.g.x.x.x.G.E.>.< y t u < $ $ $ y -.l.g U %.9.~.L.G.l.@.g.D.Y.!.!.(.(.'.%X%X=X:X=X=X%X%XOX4XqX5X}.~.F.-.K t - - : : - > 3 t H ` @.:.D.OX4XyXgXBXBXBXVXVXgXyXeXeXwXwXiXLXPXUXUXUXUXUXUXUXUXUXUXUXUXUXUXUXUXUXUXUXUXUXUXUXUXUXUXUXUXUXUXZXC.u.V.u.^ e e e e e r e e e e f d d d d e e e e e e e e e r r r r r e r e ",
"e e e e e e e e e e e e e e e q q q q q q q q q e e e e e e e q q q N r.u.V.V.|.UXUXUXUXUXUXUXUXUXUXUXUXUXUXUXUXUXUXUXUXUXUXUXUXUXUXUXUXUXUXUXUXUXUXUXUXUXUXUXUXUXUXUXUXUXUXUXUXUXUXUXUXUXUXUXUXUXUXUXUXUXUXUXUXUXUXUXUXUXUXUXUXUXUXUXUXUXUXUXUXUXUXUXUXUXUXUXUXUXUXUXPXLXbX;X'.'.'.).^.^.^.^.).{.^.l.<.+.+.%.R.9XrXkXrXtX).K J u & >.Y.I.U.T.b.b.b.x.x.x.7.>.*.*.&.*.;...X.| | ..*.+...>.R 1 > o $ 8 j < y u > $ : : $ > 5 > $ + $ o > u g R U U G G a g U U R R ! ! | | ..&.&.&.&.;.;.>.>.>.l.x.x.R.&X%.1 u u y t 5 1 ` U A.z U ' >.L.L.l.-.g.D.Y.^.(.(.%X=X:X6X7XwXqXeXqXeXwXeXeXaX8X5X(.F.$.F - - - - - - 3 i G P O.=.f.D.).;X9XeXVXxXyXyXtXyXpXyXyXyX4XxXPXUXUXUXUXUXUXUXUXUXUXUXUXUXUXUXUXUXUXUXUXUXUXUXUXUXUXUXUXUXUXUXUX|.V.V.u.r.N e e e e f d e e e d d f d d e r e e e e e r e e r r e e e r e ",
"e e e e e e e e e e e e e e e e e e e q q q q q q e e e e e q q q q ^ u.u.u.C.ZXUXUXUXUXUXUXUXUXUXUXUXUXUXUXUXUXUXUXUXUXUXUXUXUXUXUXUXUXUXUXUXUXUXUXUXUXUXUXUXUXUXUXUXUXUXUXUXUXUXUXUXUXUXUXUXUXUXUXUXUXUXUXUXUXUXUXUXUXUXUXUXUXUXUXUXUXUXUXUXUXUXUXUXUXUXUXUXUXUXUXUXUXUXMX$XOX+X+X+X).)./.).).OXG.>.@.+.+.-.G.rXVXVXyXl.p J p 2 x.Y.U.T.T.U.b.x.l.l.x.7.5.5.&.&.*.&.&.X...| &.....*.&...;.] 1 1 - o # % g g u u $ & y 5 u 6 % % % t y 1 R T T R T T U U U R R R R R ! ! | ..*.*.&.*.*.*.>.;.7.l.x.R.;X{.< t @.^.J OXU %.K :XS.' %.<.R.R.A.g.D.Y.!.^.'.=X=X:X4X7XeXeXeXeXeXeXeXeXgXgXeX5X{.Y.f.O.O.` O.O.#.$.$.=.f.f.j.j.D.D.!.OX:X0X0X$X;X+X+XOXOXOXoXOX+XhXPXUXUXUXUXUXUXUXUXUXUXUXUXUXUXUXUXUXUXUXUXUXUXUXUXUXUXUXUXUXUXUXUXZXC.u.u.u.^ e e e e f e e e e e e e e d e r r r r r r r e e e e e e r r e ",
"e e e e e e e e e e e e e e e e e e e e e e e e q q q q q q q q q M r.u.u.V.|.UXUXUXUXUXUXUXUXUXUXUXUXUXUXUXUXUXUXUXUXUXUXUXUXUXUXUXUXUXUXUXUXUXUXUXUXUXUXUXUXUXUXUXUXUXUXUXUXUXUXUXUXUXUXUXUXUXUXUXUXUXUXUXUXUXUXUXUXUXUXUXUXUXUXUXUXUXUXUXUXUXUXUXUXUXUXUXUXUXUXUXUXUXUXAXyXwXwXqXqX4X3X;X3X=X%XD.-.@.+.@.R.l.-.@.U a a J J y l./.T.T.T.U.b.x.x.x.x.x.x.l.7.7.&.&.*...| | ..........&.....7.' 5 - y & 5 1 % - % X + : > 5 6 > - u a < +.T Q Q Q Q Q Q Q R R R ! ! ! R R R ! *.*.*.*.*.*.*.*.*.;.7.z.'.wX-.y J ' a ) u ' U 9XpX' ' <.L.~.!.Y.Y.!.(.'.%X=X:X4X6XwXeXeXeXeXeXeXeXpXgXgXeX7X4X^.D.D.D.F.F.F.G.G.Y.R.R.!././.).`.`.OX;X;X;X3X:X;X;X;X:X:X:X;X3XSXPXUXUXUXUXUXUXUXUXUXUXUXUXUXUXUXUXUXUXUXUXUXUXUXUXUXUXUXUXUXUXUXUXUX|.V.u.u.r.N e q e e e e e e e e e e e r r r r r r r r e e e e e e r r r ",
"e e e e e e e e e e e e e e e e e e e e e e e e e q q e q q q q q ^ u.u.u.C.ZXUXUXUXUXUXUXUXUXUXUXUXUXUXUXUXUXUXUXUXUXUXUXUXUXUXUXUXUXUXUXUXUXUXUXUXUXUXUXUXUXUXUXUXUXUXUXUXUXUXUXUXUXUXUXUXUXUXUXUXUXUXUXUXUXUXUXUXUXUXUXUXUXUXUXUXUXUXUXUXUXUXUXUXUXUXUXUXUXUXUXUXUXUXPXNXpXpXeXeXeXwXqX6XqX4X=Xl.%.%.+.F.g.G J J K J J J u ..(./.E.T.Y.b.b.b.x.x.z.x.x.x.x.l.7.*.*.*...*.*.*.*.*.*.*.*.&.;.z.U y y 7 u & @ # # @ # # # # $ 5 a J t a R Q Q Q Q Q Q Q Q *.+.+.! ! R R R R T R +.*.*.*.*.*.*.*.*.;.>.R.:X(.G p p p u J T ' BX6XR.%.l.F.(.-X(.(.(.{.'.%X:X:X:X4XwXeXwXeXwXyXeXyXeXeXeXeXwX4X!.!.^.~.~.~.~.~.(.(.'.'.{.=X=X=X:X:X4X:X:X:X4X4X4X4X4X4X4X4X4X4XpXPXPXUXUXUXUXUXUXUXUXUXUXUXUXUXUXUXUXUXUXUXUXUXUXUXUXUXUXUXUXUXUXUXUXZXC.u.u.u.^ e q e e e e e e e e e r e e e r r r r e e e r e e e e e r e ",
"e e e e e e e e e e e e e e e e e e e e e e e e e e e d e q q q d e.u.u.u.Z.UXUXUXUXUXUXUXUXUXUXUXUXUXUXUXUXUXUXUXUXUXUXUXUXUXUXUXUXUXUXUXUXUXUXUXUXUXUXUXUXUXUXUXUXUXUXUXUXUXUXUXUXUXUXUXUXUXUXUXUXUXUXUXUXUXUXUXUXUXUXUXUXUXUXUXUXUXUXUXUXUXUXUXUXUXUXUXUXUXUXUXUXUXPXLXbXgXgXpXeXsXeXeXeXeXeX{.D.] ] *.dXXXK K <.U g.%.K ; W.&XoXE.F.x.Y.b.b.x.x.x.x.x.x.x.>.*.*.*.*.*.*.*.*.*.*.*.f.>.g.x.7.l.< 5 : u 2 2 * * * * * * * 8 < 5 t > ' U R T R Q Q Q ! *.*.*.+.Q Q R R R R T I I Q +.+.+.+.+.*.*.*.*.l.~.(.` p a u 1 5 y z 5XPXvXl.-.~.~.}.{.{.{.{.{.:X=X=X4X4X6XqXwXwXwXwXwXwXeXyXeXwX9X{.{.{.{.{.{.{.{.{.-X-X-X-X5X5X6X6X6X6X6X7X6X7X7X6X7X7X6XwX6XqX6X7XeXSXPXPXUXUXUXUXUXUXUXUXUXUXUXUXUXUXUXUXUXUXUXUXUXUXUXUXUXUXUXUXUXUXUXUXZ.V.u.u.e.d q q e e e e e r r e r r e e e e e e e e r r e e e e r r e ",
"e e e e e e e e e e e e e e e e e e e e e e e e e e e d e q e e C u.u.u.V.<XZXZXFXSXSXZXSXZXZXFXFXFXZXFXFXFXKXFXKXKXKXKXKXKXKXKXKXKXKXKXKXKXKXKXKXKXKXKXKXKXKXKXKXKXKXKXKXKXKXKXKXKXKXKXKXKXKXKXKXKXKXLXLXKXLXLXLXLXLXLXLXLXLXLXLXLXIXIXIXIXLXLXLXLXLXLXIXLXLXLXIXKXKXFXxXpXpXpXgXgXpXgXeXeXeX4X=XF.-.:.;.BXXXU U ^.U g.:.J z >XrXE.Y.x.x.x.b.b.b.b.x.x.x.x.*.*.+.*.*.*.*.*.*.*.*.*.*.f.l.l.x.x.x.%.p 6 g _ 2 * * * < = * 8 l U y 6 y R R R R R R Q Q ! *.*.+.! Q R R R Q ! ! Q Q Q Q Q #.+.+.+.*.*.*.*.F.^.' u p 7 ;.l.9.Y z.xXiX&Xl.A.~.7X5X6X4X:X-X4X-X6X4X6X6X6X6X6X6XwX6XwXeXwXwX6X4X-X-X-X5X-X5X5X-X5X5X7X7X7X7X7X7X7X7X8X7X7X7X7X7X7X7X7X7X7X7X7X7X7X8X8XpXbXbXZXZXZXZXZXZXZXZXZXZXSXZXZXZXZXZXZXZXZXSXZXZXZXZXSXSXZXZXZXZXZX<XV.u.u.u.C e e e e e e e e r r r r e e e e e e e e r r r r r r r e e ",
"e e e e e e e e e e e e e e e e e e e e e e e e e e e e e e e e w.u.u.u.Z.pXpXpXpXpXpXpXpXpXpXpXpXpXpXpXpXgXpXVXpXxXpXxXVXpXVXpXgXpXpXxXpXVXxXpXpXVXVXxXpXxXxXVXVXxXVXxXxXxXxXxXxXxXxXxXxXxXxXxXxXxXpXxXxXxXxXpXxXpXxXxXxXiXxXxXxXxXxXxXxXpXxXxXxXxXxXxXxXpXiXiXiXiXpXpXpXpXpXgXgXpXgXpXpXeXeXeX{.F.%.-.E.SXXXK K J K J J J ..9XoXY.b.b.E.b.b.b.b.x.x.x.x.f.*.*.! ! *.*.*.*.........*.*.&.7.x.x.x.F.t 5 ' %.j 2 * * * = * 8 z _ y 5 J R T Q Q Q Q Q Q +.*.*.+.Q #.*.+.+.+.+.*.*.*.Q Q Q s.j.f.s.f.*.*.+.*.G.@.u y ) ' ) g 8 8 ' 4XyX>.'.4X7X8X7X7X8X7X7X7X7X7X7X7X7X7X7X7X7X7X7X8X7X7X7X7X7X7X7X7X7X7X7X7X7X7X7X7X7X7X8X7X7X7X8X8X8X7XeXwXeX8X7X8X8X7X7X7X7X8X8X8XeXeXeX8X8XeXeXeXeXeXeX8XeXeX8X8XeXeXeX8XeXeX8X8X8XeXeXeXeXeXeXeXeXeXZ.u.u.u.w.d e e r r r e e r r r r e e e e e e e e r r r r r r r r f ",
"e e e e e e e e e e e e e e e e e e e e e e e e e e e e e e e N t.u.u.V.|.yXpXpXyXpXyXpXyXpXyXpXyXpXpXpXyXpXpXpXpXyXpXpXpXpXpXpXpXeXpXpXyXpXpXpXpXpXpXpXyXpXpXpXeXpXpXpXpXpXpXeXpXeXpXeXeXeXpXeXyXyXyXeXeXeXpXpXpXpXyXyXyXpXyXyXyXyXpXeXeXeXyXyXeXpXyXyXyXyXyXeXyXyXyXeXeXyXyXyXeXwXyXwXeXwXeXqX:XG.:.x.VXrXU.u 1 5 K K K J 7.rXI.x.n.n.b.b.b.x.x.x.x.x.j.f.*.! Q ! ! ! | | | *.........*.&.l.x.x.F.p & ) ;.l 2 = * = = * 8 l ) - 5 U Q Q Q Q Q Q Q +.*.*.+.+.f.f.s.I F L D D L L L I #.s.f.x.j.j.f.j.x.x.G.-.y 5 <.<.>.U < $ 6 g G.<.L.}.sX8XsXeXaXaXaX8X8X8X8X8X8XaXaX8X8X8X8X8X8X8X8X7X7X7X7X7X7X7X7X7X7X7X7X7X7X7X7X7X7X7X7X7X7X7X7X7X7X7X7X7XeX7X7X7X7X7X7X7X7X7X7X7X7X7X7X7X7X7X7XwX7X7X7X7X7X8X7X7X7X7X7X7X7XwX7X7X7X7X7X7X7X7X|.V.u.u.t.N e e e e e e e e e e e r r r r e r r r e e e e e e e f f ",
"e e e e e e e e e e e e e e e e e e e e e e e e e e e e e e e ^ u.u.u.C.0XyXpXyXyXyXyXyXpXtXyXyXyXpXyXyXyXyXyXyXyXpXyXpXyXyXyXyXyXyXyXyXyXyXyXyXpXyXyXyXyXyXyXyXyXyXyXeXyXyXyXyXyXyXyXyXwXyXyXyXyXyXyXeXyXyXwXyXyXyXeXeXyXyXwXyXyXyXyXeXeXeXwXeXeXwXyXyXwXwXwXwXwXwXwXwXeXwXwXwX6XwXqX6XqXwXwXqXwX^.:.E.SX>Xg X.9.l.< a J g 9.^.x.x.n.n.n.n.n.b.x.x.j.f.f.f.s.Q Q Q Q ! ! +.*.*.*.....| ..*.l.l.l.F.K ; 7 %.j = = = = = * = z %.$ 1 ` R Q Q Q Q Q Q +.T Q #.Q I L D D D D D D D L L D D I s.XXx.b.f.j.x.G.(.-.y g R.E.R.x.u : 7 a %.<.~.5XsXsXsXeXsXsXaXsXaXaX8X8XsXaXaXaXaX8X8X8X8X8X7X7X7X7X7X5X5X5X5X7X5X5X5X6X-X6X6X5X5X5X6X4X6X5X5X5X5X5X4X6X6X5X7X5X6X7X6X5X5X6X6X7X5X6X6X7X6X6X6X7X6X5X5X6X7X7X7X6X6X6X6X7X6X6X6X7X6X7X6X6X6X6X3XC.u.u.u.^ e e e e e e e e e e e r r r e e r r r e e e e e e e f f ",
"e e e e e e e e e e e e e e e e e e e e e e e e e e e e e e M r.u.u.V.|.yXyXyXyXyXyXyXtXyXtXtXyXyXyXyXyXyXyXyXyXyXyXyXpXyXyXyXyXyXyXyXtXyXyXyXyXyXyXyXyXyXyXtXyXyXtXyXyXyXyXyXyXyXyXwXyXyXyXyXtXyXyXyXwXtXyXtXyXwXyXwXwXyXwXwXyXyXyXyXwXwXwXwXwXwXyXwXwXwXwXwXwXwXwXwXwXwXwXwXwXwXwXwXqXwXqXwX6X6X~.:.0X$X/.j ].(.OXF.T p a z.Y.b.Y.E.@Xn.n.n.b.x.f.f.s.f.s.s.Q Q Q Q Q Q Q *.Q ! | ! ! ..*.*.l.x.x.` $ 5 z 8 2 2 j j j = * 8 ` $ 1 ' T Q Q Q Q Q K G I Q I I D D L #.D D L s.L f.j.j.#.L L Q j.h.j.x.x.F.E.:.y -.~.'.:XE.U : u g %.%.~.5XgXsXgXgXsXsXsXsXsXsXsXsXsXsXsXsX8XsXsX8X8X8X7X7X5X5X5X7X7X7X7X6X6X6X-X6X6X4X4X4X4X4X6X6X4X4X4X4X4X4X4X:X4X4X4X4X4X4X6X6X4X4X6X6X6X6X6X4X6X4X6X6X4X4X4X6X6X6X6X4X6X6X4X6X4X4X4X6X6X6X6X6X4X4X6XQ.u.u.u.r.M e e e e r r e e e e r r e e e r e r f e r r e e f f f ",
"e e e e e e e e e e e e e e e e e e e e e e e e e e e e e e ^ u.u.u.C.1XyXyXyXyXyXyXtXtXtXyXtXyXtXtXtXyXtXyXtXyXyXtXtXtXyXwXwXyXwXwXwXyXtXyXyXtXtXyXyXyXyXtXwXwXtXyXtXtXwXtXtXtXyXyXwXwXwXtXtXtXyXtXwXwXwXtXwXwXwXwXwXwXwXwXwXwXwXwXwXwXwXwXwXwXwXwXwXwXwXwXwXwXwXwXwXwXwXwXwXwXwXwXwXqXyXtXtXtXwX%XD.+XoX..3.| F.<.l.G.t g z.Y.E.E.E.@XT.@Xn.b.*.*.f.f.j.f.s.*.Q Q Q Q T U Q Q R ! ! ! *.*.f.g.x.x.+.- 5 2 8 2 j k k k 8 * * J # 5 T Q Q R R Q T a y L L D I s.D I h.I L L D I b.U.U.T.j.I Q Q s.j.x.x.F.^.%.u A.~.-X6XE.' < a U ) <.{.-XgXgXgXgXgXgXgXsXgXsXgXsXgXeXsXsXeXeXeXeXeXwX7X4X4X4X4X6X7X7X6X6X4X4X:X6X6X6X4X6X4X4X6X6X4X6X6X4X6X4X4X4X4X4X4X4X4X4X4X4X4X4X4X:X6X4X4X4X4X4X4X:X4X4X6X6X6X6X6X6X4X6X6X4X6XqX4X4X6X4X4X4X-X4X:X`.C.u.u.u.~ e e e r r r r r e e e r e e e f e e e e r r e e e e r ",
"e e e e e e e e e e e e e e e e e e e e e e e e e e e e e e e.u.V.V.Z.qXwXrX9X9X9X9X9X9X9X9X0X9X9XqXqXqXqXqXqXqX9X9X9X9XqX4X4X9X9XqX9X9X9X4XqX9X9X9X9XwX9X9X4X9XqX9XqX9XqX9XqX9XqXqX9XqX9X9X9X9X4X9XqXqXqX9XqX9X4X9XqX4X6XqX9X9X6X9XqX9X9X4X4X4X9X9X9X6X4XqX6X4X9X9XqX9XqX9X4X4X4XqXqXwXpXVXVXVXxX9XG.+XA.| * 5 ] >.7./.@.g 0.R.oXoX&X,X#X@X@Xb.g.x.x.b.j.s.Q Q Q Q Q Q R U R R R R R ! *.>.x.x.x.x.+.$ 5 2 2 2 k c c k j = * u + 5 U +.+.R U T K p > D D Q f.x.L D D D D D D L f.x.x.j.L I f.j.x.x.x.x.x.E.' a G.L.{.6X(.%.5 5 ) %.<.wX7XBXgXpXyXpXgXgXpXpXgXgXgXgXgXpXeXpXeXeXeXwXwXqX4X:X:X:X4X6X7X6XwX4X9XqXqXqXyXyXwXtXyXwXyXqXwXwXwXwXwXwXqXqXwXqXqXqX4X4X6X:X:X=X%X{.%X{.%X=X=X=X:X:X4X4XqX4X6X4XqXqXtXqXwXqXwXwXqXqX4X:X4X:X:X:X:XZ.u.u.u.e.e e e e e r r r r r e e e e e e e e r r r r e e e e e ",
"e e e e e e e e e e e e e e e e e e e e e e e e e e e e e N t.u.V.V._.;X;X$X+X$X$X$X$X$X$X;X;X+X+X$X;X+X+X;X;X;X;X;X;X=X+XOX+X+X;X;X+X+X;X+X=X;X+X=X+X;X;X;X;X+X;X;X;X;X;X;X;X;X;X+X;X+X;X;X;X;X=X=X;X=X%X=X=X;X=X=X=X;X:X;X;X+X=X=X%X;X=X%X%X+X+X=X;X=X;X;X;X;X;X;X&X%XOX%X+X+X=X;X4XeXpXVXVXBXVXpX).$X` < & % U >.E.>XI.5 &.rXkX>X>X,X,X,X@X@XU.g.' I I D D D D D L L a G T Q T T R ! >.l.x.x.x.b.+.& 5 * * l [ { v c j 2 * < $ < U ' R R U U F t p L #.#.j.x.:.D D D D D D I x.x.#.L I $.I.x.x.x.x.x.z.(.p a z.J.{.4X~.;.y a U ] l.SXSXVXSXbXcXcXcXcXcXcXcXnXcXcXnXcXcXnXnXnXjXjXjXjX0X0X3X4X6X6XwXeXwXqXwXqXeXpXpXyXxXpXpXpXpXpXpXpXyXyXyXyXwXqXwXwX6XqX6X6X:X=X'.'.(.(.(.(.(.'.'.%X%X:X:X4X4X9X4X4XqXwXtXyXyXyXyXyXwXqX4X:X:X=X=X=X{.Q.V.u.u.t.N e e e r r r r r r e e e e e e e e e e r r r e e e e ",
"e e e e e e e e e e e e e e e e e e e e e e e e e e e q e ^ u.u.V.C.XXXXXXXXXXXXXXXXXXXXXXXXXXXXXXXXXXXX/.XXXX/./././.!.!.!.!.!.!.!././.!.!.!././.!.!./././././.!.!././././././././././././././././././././././.^././.!.^.^.^.^.!././.!.^.!.^.!.!.^././././././././././.^.!.^.^.!.).+XqXeXgXVXBXVXVXOXg.p > ; 1 >.&XrXkXoXy Y yXkX>X>X,X,X,X@Xh.T G K I L ( D D D L D I J p D L G R R R l.z.l.x.x.b.` : < @ = { 1.{ S v c j * * @ : u R R U z U y t 5 t L L Q +.g.f.D D D D Q $.+.Q Q #.f.x.b.x.l.l.l.l.z.>.5 U 0.S.{.4X{.l.g u ) T x.kXSXJXLXLXHXHXKXHXHXHXHXHXHXHXHXHXHXHXHXHXHXAXHXAXMXMXbXtXqXwXwXwXwXwXwXtXyXpXpXVXxXVXpXVXpXpXpXpXpXyXyXtXwXwXqX9X9X4X:X:X=X%X).^.^.!.!.^.^.^.(.OX=X:X4XqX4X9X9X4XqXqXwXyXyXyXyXwXwX4X4X:X%XOX'.'.).^.C.u.u.u.^ e e e e e e e r e e e r r r e e e e e e e r r e e e ",
"e e e e e e e e e e e e e e e e e e e e e e e e e e e q M r.u.V.V.B.U.U.U.U.U.U.U.U.T.T.T.T.T.T.T.T.T.T.T.T.T.U.U.U.I.I.I.I.I.I.D.I.I.I.I.U.I.I.I.I.I.I.U.I.U.I.U.U.U.U.U.Y.Y.U.U.U.U.I.U.I.U.U.U.U.U.U.Y.I.U.I.U.U.I.U.U.U.U.U.U.U.I.I.I.I.U.I.U.U.U.U.U.U.Y.Y.U.U.U.I.I.I.D.I.I.U.XX3XyXpXVXVXVXrX).l.T i i G R.rXkXkX0X@._ :XkX>X,X,X,X@Xn.s.Q x.b.U.( h.L L I L D $.%.+.T L G G R +.*.7.l.x.7.F.p 1 % @ c 2.1.1.1.S v c j @ + & 5 R U g a a G a a G T Q +.R T Q Q Q T T T T Q Q #.f.g.x.x.x.l.l.l.7.R.%.< ..0.z.E.-X{.z.U y J @.T.FXPXUXUXUXUXUXUXUXUXUXUXUXUXUXUXUXUXUXUXUXUXUXUXUXPXLXJXSXkXwXwXqXqXqXqXtXtXyXxXVXxXxXxXxXxXpXpXpXyXyXtXtXqXqX9X4X4X:X:X;XOX).).!.R.R.R.R.E.!.^.'.OX:X:X4X9X9X9X4X9X9XrXrXtXtXtXwXqX4X:X=XOX'.).^./.^.M.u.u.u.r.d q e e e e e e e r r r r r r r r e e e e r r e e e ",
"e e e e e e e e e e e e e e e e e e e e e e e e e e e e C V.V.V.V.N.h.h.h.h.h.h.N.N.N.N.N.I.U.U.U.T.T.Y.Y.Y.Y.U.U.I.D.D.D.D.D.A.D.D.D.D.D.D.D.D.D.D.D.D.D.D.D.D.D.D.D.D.I.I.I.I.I.D.D.D.D.D.D.D.D.D.D.D.D.D.D.D.D.D.D.U.I.I.I.U.I.I.I.D.D.D.D.D.D.D.D.I.I.I.U.G.G.U.I.I.D.D.D.D.D.D.T.$X0XyXxXxXxX%X!.D.%.` T ' (.rXxXxXkXU.U [.kX>XkX,X@Xk.k.k.E.+X$X.Xp.L D D L D D *.-.+.Q Q R R T *.>.*.l.>.>.G.- < @ j 2.3.1.1.1.S v c x 2 . $ > U U z a a z l g U U T +.*.*.s.#.Q R R R T ! +.+.*.g.l.l.l.9.l.7.l.F.a 8 9.8.z.L.:X6XR.' < ) g.FXpXeXBXPXUXUXUXUXUXUXUXUXUXUXUXUXUXUXUXUXUXUXUXUXUXUXUXPXJXMXrXwXwXqX9XwXyXwXpXxXxXxXxXxXxXyXyXyXyXyXyXtXqXwX9X9X9X4X4X:X:X:XOX`.).^.^.^.^.^.^.).'.OX;X4X9X9X9X4X9X9XqXrX9XrXyXyXwX9X4X=X=XOX).).^./.^.Q.V.u.u.u.C e e e e e e r r f f e e e e e e e f d d f r r r r ",
"e e e e e e e e e e e e e e e e e e e e e e e e e e e n w.V.V.V.t.h.h.h.h.h.h.h.N.U.T.T.T.T.T./././././././.^.!.!.!.!.R.R.R.Y.Y.Y.Y.Y.R.Y.R.Y.R.Y.R.R.Y.R.R.R.R.R.E.R.R.E.!.R.E.E.R.R.R.R.R.Y.R.R.Y.Y.Y.R.Y.R.R.R.R.R.!.R.E.!.R.E.R.R.R.R.R.R.R.R.R.E.R.R.E.E.!.!.!.R.R.R.R.R.R.R.R.R./.+X0XiXiXrXwX{.G.>.` ` ) &XrXxXxXtXoXu z.xX>X>X$Xn.n.b.&XoX>X>XI.I I L D D D L T T T Q R R ' +.+.*.&.;.7.l.g.$ $ * 6.6.3.3.1.{ S S v c x * # ; U U U a 8 8 8 l z U R R Q T Q Q R R R R R ! ! +.*.;.7.7.7.7.7.l.F.F.5 ' z.0.S.L.-XqXE.%.g U %.-.l.~.}.eXSXUXUXUXUXUXUXUXUXUXUXUXUXUXUXUXUXUXUXUXUXUXUXUXPXAXrXwX9X4X9X0X0XwXyXiXpXiXyXyXyXyXyXyXtXyXwXwXqX4X4X:X=X:X:X:X%X%X%X'.(.'.(.).(.(.(.'.OX%X=X:X4X:X:X;X=X:X:X9X9X9XwX9X9X9X:X;XOX'.).'.(.^./.^.M.V.u.u.w.e e e e e e r r f r e e e e e e r f d d f r r r r ",
"e e e e e e e e e e e e e e e e e e e e e e e e e e e M r.V.u.V.B.d.d.d.d.d.h.h.U.T.XXXXoXoXoX+XOX+X=X;X%X;X=XOX%X%X%XOX%X'.'.'.'.'.'.OX'.'.'.'.'.'.'.'.'.'.'.'.OXOX'.'.'.%X'.OXOX'.'.'.'.'.(.'.(.'.'.'.(.(.'.(.'.'.'.'.'.'.'.{.'.'.'.'.'.'.(.'.'.'.'.'.'.'.'.'.'.'.'.'.'.'.'.'.'.'.'.'.OX;X9XqXqXqX'.A.>.` K U &XrXxXkXrX>XT ..*X&XoXXXXX&Xf.! 7.R.^./.s.I I F G T Q *.*.+.! ! R +.*.*.&.&.;.7.l.` : @  .8.6.3.1.1.{ S S S [ c x O & 5 %.U 8 8 8 j 8 l U R R ! Q Q Q R R R R R R +.*.*.;.;.7.7.7.7.9.L.U < S.H.H.S.R.%X7X(.>.g ) >.%.&.z.L.{.qXLXUXUXUXUXUXUXUXUXUXUXUXUXUXUXUXUXUXUXUXUXUXUXPXAXrX9X6X4X4X4X6XqXwXwXwXwXwXwXqXqXqXqXqXqXqX4X4X4X=X=X:X:X:X:X:X:X:X-X=X=X=X=X{.{.{.=X=X=X:X:X:X:X=X=X%X=X=X:X4X4X4X4X4X:X=X=X%X{.{.'.'.'.(.(.Q.V.u.u.r.M q e e e e r r e e e e e e r r f f f d d r r r r ",
"e e e e e e e e e e e e e e e e e e e e e e e e e e e ^ V.V.V.t.a.d.d.d.d.d.h.N.U.T.XX+X;X:X9X9X4X9XqXqXqXqXqXwXwXqXqXwXqXwXqXwXqX6XqX6X6XqX6XwXqXqXqX6X6X6X6XqXwX6XqXqXwX6X6X6XwX6X6X7X6X6X6X6X6X6X4X6X6X6X6X6X6X6X6X6X6X6X7X6X6X6X6X6X6X6X6X6X6X6X6X6X6X6X6X6X6X6X6X6X6X6X6X6X4X6X6X6X4X6X6X7XeX6X{.G.<.' ) ] &XrXxXxXqX>XT a L.:X>X>XrX>X+XU.*.' R ..+.#.$.+.' | *.*.*.! R R | &.&.&.&.&.7.7.F.5 : k q.q.3.2.1.{ S S S v c c [ j X % %.R l l l l l z Y R R ! ! ! R R ' R R ! ' +.*.&.&.&.5.7.7.7.J.>.< %.S.L.H.H.W.(.eX-Xl.g ) ' %.7.z.0.9.(.bXUXUXUXUXUXUXUXUXUXUXUXUXUXUXUXUXUXUXUXUXUXUXPXAXrX6X4X6X6X6X6X6X6XqX6X6X6XqX6X7X6X6X6X4X4X6X6X4X6X6X6X6X6X6X6X6X7X6X6X4X4X5X5X5X4X6X-X6X4X6X6X6X4X4X-X:X:X-X4X4X4X6X6X4X4X-X4X-X-X-X-X-X-X:X`.C.u.u.u.~ e e e e e r r e e e e e e e f f f f d d r r r r ",
"e e e e e e e e e e e e e e e e e e e e e e e e e e e w.u.u.u.r.p.p.s.d.d.d.h.N.U.T.).%X;X9X6XwXwXeXwXeXeXeXeXeXeXpXeXsXsXeXeXsXeXeXeXeXeXeXeXeXeXpXeXeXeXgXeXsXeXgXsXeXeXeXeXeXpXeXeXeXeXeXeXeXeXeX8XeXeXeX8XeXeXeXeXeXsXsXeXeXeXeXeXeXeXeXeXeXeXeXeXeXeXeXeX8XeXeXeXeXeXeXeXeXeXeXeXeX8XeXeXeX8XeX'.R.g.` K ' &XtXyXtX:X:XF.; U qX&X&X>XxXrXoXoXY.x.>.*.*.*.*.*...*.*.R R ! ! ......X.&.&.7.z.<.$ . 8.H.6.3.1.1.{ S v v c c c E [ * + < %.z l z k x Y Y R R ! +.| | ! | | | ......*.&.&.;.5.5.7.9.F.g & S.S.J.L.L.W.{.:X-XF.U ' %.;.9.&.| X.7.oXUXUXUXUXUXUXUXUXUXUXUXUXUXUXUXUXUXUXUXUXUXPXJXMXrX8X7X8X7X8X8XeX8X8X8X8X8X7X7X8XeX8X8X8XeX8X8X8X7X7X7X8XeXeX8X8X8XeX8X8X7X8X8X7X8X7X7X8X8X7X7X7X7X7X7X7X7X7X7X7X7X8X7X8X8X8X8X8X8X8X7X7X7X7X7XZ.u.u.u.w.e q e e r e e f r r r e r r r e e e r f f f f d ",
"e e e e e e e e e e e e e e e e e e e e e e e e e e M t.u.u.u./ ( p.p.s.s.d.d.h.I.T./.oX;X:X4XqXwXwXeXeXeXeXeXpXpXgXgXgXgXgXgXgXgXgXgXgXgXgXgXgXgXgXgXgXgXgXgXgXgXgXgXgXgXgXgXgXgXgXgXgXgXgXgXgXgXgXsXsXsXgXgXgXgXgXgXgXgXgXgXgXgXgXgXgXgXgXgXgXgXgXgXsXgXgXgXsXsXsXgXsXgXgXgXgXgXsXsXsXgXsXgXgXgX7XwXR.A.` J @.:XrXtXyX:X%X*Xg 5 %.&X:X>XrXqX&X(.E.F.x.7.;.*.*.*.*.*.+.+.+..... .X.4.4.5.7.7.~.a % Y K.v.q.3.1.1.{ v c c k c c c E x @ # ' _ z z Y Y | | | ! ! R Y | | | | | | | | ..&.&.&.5.7.7.S.K & X.0.J.S.L.J.W.}.6X6XW.%.' %.7.5. . . .&.l.LXUXUXUXUXUXUXUXUXUXUXUXUXUXUXUXUXUXUXUXPXLXGXkXeX8X8X8X8X8X8X8XsX8XsXaXaXaXaXaXaXaXaXaX8X8XaX8XaXaXaXaXsXaXaXaXaXaXaXaXaX8XsX8XaXaX8XaX8X8X8X8XaX8X8X8X8X8X8X8XaXaXaXaX8XaXaXaX8X8X8X8X8X8X8X|.V.u.u.t.M q e e r e e f e r r e e r r e e e r f f r f d ",
"e e e e e e e e e e e e e e e e e e e e e e e e e e ^ u.u.u.t.L ( ( p.s.s.s.d.d.h.I.T./.oX+X;X9XqXqXwXwXeXeXeXpXpXpXpXgXgXgXgXgXgXgXgXgXgXgXgXgXgXgXgXgXgXgXgXgXgXgXgXgXgXgXgXgXgXgXgXgXgXgXgXgXgXgXgXgXgXgXgXgXgXgXgXgXgXgXgXgXgXgXgXgXgXgXgXgXgXgXgXgXgXgXgXgXgXgXgXgXgXgXgXgXgXgXgXgXgXgXgXgXgXgX4X^.F.-.) *.rXxXxXrX:X*X[.F.; < R.*X*X&X&XE.J.J.x.l.&.&.*.*.*.*.*.*.*...|  .4.5.4.5.5.7.S.>.$ * z.v.q.6.3.3.1.{ v v c k c x x c c l . : %.R R R | ..*.*.| ! E E E | | | | | ..| X.&.5.5.5.7.z.5 : Y o.0.H.H.J.L.W.-XqX7X{.&.%.;.9.5.2. . .X.5.zXHXKXKXKXHXKXKXHXKXKXKXKXKXKXKXHXHXAXAXAXcXkXwX8X8X8XsXaXaXsXsXsXaXaXaXfXsXsXsXaXsXaXsXsXsXsXsXsXsXsXsXsXsXsXaXsXsXfXsXsXsX8XsXsXsXaXaXaXaXsXsXsXsXsXsXsXsXsXsXsXsXsXaXsXsXsXsXaXsXsXsXsXsXsXwXC.u.u.u.~ e e e r e e e e r r e e e e e e e f f f r r e ",
"e e e e e e e e e e e e e e e e e e e e e e e e e e w.u.u.u.w.L I ( p.s.d.d.d.d.h.h.N.T..XXX#X$X9X9X0XtXkXkXcXvXvXvXvXvXvXvXvXvXvXvXvXvXvXvXVXVXVXxXVXxXVXxXVXVXVXVXVXVXVXVXVXVXVXVXVXVXVXVXVXVXVXVXVXVXVXVXVXVXVXVXVXVXVXVXVXgXVXVXVXVXVXVXVXVXVXxXVXVXVXVXVXVXVXVXVXVXVXVXVXgXgXgXVXVXVXgXgXgXBXBXDXeX^.:.%.-.wXxXxX>X*X[.[.[.;.; 5 [.%X%X(.(.W.J.x.x.;.&.&.l.x.l.f.>.&.&.4.5.5.7.5.7.7.7.'.5 O  .v.q.q.6.6.3.1.{ v v v c x x k x x x = . u %.' ! +.*...| |  .| | [ [ | | | | | | X.&.5.5.7.9.; < l X.o.5.0.S.0.L.L.7X6XeX:Xl.%.&.S.0.6.4.} { X.'.3X3X9X9X9X9X9X9XwX9X9XwXwXwXiXeXeXwXwXqXqXwXeXeXeXeXgXpXpXgXpXpXgXgXgXgXgXeXgXpXgXgXeXeXpXgXgXgXeXgXgXgXgXgXgXgXgXpXgXpXpXgXeXgXgXpXgXgXpXgXgXgXgXgXgXgXgXpXgXpXgXgXgXgXpXgXpXgXgXgXgXgXgXgXgXZ.V.u.u.w.e e e e e e e e e e r e e e e r r r f f r r r ",
"e e e e e e e e e e e e e e e e e e e e e e e e q M r.u.V.V./ L I ( s.d.d.h.h.h.h.h.h.N.N.U..XXX#X$XlXMXAXAXAXAXAXAXAXAXAXAXAXAXAXAXAXAXAXAXAXAXAXAXAXAXAXAXMXMXMXMXAXAXMXMXMXMXMXMXMXMXMXMXMXMXMXMXMXMXMXMXMXMXMXMXMXMXMXMXMXMXMXMXMXMXMXMXMXMXMXMXMXMXMXMXMXMXMXMXcXvXMXvXvXvXvXcXvXvXvXvXvXJXrX:X'.~.^.A.%.l.tXxXrX:X*X[.].].[.U < g *X(.{.W.E.W.J.z.z.z.7.9.7.l.x.7.7.7.7.7.5.7.7.7.7.W.U + j q.q.q.q.6.3.2.1.1.v v v c c c x c c x x * X > U ..! | | [ |  . . . .| | [ Y | | |  .&.5.0.%.< : l X.2. .5.8.9.0.L.L.-XqXwXqXl.>.0.H.0.6.3.1.W { L.=X:X:X;X4X4X4X4X4X4X6XqX6XwXwXwXwXwXrXjXjXjXnXnXcXnXcXcXcXcXcXcXcXcXcXcXcXcXcXcXcXcXcXcXcXcXcXcXcXcXcXcXMXcXcXcXcXcXcXcXcXcXcXcXcXcXcXcXcXcXcXcXcXcXcXcXcXcXcXcXcXcXcXcXcXcXcXcXcXcXcXcXcXMXcX<XV.u.u.r.d e e e e r r e e r d r e r r r r r r r r r r ",
"e e e e e e e e e e e e e e e e e e e e e e e e q C u.u.V.t.H L I ( p.d.d.d.d.d.a.d.a.h.h.h.@X2XmXmXHXPXPXPXUXUXUXUXUXUXUXUXUXUXUXUXUXUXUXUXUXUXUXUXUXUXUXUXIXIXPXUXUXUXPXIXIXIXIXIXIXIXIXIXIXIXIXIXIXIXIXIXIXIXIXIXIXIXIXIXLXLXLXLXLXLXLXKXLXLXKXKXKXLXLXLXLXLXLXLXKXKXKXKXKXKXHXHXHXHXKXKXLX9XoXW.J.S.<.:.%.x.yXxXrX*X[.[.[.].].(.g : g ~.(.W.W.J.J.H.H.z.7.8.8.7.7.l.x.x.l.l.l.l.l.l.L.] @ * 0.q.q.6.6.6.3.3.1.1.{ v v v v v c c c c c x * X : 7 ' Y [ [ | [  . .X.X.| | | | | |  .5.;.z : ; x 5.2.2.X.5.7.8.7.L.W.{.eXqXeXR.7.8.0.0.5.2.1.W W H.'.'.OXOX+X%X;X:X:X:X:X4X4X4X6X6X4X0XvXFXFXKXKXHXHXKXHXHXKXKXLXLXKXKXKXKXKXKXKXKXLXKXLXKXLXLXLXLXLXLXLXLXLXLXLXKXKXKXLXLXKXKXKXLXLXKXLXLXLXLXLXLXKXLXLXLXLXLXLXLXLXLXLXKXLXLXLXLXLXLXLXLXLXLXIXKXC.u.u.u.C e e e e e r r r r d d e r r r r r r r r r r ",
"n e e e e e e e e e e e e e e e e e e e e e e e q ^ u.u.V.e.i L I I ( p.p.a.d.d.a.a.d.d.h..XAXPXPXPXUXPXUXUXUXUXUXUXUXUXUXUXUXUXUXUXUXUXUXUXUXUXUXUXUXUXUXUXUXUXUXUXUXUXUXUXUXUXUXUXUXUXUXUXUXUXUXUXUXUXUXUXUXUXUXUXUXUXUXUXUXUXUXUXUXUXUXUXUXUXUXUXUXUXUXUXUXUXUXUXUXUXUXUXUXUXUXUXUXUXUXUXbXtX:X(.L.l.g.>.-.G.xXxXyX*X[.[.].].[.W.W.g : < z.~.W.L.J.J.c.z.z.8.0.0.0.8.8.8.z.z.x.x.l.F.' @ * 8.q.q.6.6.6.6.3.3.2.1.S S S v v v k c c c x x x * . : : U ..| | [ |  .X.X.X. .X. .X.X...U $ % & | 5.5.5.5.4.5.5.7.0.S.R.{.7XeXwX[.5.5.8.8.4.1.{ c W z.OX/././././.oXoXoX+X+X+X=X;X:X4X9XbXFXJXPXUXUXUXUXUXUXUXUXUXUXUXUXUXUXUXUXUXUXUXUXUXUXUXUXUXUXUXUXUXUXUXUXUXUXUXUXUXUXUXUXUXUXUXUXUXUXUXUXUXUXUXUXUXUXUXUXUXUXUXUXUXUXUXUXUXUXUXUXUXUXUXUXUXUXUXZ.V.u.u.^ e e e e e e e r r d d e e e f r r r r r r r ",
"m n e e e e e e e e e e e e e e e e e e e e e e e r.u.u.V./ i F L I ( p.p.p.p.p.a.a.d.d.N.NXDXJXJXPXUXUXUXUXUXUXUXUXUXUXUXUXUXUXUXUXUXUXUXUXUXUXUXUXUXUXUXUXUXUXUXUXUXUXUXUXUXUXUXUXUXUXUXUXUXUXUXUXUXUXUXUXUXUXUXUXUXUXUXUXUXUXUXUXUXUXUXUXUXUXUXUXUXUXUXUXUXUXUXUXUXUXUXUXUXUXUXUXUXUXUXUXjX(.7.z.W.W.x.>.>.R.xXVXyX*X{.[.[.].[.[.W.W.U $ % z ~.W.J.J.H.z.z.0.0.0.z.0.z.8.8.l.l.J.] : @ @ 0.c.q.q.q.q.6.3.3.6.6.1.v S { { v v v c v [ E x x x j . X 1 $ < ) ....X.&.X.&.&.;...z $ X $ @ U 5.X.5.5.5.5.5.5.5.9.7.z.R.~.6X7XwXqX0.2.3.6.6.2. .c v 0./.U.U.U.U.T.T./././.XX).).oXOX;X1XGXJXPXUXUXUXUXUXUXUXUXUXUXUXUXUXUXUXUXUXUXUXUXUXUXUXUXUXUXUXUXUXUXUXUXUXUXUXUXUXUXUXUXUXUXUXUXUXUXUXUXUXUXUXUXUXUXUXUXUXUXUXUXUXUXUXUXUXUXUXUXUXUXUXUXUXUXUXUX<XV.u.u.r.e e e e e e e e f d d e e e f f r r r r r r ",
"M M e e e e e e e e e e e e e e e e e e e e e e N u.u.u.t.s 3 3 i F L I ( ( ( ( p.p.p.d..XNXJXJXJXUXUXUXUXUXUXUXUXUXUXUXUXUXUXUXUXUXUXUXUXUXUXUXUXUXUXUXUXUXUXUXUXUXUXUXUXUXUXUXUXUXUXUXUXUXUXUXUXUXUXUXUXUXUXUXUXUXUXUXUXUXUXUXUXUXUXUXUXUXUXUXUXUXUXUXUXUXUXUXUXUXUXUXUXUXUXUXUXUXUXUXUXPX$XJ.4.4.4.z.E.>.>.~.xXxXrX&X%X[.[.[.].].[.W.W.&.2 & 1 U 9.L.J.J.z.z.z.z.0.z.z.z.S.l.) 5 & + * 2.v.c.q.q.v.q.q.q.6.6.6.q.1.S S v v v v v { } E c c c x l @ . X $ % & : : : : : % % $ + + * z | 5.2.6.6.8.5.5.5.5.7.8.9.z.W.~.4XeXyX:X0.q.2.5.6.2. .v v 7.).N.I.I.I.I.U.U.U.T.U.T.T.T.T.XX$XLXPXUXUXUXUXUXUXUXUXUXUXUXUXUXUXUXUXUXUXUXUXUXUXUXUXUXUXUXUXUXUXUXUXUXUXUXUXUXUXUXUXUXUXUXUXUXUXUXUXUXUXUXUXUXUXUXUXUXUXUXUXUXUXUXUXUXUXUXUXUXUXUXUXUXUXUXUXUXKXC.u.u.u.N e e e e e e e e d e e e e f f f r r r r r ",
"m m M n e e e e m m e m m e e e e e e e e e e e ^ u.u.u.r.H i i i t i F L L L L I I ( ( N.vXDXJXJXPXUXUXUXUXUXUXUXUXUXUXUXUXUXUXUXUXUXUXUXUXUXUXUXUXUXUXUXUXUXUXUXUXUXUXUXUXUXUXUXUXUXUXUXUXUXUXUXUXUXUXUXUXUXUXUXUXUXUXUXUXUXUXUXUXUXUXUXUXUXUXUXUXUXUXUXUXUXUXUXUXUXUXUXUXUXUXUXUXUXUXUXPXoXH.8.5.8.v.W.J.x.%XxXxX>X*X&X{.{.[.[.].].].].W.c.| < & & 5 U ..;.7.l.9.9.7.%.' a ; $ @ @ * 4.8.q.K.K.H.q.q.q.q.q.6.3.1.1.S { { v v v v { { W c c E x k l * @ O X X + + @ @ % & & * 8 x  .X.X.5.5.5.5.5.5.5.5.5.7.9.z.S.W.'.:XeXeXeXX.8.q.0.8.5.} c v z.T.I.I.U.I.I.U.U.U.U.U.U.U.U.U.T.$XLXPXUXUXUXUXUXUXUXUXUXUXUXUXUXUXUXUXUXUXUXUXUXUXUXUXUXUXUXUXUXUXUXUXUXUXUXUXUXUXUXUXUXUXUXUXUXUXUXUXUXUXUXUXUXUXUXUXUXUXUXUXUXUXUXUXUXUXUXUXUXUXUXUXUXUXUXUXUXUXZ.u.u.u.^ e q e e e e e e r r r r r r r r r r r r r ",
"m m M m e e e e e e m m e e e e e e e e e e q q e.u.u.u.y.@.` K F i i t t t i i i i F L $.#XGXJXJXPXUXUXUXUXUXUXUXUXUXUXUXUXUXUXUXUXUXUXUXUXUXUXUXUXUXUXUXUXUXUXUXUXUXUXUXUXUXUXUXUXUXUXUXUXUXUXUXUXUXUXUXUXUXUXUXUXUXUXUXUXUXUXUXUXUXUXUXUXUXUXUXUXUXUXUXUXUXUXUXUXUXUXUXUXUXUXUXUXUXUXUXIXoXv.q.q.v.K.W.L.z.&XxXtXrX:X*X&X*X*X[.[.[.].].W.].K.H...z 6 < $ $ $ # # $ - $ - $ + & * l 6.6.q.q.H.v.K.v.q.6.q.H.K.v.2.1.{ 1.1.} 2.2. .{ { W [ E c c x x E z = * * * * * 2 = j j z [  .4.X.X.4.&.5.5.5.;.5.5.5.7.9.z.S.R.E.%XtXtXqX[ [ 2.c.c.H.2.v E G.@X@X@X.X.X.XN.N.N.U.U.U.U.U.U.T.#XLXPXUXUXUXUXUXUXUXUXUXUXUXUXUXUXUXUXUXUXUXUXUXUXUXUXUXUXUXUXUXUXUXUXUXUXUXUXUXUXUXUXUXUXUXUXUXUXUXUXUXUXUXUXUXUXUXUXUXUXUXUXUXUXUXUXUXUXUXUXUXUXUXUXUXUXUXUXUXUX<Xu.u.u.e.q e e e r r e e r r r r r r r r r r r r r ",
"m m m M M m e e e e e e e e e e e e e e e e q M t.u.u.u.m.g.=.+.P H i i t i t t t t t p H ( N.#X2XmXHXPXPXUXUXUXUXUXUXUXUXUXUXUXUXUXUXUXUXUXUXUXUXUXUXUXUXUXUXUXUXUXUXUXUXUXUXUXUXUXUXUXUXUXUXUXUXUXUXUXUXUXUXUXUXUXUXUXUXUXUXUXUXUXUXUXUXUXUXUXUXUXUXUXUXUXUXUXUXUXUXUXUXUXUXUXUXUXUXUXUXUX+Xq.6.q.K.].*X[.J.>XxXxX>X:X:X*X*X*X*X[.[.[.].].].K.K.K.K.H.7.| Y z a a 8 8 l j j l Y &.c.6.3.6.q.K.K.].[.c.K.W.].[.K.6.2.1.6.0.8.5.5.5.2.X.} { c c c W c E X...[ l 2 2 j j l l x E X.X.&.&.&.X.;.;.5.5.;.;.5.;.7.9.S.z.R.(.(.wXtXeXY k v 6.q.H.J.E W /.UXUXUXUXIXIXLXAX2X.XT.T.T.T.T./.+XAXPXPXUXUXUXUXUXUXUXUXUXUXUXUXUXUXUXUXUXUXUXUXUXUXUXUXUXUXUXUXUXUXUXUXUXUXUXUXUXUXUXUXUXUXUXUXUXUXUXUXUXUXUXUXUXUXUXUXUXUXUXUXUXUXUXUXUXUXUXUXUXUXUXUXUXUXUXUXUXhXV.u.u.t.d e e e e r r r r r r r r r r r r r r r r ",
"m m m m M e e e e e e e e e e e e e e e e e e C u.u.u.V.I.x.<.$.` K p u t t t t t t t i i p P ` $.h.@X2XZXAXKXKXKXKXKXKXKXKXKXKXKXKXIXIXIXIXIXIXIXIXIXIXIXIXIXIXIXIXIXIXIXIXIXIXIXUXUXUXUXUXUXUXUXUXUXUXUXUXUXUXUXUXUXUXUXUXUXUXUXUXUXUXUXUXUXUXUXUXUXUXUXUXUXUXUXUXUXUXUXUXUXUXUXUXUXUXUXUX>Xq.6.v.].[.dX7X(.yXxXxXrX>X:X*X:X*X*X*X[.[.].W.].].K.W.K.J.J.H.z.z.z.0.7.&.&.| | &.7.z.q.6.6.q.H.K.].[.*X&X(.[.[.].K.q.3.2.5.6.8.0.H.z.H.8.4.} { [ v { } { [ |  . . . . . . .|  .X.&.X.&.5.&.4.X.5.5.5.;.5.5.7.9.z.F.S.L.%X(.tXtXwXE k c 1.6.0.].E [ +XUXUXUXUXUXPXPXPXFXjXXX)././.).).OX0XGXIXPXUXUXUXUXUXUXUXUXUXUXUXUXUXUXUXUXUXUXUXUXUXUXUXUXUXUXUXUXUXUXUXUXUXUXUXUXUXUXUXUXUXUXUXUXUXUXUXUXUXUXUXUXUXUXUXUXUXUXUXUXUXUXUXUXUXUXUXUXUXUXUXUXUXUXUXUXIXC.u.u.u.C q e e e e e e r r r r r r r r r r r r r ",
"m m m m m m m e e e e e e e e e e e e e e e e ^ u.u.u.M.Y.D.g.:.#.~ p t t t t t t 3 3 3 3 t t G P O.$.h.m.N.U.T..X.X.X.X.X.X#X2X2X2XmXmXmXmX2X2X2X2X2X2X1X2X1X2X2X2X2X2X2X2X2X2X2XlXlXlXlXlXlXlXlXlXlXlXlXlXlXlXlXlXlXlXmXmXZXmXmXmXmXmXZXZXZXZXZXZXZXZXZXZXZXZXZXZXZXZXZXZXZXZXZXZXZXZXZXKX>Xq.6.v.].[.7X[.].yXxXxXrX>X:X:X*X*X*X[.[.[.[.(.W.W.W.W.K.K.c.H.z.z.z.z.l.7.7.7.9.z.J.J.q.q.q.v.K.].[.[.*X&X*X[.].].v.6.2.2.5.q.6.5.0.8.0.0.0.6.4.2.{ } } 2. . .|  . . .X. .X. .X.X.X.&.X.&.&.4.&.5.5.5.5.5.5.7.9.l.z.S.G.{.'.qXyX7XY k v { 2.8.~.| &.0XUXUXUXUXUXUXPXPXJXbX$X+X+X+X+X%X%X:X9XlXmXZXZXZXZXZXZXZXZXZXZXZXZXZXZXZXZXZXZXZXZXZXZXZXZXZXZXZXZXZXZXZXAXAXAXAXAXAXAXAXAXAXAXAXAXAXAXAXAXAXZXZXZXZXlXlXlXlXlXlXlXlXlXlXlXlXlXlXlXlXlXlXlXlXlXlXlXlXZ.u.u.u.^ e e e e e e e r r r r r r r f r r r r r ",
"m m m m m m m M e e e e e e e e e e e e e e e e.u.u.u.Z./.Y.A.g.=.` F i t t t t 3 3 1 - - - > 5 i H P O.#.$.d.f.j.h.j.h.h.h.N..X#X2XmXmXmXmXmX2X$X#X.XT.T.T.XXXX$X;X0X0X0X9X9X9X9X9X9X9X0X9X9X9X9X9X9X9X9X9X0X9X9X9X9X9X9X9X9X9X9XqXwXqXqXqXqXqXwXqXwXwX0X0X9X9X9XrXrXrX0X9X0X0X0X0X0X0XzX0X:Xq.6.v.].5X[.].K.kXvXxXrXrXrX>X:X*X*X*X{.*X~.W.W.W.W.K.J.J.L.L.H.J.c.z.z.c.z.c.z.z.K.K.K.K.v.K.].[.[.[.*X[.[.W.].W.v.6.3.3.6.5.4.5.5.5.4.5.6.8.5.8.6.6.2.2.2.X.| | |  .X.X. . .X.X.X.X.X...X.4.5.5.5.5.;.7.5.;.9.l.S.z.R.~.%XqXtXwX| k c { 2.5.J.&.7.SXUXUXUXUXUXUXUXPXJXCXrXqX4X4X9XqX6XqXqXqXqXwXeXwXwXeXtXtXtXtXwXwXwXwXwXwXwXwXwXwXwXqXwXqXwXwXwXqXwXyXtXxXvXbXNXNXGXGXGXHXGXHXHXGXGXGXGXGXMXbXxXzX0X3X:X=X%X%X%X{.%X{.'.'.'.'.'.'.(.~.~.~.!.!.^.!.!.!.M.u.u.u.e.e e e e e r r r r r r e r r f r r r r r ",
"m m m m m m m M m e e e e e e e e e e e e e M t.u.u.V.Q./.Y.D.A.f.@.` P J p t t 3 > > - - - - - > 3 t i H P ( ( O.#.#.#.$.$.h.N.@X2X2XmXmX2X2X2X@X.X.XN.N..X@X@X@X2X2X2X2XjX0XqXwXqXwXwXwXwXyXyXyXyXyXtXyXyXwXyXyXeXyXyXeXyXwXyXeXyXwXeXwXpXeXyXpXyXyXpXeXyXwXyXwXyXyXwXyXyXyXtXyXyXtXyXwXpX:Xq.3.v.].5X[.].[.xXxXVXkXrXrXrX>X>X*X%X*X(.(.(.(.J.W.W.W.W.W.L.K.K.H.K.K.K.c.z.0.z.W.[.].].].[.[.W.].W.W.W.].H.K.K.q.6.3.1.1.4.4.5.2.X.2.X.X.2.2.6.8.0.0.z.z.7. . .| |  .X. . .X.X.2.5.&.5.&.&.5.5.5.5.5.5.7.7.9.l.z.S.R.R.&X:XqXqX8.W c [ } 2.0.7.z.PXUXUXUXUXUXUXPXPXJXCXtXeXeXwXwXeXwXeXeXeXeXeXeXeXeXtXyXyXeXeXeXeXeXeXeXeXeXeXeXeXeXeXeXwXeXeXwXwXeXyXxXxXCXCXCXCXCXGXGXGXFXFXGXGXGXFXFXCXCXVXVXxXyXwX4X6X4X4X4X4X:X=X=X=X'.{.{.'.(.(.~.~.~.~.~.R.!.E.Q.V.u.u.t.d e e e e r r r r r r e r r f r r r r r ",
"m m M m m m m m M m e e e e e e e e e e e e C u.u.u.C.)./.T.Y.D.g.f.=.@.O.` P J p t > - % % % % - : 1 5 t i p H J K K K P ~ #.h..X2X2X2X2X2X2X2X@X.XN..X2XGXJXLXIXIXIXIXLXGXlXrXtXtXyXtXeXeXeXyXpXyXpXeXpXpXpXpXeXgXpXpXeXeXgXpXpXgXgXgXpXpXpXgXgXgXgXpXgXgXgXgXpXgXgXgXgXgXgXpXpXpXgXgXgXgX>Xq.3.v.[.5X[.*XdXkXxXxXxXrXrX>XrX:X*X%X%X%XL.W.W.W.W.L.R.R.W.W.W.W.W.K.K.c.c.8.z.z.:X:X:X*X[.[.W.K.K.J.K.K.K.K.K.H.q.3.1.} { } } 2.X.}  .{ } } } { } 5.5.0.z.z.| | | |  . .{  . .X.4.&.5.X.5.5.5.5.;.;.;.5.7.>.9.l.l.S.R.R.%X:X6X:X5.2.c c } 2.8.0.!.UXUXUXUXUXUXPXPXJXFXzXyXyXyXyXeXyXeXyXeXeXyXeXeXeXeXeXgXeXeXeXeXeXyXeXeXeXeXeXeXeXeXpXeXeXeXeXyXyXyXyXxXVXVXCXCXNXGXGXGXGXGXHXGXGXFXFXFXCXCXCXVXxXyXyXwXqXwXwXwX7X6X6X4X:X=X{.{.(.(.~.~.~.~.~.R.!.R.R.R.C.u.u.V.C e e e e r r r r r e e r r f r r r r r ",
"m m m m m m m m m m m e e e e e e e e e e e ^ u.u.u.M.oX).!.Y.U.D.l.g.<.:.:.@.@.` K p t - - - - $ - : > 1 3 t i i i p p G K P ( N.@X2X2X2X2X2X@X.XN.N.jXSXJXPXPXUXPXUXPXPXJXGXlXcXcXcXkXzXvXvXvXvXvXvXvXvXvXvXvXvXvXvXxXvXxXxXxXxXvXxXvXxXxXvXxXvXvXvXvXvXxXxXvXvXvXxXxXVXxXvXvXxXxXxXxXVXVX>X6.6.v.*X*X7XdXK.dXkXVXkXkXrXqX:X:X:X&X&X[.(.[.(.L.R.R.W.W.J.W.W.W.W.K.H.H.8.8.z.z.:XyX*X[.].K.v.c.c.c.c.v.H.K.K.c.q.3.1.1.{ { { } }  .{ { [ c c c c [ } 4.5.5.| X.|  .{ {  . . .X.X.&.5.5.5.5.&.;.&.&.7.7.7.9.l.l.l.S.R.^.'.-X:X{.5.5.} c { X.8.0.9XzXmXmXmXmXmXmXmXmXmXmXmXmXMXMXmXmXMXMXmXMXMXmXmXMXMXMXMXMXMXMXMXMXmXmXmXMXMXMXMXMXMXMXmXMXmXMXMXMXMXMXMXMXMXMXMXAXMXAXAXAXAXAXGXAXAXAXAXNXNXMXMXMXmXcXlXlXcXlXlXlXnXjXjXjX0X;X%X(.(.~.~.E.!.R.R.R.R.R.R.M.u.u.u.^ e e e e e e r r r e e r r r r r r r r ",
"m m m m m m m m m m m m m e e e n n e e e e e.u.u.V.Q.oX)./.T.Y.G.D.D.A.l.g.<.,.-.@.` P H t t , t i i F F H P P ~ ~ ~ ~ P K P P a..X@X2X2X2X@X.Xh.h..XvXDXJXPXPXPXUXUXPXPXJXLXAXAXAXAXAXAXAXAXAXAXAXAXAXAXAXAXAXAXAXmXAXmXAXAXAXAXAXmXmXmXmXmXmXMXmXMXMXmXmXmXmXmXmXmXmXmXmXmXmXmXmXmXmXmXMXjXq.6.v.dX7X*X].q.>XxXkXxXkXrX>XrX:X&X>X&X(.(.(.(.(.E.W.R.E.E.W.J.J.W.K.c.0.6.8.z.z.[.*X].K.q.q.6.6.8.8.z.z.v.H.v.q.6.3.1.{ { { { { { { c l 8 * * * j k c { X.X.x X. .| [ {  . .{  .X.X.;.;.;.5.;.;.;.5.7.7.7.7.l.7.J.S.G.E.'.'.:X[.H.8.2.[ { X.8.z.tX4XnXGXJXPXPXIXUXIXIXPXPXIXIXIXIXIXIXIXIXIXIXIXIXIXIXIXIXIXIXIXIXIXIXIXIXIXIXIXIXIXIXIXLXLXIXIXIXIXIXLXIXIXIXLXIXIXIXIXIXIXIXIXIXIXIXIXIXLXLXLXLXLXLXIXIXIXIXIXIXIXIXLXLXLXHXMX$X'.~.~.R.R.L.L.L.L.G.G.L.M.V.u.u.e.e e e e e r r r r r r r r r r r r r r ",
"m m m m m m m m m m m m m n n e e e e e e e t.u.u.u._.OX).)./.!.Y.Y.I.D.D.D.A.l.g.<.:.@.@.@.] O.@.@.$.=.:.:.:.:.,.f.f.:.=.@.O.( d.N.@X@X@X@X@XN.h.h..XvXDXJXPXPXUXUXUXPXUXPXPXPXUXUXUXUXUXUXUXUXUXUXUXUXUXUXUXUXUXUXUXUXUXUXUXUXUXUXUXUXUXUXUXUXIXIXIXUXUXUXIXIXIXIXIXIXUXUXIXIXIXIXIXIXUXUXnXv.6.K.dX*X].K.6.:XkXxXxXkXrXqXrX&X&X>X&X%X%X(.[.E.E.J.(.(.W.W.W.W.K.H.0.8.8.z.z.z.K.].v.8.2. .Y l l Y &.9.z.c.c.0.6.2.} { [ { [ { [ 8 @ . . . . X @ j k c [ [ x | | | | [ { [ [ X.X.X.&.X.5.;.;.;.;.5.7.7.;.7.l.l.F.S.L.E.=X%X4XW.c.q.4.{ { X.8.J.yX0XHXPXPXUXUXUXUXUXUXUXUXUXUXUXUXUXUXUXUXUXUXUXUXUXUXUXUXUXUXUXUXUXUXUXUXUXUXUXUXUXUXUXUXUXUXUXUXUXUXUXUXUXUXUXUXUXUXUXUXUXUXUXUXUXUXUXUXUXUXUXUXUXUXUXUXUXUXUXUXUXUXUXUXUXPXPXMXoX^.R.R.G.F.F.F.F.S.G.Y.Y.V.u.u.t.e q e e r r r r r r r r r r r r r r r ",
"m m m m m m m m m m m m m M e e e e e e e N u.u.u.V.+XOXoXoXoXoX#XXXT.T.Y.G.G.D.D.A.g.g.<.<.<.<.g.g.g.g.g.A.D.D.D.D.D.A.g.,.=.$.d.N..X.X.X.X.XN.f.d.N.jXSXJXPXPXPXPXPXPXPXUXUXUXUXUXUXUXUXUXUXUXUXUXUXUXUXUXUXUXUXUXUXUXUXUXUXUXUXUXUXUXUXUXUXUXUXUXUXUXUXUXUXUXUXUXUXUXUXUXUXUXUXUXUXUXUXUXAXJ.6.].dX[.].q.3.[.xXxXvXkXrXrXrX>X>X&X&X%X(.%X%X(.E.E.E.E.W.W.W.K.K.c.5.5.8.H.J.c.0.K.q.2.c = O @ O @ @ * l 5.8.8.6.4.1.{ { v E x * . . . O @ @ 8 j j k x c x E  .|  .| [ [ [  .X.X.X.X.X...&.&.&.;.;.7.&.7.>.l.l.F.l.R.R.'.%X4XL.q.q.6.{ { X.8.R.yX0XPXUXUXUXUXUXUXUXUXUXUXUXUXUXUXUXUXUXUXUXUXUXUXUXUXUXUXUXUXUXUXUXUXUXUXUXUXUXUXUXUXUXUXUXUXUXUXUXUXUXUXUXUXUXUXUXUXUXUXUXUXUXUXUXUXUXUXUXUXUXUXUXUXUXUXUXUXUXUXUXUXUXUXUXUXPXLX$X^.Y.F.A.A.A.A.l.A.D.Y.!.V.u.u.u.N q e r e r r r r r r r r r r r r r r ",
"m m m m m m m m m m m m m M m e e e e e e ^ u.u.u.C.;X+X+X$X$X0X0X0X2X$X#X/.Y.U.G.D.D.A.A.A.A.D.D.D.F.G.G.Y.Y.Y.Y.Y.Y.G.D.g.f.:.d.h.N.N.U.U.N.f.=.#.s..XlXFXJXIXIXIXPXPXPXUXUXUXUXUXUXUXUXUXUXUXUXUXUXUXUXUXUXUXUXUXUXUXUXUXUXUXUXUXUXUXUXUXUXUXUXUXUXUXUXUXUXUXUXUXUXUXUXUXUXUXUXUXUXUXUXUXLXXXq.].*X[.K.q.3.K.VXxXkXxXkXrXrX>X>X&X&X&X(.*X%X(.oX(.(.(.W.L.J.K.H.0.5.8.z.H.J.H.6.c.8.{ k h * 8 z Y x k k l 5.5.4.4.} { E c x l _ U 2 8 j j j 8 8 j j k x x E  .| |  .| [ [ [  .X.X.X.| &.X.&.&.&.;.;.;.>.&.l.l.x.A.L.R.%X:X%XL.0.6.1.{ { X.0.(.7XlXUXUXUXUXUXUXUXUXUXUXUXUXUXUXUXUXUXUXUXUXUXUXUXUXUXUXUXUXUXUXUXUXUXUXUXUXUXUXUXUXUXUXUXUXUXUXUXUXUXUXUXUXUXUXUXUXUXUXUXUXUXUXUXUXUXUXUXUXUXUXUXUXUXUXUXUXUXUXUXUXUXUXUXUXUXUXPX2X/.F.A.g.g.g.g.g.g.D.Y.~.C.u.u.u.^ q e r r r r r r r r r r r r r r r r ",
"m m m m m m m m m m m m m m m e e e e e e w.u.u.u.Z.;X;X+X0X0X0XzXlXcXjXjX$X+X!.Y.Y.G.G.F.F.G.G.Y.Y.Y.Y.!.!.!.^./.!.!.R.Y.I.g.f.:.d.h.h.j.j.f.=.#.O.O.$.d.N.N..X.X.X@XAXPXPXUXUXUXUXUXUXUXUXUXUXUXUXUXUXUXUXUXUXUXUXUXUXUXUXUXUXUXUXUXUXUXUXUXUXUXUXUXUXUXUXUXUXUXUXUXUXUXUXUXUXUXUXUXUXUXUXIX$Xv.*X[.].q.6.3.c.xXyXxXkXrXqXrXrX>X&X>X(.E.%X%XE.(.%XE.(.W.J.J.K.0.0.8.0.z.H.J.c.0.8.8.4.c k j x ..z.z.0.8.l.F.z.X. . .{ c x | &.| ;.5.0.5.x z j 8 j j x E [ [ [  .X. . .[ [ [  .X.X.X.&...&.&.;.&.&.;.;.>.>.l.<.x.F.F.R.%X4X%X5. .{ c E  .X.H.-X6XlXPXPXUXUXUXUXUXUXUXUXUXUXUXUXUXUXUXUXUXUXUXUXUXUXUXUXUXUXUXUXUXUXUXUXUXUXUXUXUXUXUXUXUXUXUXUXUXUXUXUXUXUXUXUXUXUXUXUXUXUXUXUXUXUXUXUXUXUXUXUXUXUXUXUXUXUXUXUXUXUXUXUXUXUXUXUXPX2X).Y.D.l.g.g.g.A.D.R.).$XZ.u.u.u.^ e e q e e r r r r r r r r r r r r r ",
"m m m m m m m m m m m m m m m m m e e w e e.u.u.u.|.9X;X9X0XkXzXvXbXcXcXlX0X1XoXR.Y.Y.Y.Y.Y.Y.R.E.!.^.^.^.).).).).).).).!.Y.D.g.f.$.$.s.f.=.$.O.` O.( O.#.$.s.f.h.j.N.mXJXPXUXUXUXUXUXUXUXUXUXUXUXUXUXUXUXUXUXUXUXUXUXUXUXUXUXUXUXUXUXUXUXUXUXUXUXUXUXUXUXUXUXUXUXUXUXUXUXUXUXUXUXUXUXUXUXUXUXjXK.*X[.].q.3.3.v.yXtXkXrXrXrX>X>X>X>X%X&X&X%X%X(.(.W.(.(.W.J.J.H.z.0.0.z.H.H.H.H.c.c.0.0.2.{ E E &.z.W.W.W.W.J.z.4.| [ Y k x [ | X.5.5.5.4.[ z l j j c [  . . . . . . .{ [ [ [ [ | X.X.&.&.&.&.&.&.&.&.>.;.&.>.l.F.A.F.L.^.%X'.&. .0.H.5.&.z.R.wX6XtXIXPXUXUXUXUXUXUXUXUXUXUXUXUXUXUXUXUXUXUXUXUXUXUXUXUXUXUXUXUXUXUXUXUXUXUXUXUXUXUXUXUXUXUXUXUXUXUXUXUXUXUXUXUXUXUXUXUXUXUXUXUXUXUXUXUXUXUXUXUXUXUXUXUXUXUXUXUXUXUXUXUXUXUXUXPXLX2X+X^.G.A.l.l.D.D.G.+XZXHX<Xu.u.u.e.e q q e r r r f r r r r r r r r r r ",
"m m m m m m m m m m m m m m m m n m e e e t.u.u.V.1X3X3X9X0XzXvXbXNXNXcXvXlX0X$X/.R.R.Y.Y.Y.R.!.^.^.^.).).`.oXOXOX+XOX)./.Y.U.m.j.=.$.#.O.O.O.` ` ` ` ` ` O.#.$.=.f.h.2XHXLXPXUXUXUXUXUXUXUXUXUXUXUXUXUXUXUXUXUXUXUXUXUXUXUXUXUXUXUXUXUXUXUXUXUXUXUXUXUXUXUXUXUXUXUXUXUXUXUXUXUXUXUXUXUXUXUXUXcXJ.[.[.K.q.3.6.K.rXrXrXrXrX>XrX>X>X&X&X&X*X(.%X%XoX(.(.[.W.J.J.J.z.8.z.c.c.H.H.H.H.c.H.H.c.6.5.4.8.c.W.W.K.K.v.0.7.| [ x l k x [ } 4.4.4.&.4. .E c { } X.X.X.X. . . . .[ { [ [ [ ......X.X.X.&.&.;.&.7.;.>.>.>.9.l.x.A.R.R.;X%X7.5.5.H.].8.J.S.gX7XqXAXIXPXUXUXUXUXUXUXUXUXUXUXUXUXUXUXUXUXUXUXUXUXUXUXUXUXUXUXUXUXUXUXUXUXUXUXUXUXUXUXUXUXUXUXUXUXUXUXUXUXUXUXUXUXUXUXUXUXUXUXUXUXUXUXUXUXUXUXUXUXUXUXUXUXUXUXUXUXUXUXUXUXUXPXPXGXjX:XoXY.D.D.D.G.G.`.ZXIXUXZXV.u.u.t.e q e e r r f f r r r r r r r r r r ",
"m m m m m m m m m m m m m m m m m e n e M u.u.u.V.1X9X9X0XkXvXbXNXNXGXAXcXcXjX1X/.Y.R.R.R.R.!.^./.^.^.).).oXOXOX+XOXOXoX)./.U.D.j.f.$.O.O.( ~ ~ ~ ` ` ` ` +.@.$.:.f.f.N.2XmXAXKXKXIXLXLXIXIXIXIXIXIXUXUXUXUXUXUXUXUXIXIXIXIXIXIXIXIXIXIXIXUXUXIXUXUXUXUXIXIXIXIXUXUXUXUXUXUXUXIXUXUXUXUXUXIXUXFXW.[.[.K.q.3.q.].wXrXkXrXrX>XrX>X>XoX&X>X&X%X(.%X(.E.(.E.J.L.J.z.8.c.c.H.H.H.c.J.J.J.J.J.K.J.K.H.v.H.J.J.J.z.8.5.8.7.7.X.[ [ { [ E  .X.X. . . .} X.X.X.X.X.X.X.X. .{ { [ [ [  .X..... . ...&.&.&.;...;.;.;.9.>.9.l.F.A.L.^.%X'.5.5.7.0.].S.z.S.BX7X7XwXbXHXLXLXIXIXIXIXLXLXIXIXIXIXIXIXIXIXIXIXIXIXIXIXIXIXIXIXIXIXIXIXIXIXIXIXIXIXIXIXIXIXIXIXIXIXIXIXIXIXIXIXIXIXIXIXIXIXIXIXIXIXIXIXIXIXIXIXIXIXIXIXIXIXIXIXIXIXIXIXIXIXLXKXAXcXrXwX:X/.Y.G.G.Y.R.3XIXUXUXIXC.u.u.u.M q e e r f f f r r r r r r r r r r ",
"m m m m m m m m m m m m m m m m m m e e ^ u.u.u.C.9X9X;X0XkXbXbXCXGXGXAXMXcXjX0X/.!.Y.R.R.R.!.^.^.^.).).).OXOX+X+X+XOXoX)./.T.I.j.f.=.O.~ ~ K P ~ ~ ` ` ] @.@.=.,.g.g.f.f.j.m.N.T..X.X#X#X2X$X2XMXGXHXJXPXPXPXJXHXGXAXmXlXlX2X2X2X2X2XmXmXmXmXmXmXmXmXmXmX2XmXmXmXmXmXmXmXmXmXmXmXmXmXmXmXmXmXAXW.W.*XK.q.6.q.K.:XrXkXrXqX>XqX>X>X>X>X&X&XoX%XoX&XE.E.E.R.J.J.z.c.H.H.H.H.v.H.K.K.J.K.J.K.K.H.H.H.z.H.z.c.7.5.&.5.7.8.5.2.2. .[ E E [ [ [ |  .X.X.X.X.X.X.X.X. . .{  .{ [ [  . .....X.X.X.&.&.;.;.&.&.;.;.;.l.&.l.x.G.L.(.'.(.&.5.0.0.W.S.l.>XkXkXkXkXkXcXnXlXlXlXlXlXlXlXnXnXlXlXlXlXlXlXlXlXlXlXlXlXlXlXlXlXlXnXnXmXlXnXnXlXnXnXlXlXlXnXlXnXnXnXnXlXlXnXlXlXjX2XjX0X0X1X0X0X0X0X0X0X0X0X0X0X0X0X0XjXjXjXjX0XjXjXjX0X0XjX0X0XkXxXpXpXwXOXY.Y.Y.!.^.hXIXUXUXUXZ.u.u.u.~ e e e e e r r r r r r r r r r r r ",
"m m m m m m m m m m m m m m m m m m e e ^ u.u.u.Z.9X9X9X0XzXvXNXNXGXGXAXNXcXlX0X).!.!.!.!.!.^.^.).).).).).OXOX+X+X+X+X+XoX)./.T.U.j.=.O.~ P K P ` ` ` @.@.$.=.f.g.g.g.g.j.f.s.f.j.I.U.U.T.T..X$XzXCXJXPXPXPXPXJXJXFXAXcXMXAXGXLXKXLXKXKXKXKXKXKXKXKXKXKXKXKXHXHXHXKXLXKXKXHXHXHXHXHXHXKXLXHXLXKXoXW.*XK.q.6.q.K.[.rXrXrXqXrX>X9X>X&X&X&X&X(.oXoX%X(.E.(.L.J.H.H.z.H.H.H.H.H.H.H.J.J.K.J.H.J.J.J.J.z.z.z.9.7.&.| X.X.4.4.X.X. .{ [ [ [ [ | | [ [  .[ [  . . .X. . . . . . . . . .X.X...X.&.&.&.;.&.&.&.>.>.>.>.>.g.x.F.L.(.'.~.;.7.0.0.S.L.Y.AXAXAXAXAXAXAXAXAXAXAXAXAXAXAXAXAXAXAXAXAXAXAXAXAXAXAXAXAXAXAXAXAXAXAXAXAXAXAXAXAXAXAXAXAXAXAXAXAXAXAXAXAXAXAXAXAXAXMXmXnX0X=X%X{.{.{.'.'.{.=X=X3X4X4X4X4X4X4X4X4X4X4X4X4X4X4X4XwXxXVXVXVXpX0X/.E.!.^.~.uXPXUXUXUX|.u.u.u.^ e e e e e r r r r r r r r r r r r ",
"m m m m m m m m m m m m m m m m n n m e e.u.u.u.|.0X9X9X0XzXbXNXGXGXGXAXNXMXlXjX)./.^.!.!.!.^.^.).).).).OX+X+X+X+X+X+X+X+X$X+XoXT.I.f.=.O.( ~ ` O.@.=.:.f.j.j.m.I.I.I.m.m.m.h.j.j.m.I.U.T.T.T..XjXNXSXJXPXPXJXJXFXGXmXMXGXIXPXUXUXUXUXUXUXUXUXUXUXUXUXUXUXUXUXUXUXUXUXUXUXUXUXUXUXUXUXUXUXUXUXUX#XJ.*XK.q.6.6.q.W.0XrXqXqX>XqX9X&X>X&X%X%X^.oXoX%X(.E.(.R.L.J.z.z.H.H.H.H.H.H.J.H.J.H.J.c.H.J.J.J.z.z.9.7.5.&.| [ | | X.| ..X.[ [ E E | | [ [ [ [ [  . . . . . . . .}  .} }  .X...X.X...&.&.&.;.>.;.&.&.>.>.9.<.<.x.F.R.E.).~.0.7.8.z.z.(.2XUXUXUXUXUXUXUXUXUXUXUXUXUXUXUXUXUXUXUXUXUXUXUXUXUXUXUXUXUXUXUXUXUXUXUXUXUXUXUXUXUXUXUXUXUXUXUXUXUXUXUXUXUXUXUXUXUXUXPXPXGXMX$X(.~.~.^.^.~.(.'.=X:X4X4X4X6X6X4X4X4X4X6X4X6X4X4X4XwXVXVXVXVXVXtXXX/./.^.(.5XLXPXUXUX<XV.u.u.w.q e e e e r r r r r r r r r r r r ",
"m m m m m m m m m m m m m m m m n m m m r.u.u.u.|.0X0X9X0XcXbXCXGXGXGXGXNXMXcXjX+X/.^.^.^.^.^.^.).`.`.OXOX+X+X+X+X+X+X+X$X3X3X;X+XT.m.f.=.=.=.=.f.f.j.j.m.m.I.U.T.T.T.T.T.T.N.N.N.I.U.T.T.T..X.X.X2X2XmXmXmXmXmXmXlXlXGXIXUXUXUXUXUXUXUXUXUXUXUXUXUXUXUXUXUXUXUXUXUXUXUXUXUXUXUXUXUXUXUXUXUXUXUX$XL.*X].v.8.K.K.K.kXrX9XqX&X:X&X&X>X&X&X(.^.OXoX>X(.E.E.E.R.J.J.c.J.H.H.H.H.J.J.H.H.H.c.c.c.J.J.H.z.z.z.;.&.[ [ [ Y [ ..&.&.&.| [ Y Y _ _ [ [  .[ [  .{ { { {  . . .}  .} X.X.X.X.X.X...%.%.&.;.;.;.;.;.;.>.>.<.>.F.A.G.^.(.F.z.l.z.S.J.1XUXPXUXUXUXUXUXUXUXUXUXUXUXUXUXUXUXUXUXUXUXUXUXUXUXUXUXUXUXUXUXUXUXUXUXUXUXUXUXUXUXUXUXUXUXUXUXUXUXUXUXUXUXUXUXUXUXUXUXUXPXPXFXjX).E.R.R.R.^.^.OX;X3XqXrXtXrXqXqXwXqXwXwXrXqXwXqXwXpXVXCXBXDXVXxXoX).^./.^.'.hXIXUXUXhXV.u.u.r.e e e e e r r r r r r r r r r r r ",
"m m m m m m m m m m m m m m m m m m m e t.u.u.u.1X0X0X0X0XzXbXGXGXGXGXGXAXMXmX0X+X^./././.^.^.).`.`.oXOX+X+X+X+X;X3X+X$X0X0X0X9X$X+XT.g.j.j.f.j.j.m.I.I.U.U.T.T..XXXXX#X#X.X.XT.U.T.T.T..X.XXXXXXX#X#X#X#X#X#X#X2X2XmXHXPXUXUXUXUXUXUXUXUXUXUXUXUXUXUXUXUXUXUXUXUXUXUXUXUXUXUXUXUXUXUXUXUXUXUXUXMX(.W.*X].[.*X].K.tX>X>XrX>X>X>X>X*X>X%X(.%X&X%X&XE.(.E.E.E.J.J.H.H.H.H.c.H.J.K.J.H.H.c.z.z.c.H.S.z.9.7.;.| [ E [ Y Y | ..&.;.X.[ E Y Y Y Y [ [ [ [ [ [ [ [ [ { {  .}  . .X.X.X.X.X.X.&.&.&.;.;.;.>.;.;.%.>.<.l.<.l.G.R.E.4Xz.l.S.S.L.R.FXUXUXUXUXUXUXUXUXUXUXUXUXUXUXUXUXUXUXUXUXUXUXUXUXUXUXUXUXUXUXUXUXUXUXUXUXUXUXUXUXUXUXUXUXUXUXUXUXUXUXUXUXUXUXUXUXUXUXUXUXUXUXJXmX/.Y.Y.Y.Y.!.oXjXmXAXAXmXAXAXAXmXmXmXmXmXmXmXmXmXmXmXAXGXFXSXBXvX$X).).).^.(.3XzXHXKXZXV.u.u.t.e e e e r e r r r r r r r r r r r ",
"m m m m m m m m m m m m m m m m m m e V u.u.u.V.0X9X0XrX0XzXNXGXGXGXGXGXAXMXcXjX+X).^.^.^.^.).).`.'.OX+XOXOX+X+X;X3X$X;X0X0X0X0X0X$XXXD.m.m.m.m.I.I.U.U.T..X#X#X#X#X$X$X$X$X#X#XXXXXXXXXXX#X#X+X#X#X$X#X#X#X$X1X2X2XlXHXPXUXUXUXUXUXUXUXUXUXUXUXUXUXUXUXUXUXUXUXUXUXUXUXUXUXUXUXUXUXUXUXUXUXUXUXIX>XW.W.[.*X[.].K.>XrX>X>X>X9X&X>X>X&X&X(.&X%X&X&X(.%XE.E.W.L.J.J.J.c.H.c.H.K.K.J.H.c.z.z.z.z.z.z.z.7.7.&. .[ Y E Y | | | &.7.&.[ E Y x Y Y E [ E Y Y [ [ [ |  . . . . . . . .X.X.X.X.&.&.;.;.>.>.>.9.;.;.;.9.l.>.l.G.Y.^.%X9.7.z.J.R./.PXUXUXUXUXUXUXUXUXUXUXUXUXUXUXUXUXUXUXUXUXUXUXUXUXUXUXUXUXUXUXUXUXUXUXUXUXUXUXUXUXUXUXUXUXUXUXUXUXUXUXUXUXUXUXUXUXUXUXUXUXUXPXJXMX/.Y.Y.Y.Y.+XlXLXPXUXUXUXUXUXUXUXUXUXUXUXUXUXPXPXPXPXUXIXIXFXSXvX+X).).).^.(.0XAXLXIXLXC.u.u.u.M e e e r r r r r r r r r r r r r ",
"m m m m m m m m m m m m m m m m m e e C u.u.u.C.0X0X0X0X0XvXNXAXGXGXGXGXAXNXcXjX+X).).).).^.).`.'.OXOXOX+X+X+X;X;X9X9X0X0XtXtX0X0X2X#XU.I.I.I.I.U.T.T..X.X#X$X2X2X2X2X2X2X2X2X2X$X$X#X$X#X#X$X$X$X$X$X$X$X$X$X1X2X2X2XAXLXPXUXUXUXUXUXUXUXUXUXUXUXUXUXUXUXUXUXUXUXUXUXUXUXUXUXUXUXUXUXUXUXUXUXUXUXcX*XJ.R.{.[.W.W.:X>X>X>X:XqX&X&X&X&XoXoX&X%X%X&X%XoXE.(.E.W.J.J.H.z.c.z.J.J.J.H.c.c.z.0.z.0.0.8.7.7.7.5.X.[ E x Y Y [ [ X.;.&.[ E [ [ [ [ E E [ E Y Y [ _ | [  .| | | |  .}  .X.X.X.&.&.&.;.7.9.>.l.>.;.;.9.l.<.x.F.E.^.%X>.9.z.G.XXLXUXUXUXUXUXUXUXUXUXUXUXUXUXUXUXUXUXUXUXUXUXUXUXUXUXUXUXUXUXUXUXUXUXUXUXUXUXUXUXUXUXUXUXUXUXUXUXUXUXUXUXUXUXUXUXUXUXUXUXUXUXUXPXJXnX+X/.!./.`.zXPXUXUXUXUXUXUXUXUXUXUXUXUXUXUXUXUXUXUXUXUXUXUXPXFXbX+X`.).).~.=XFXPXUXUXUXZ.u.u.u.C e e r e e r r r r r r r r r r r ",
"m m m m m m m m m m m m m m m m m e e ^ u.u.V.Z.0X0X0X0XtXcXNXGXGXGXGXGXAXMXmXjX$X`.`.).).).`.'.OXOXOX+X+X+X+X+X3X9X9X0X0XkXzXtX0XjX#XT.U.U.U.U.T..X.X#X$X2X2X2X2X2X2X2X2XnX2X2X2X2X1X1X$X$X$X1X2X1X1X2X1X1X1X1X2X2X2X2XAXIXUXUXUXUXUXUXUXUXUXUXUXUXUXUXUXUXUXUXUXUXUXUXUXUXUXUXUXUXUXUXUXUXUXUXUXPX$X[.W.%X*X[.W.[.>XrX>X;X>X%X:X&X(.%X&X&X%X%X&X&X(.(.(.(.W.L.K.H.0.0.z.c.J.H.H.H.c.z.z.0.0.z.8.0.z.z.7.5.X. .c c E { c [ X.X. . .{  .X.X.X. . .{ [ Y Y _ Y _ [ | | | | [ {  .X.X.X.&.;.&.;.7.l.l.l.7.&.;.;.l.l.F.F.A.E.+Xh..X@XMXUXUXUXUXUXUXUXUXUXUXUXUXUXUXUXUXUXUXUXUXUXUXUXUXUXUXUXUXUXUXUXUXUXUXUXUXUXUXUXUXUXUXUXUXUXUXUXUXUXUXUXUXUXUXUXUXUXUXUXUXUXUXPXPXLXFXjX0XOX).'.3XHXUXUXUXUXUXUXUXUXUXUXUXUXUXUXUXUXUXUXUXUXUXUXUXPXHXbX$X'.).).(.iXIXUXUXUXUXZ.V.u.u.^ q e e e e r r r r r r r r r r r ",
"m m m m m m m m m m m m m m m e n e e w.u.u.u.Z.tX0XrXrXkXvXNXNXGXGXGXGXAXMXmXjX$XoXoXOX'.'.`.'.+X+X+X;X+X;X;X3X3X9X9X0X0XzXzXzX0X0X$XT.T.T.T.T.T..X.X$X2X2X2XmXmXmXmXmXmXmXmX2X2X2X2X2X2X2X2X1X2X2X2X2X2X1X2X2X2X2X2X2X2XmXmXZXZXZXZXZXZXAXAXAXAXAXAXAXKXPXUXUXUXUXUXUXUXUXUXUXUXUXUXUXUXUXUXUXUXUXHX#XrX*X%X[.W.%XrX>X;X>X>X%X>XoX%XoX(.&X&X&X>X%X%XoX%X(.R.J.J.c.0.0.c.z.c.c.z.z.z.0.0.0.z.c.c.z.z.9.9.z.z.8.5.2.2.2.2.2.X. . .[ [ [ | |  . .X.X.X. .[ [ _ _ [ |  .| | | [ {  .X.X.&.&.;.;.7.l.l.l.9.&.%.>.9.<.x.F.!.(.0XIXIXUXUXUXUXUXUXUXUXUXUXUXUXUXUXUXUXUXUXUXUXUXUXUXUXUXUXUXUXUXUXUXUXUXUXUXUXUXUXUXUXUXUXUXUXUXUXUXPXKXHXKXHXHXKXAXHXHXHXHXHXKXHXHXHXAXHXCXCXVXxX9X+X;XwXFXPXUXUXUXUXUXUXUXUXUXUXUXUXUXUXUXUXUXUXUXUXUXUXUXLXvX$X).'.).(.pXIXPXUXUXUX|.u.u.u.^ q e e e e r r r r r r r r r r r ",
"m m m m m m m m m m m m m m m m n e e e.u.u.u.|.wXtXrXyXkXbXNXGXGXGXGXGXGXMXMXjX$XOXOX'.'.'.OXOX+X=X=X;X;X+X;X9X3X9X9X0XkXzXzXzXjX0X$XT.T.T.T.T..X.X#X2X2XmXmXmXmXmXmXmXmXmXmXmX2X2X2X2X2X2X2X2X2X2X2X2X2X2X2X2X2X2X2X2X2X2X2X2XlXlXlXlXlXmXmXMXMXMXMXMXLXPXUXUXUXUXUXUXUXUXUXUXUXUXUXUXUXUXUXUXUXUXUXZX$XqX:X%X{.&XrX0X>X>X&X>X&X%X%X(.(.&X&X(.>X>X%XoX%X(.W.J.J.z.c.c.z.z.z.z.z.z.z.z.c.c.J.c.z.l.9.9.9.7.7.7.7.0.8.5.2. .[ [ [ [ [ [ [ | | | | X.X.X.X. .| [ [ | [ | | [ [ [ [  .X.&.&.>.7.7.l.l.l.9.%.;.;.l.>.F.F.R.%XyXUXUXUXUXUXUXUXUXUXUXUXUXUXUXUXUXUXUXUXUXUXUXUXUXUXUXUXUXUXUXUXUXUXUXUXUXUXUXUXUXUXUXUXUXUXUXUXUXUXPXGXjX#XXX+X+X+X1X0X2X2X2X2X2XlX2XmXMXNXSXBXBXtX;X4XuXJXPXUXUXUXUXUXUXUXUXUXUXUXUXUXUXUXUXUXUXUXUXUXUXUXHXcX+XOX'.).(.uXLXPXUXUXUX<XV.u.u.e.q e e e e r r r r r r r r r r r ",
"m m m m m m m m m m m m m m m m e e e r.V.V.V.<XrXtXtXtXzXvXCXGXGXGXGXGXGXNXMXjX3X+X+XOXOXOXOXOXOX;X;X;X;X;X3X9X3X0X0X0XkXzXzXzXjXjX$XXXT.T.T.T..X.X#X2XmXmXAXAXAXAXAXAXAXmXMXmXmXlX2X2X2X2X2X2XjXjX2X2X2XjX2X2X2X2XjX2X2X2X2XjXjXnXnXjXnXcXMXbXbXbXMXAXJXPXUXUXUXUXUXUXUXUXUXUXUXUXUXUXUXUXUXUXUXUXUXUXAX>XqX*X:X&XxX0X0XrX9X&X&X%XoXoX%X%X&XoX>X:X&X%X&X(.W.L.J.c.z.c.z.z.z.H.c.c.J.J.K.H.z.l.z.x.l.9.7.7.;.;.&.&.&.X.[ _ Y _ _ _ _ | [ | | | | | | [ X.X.X.X.| | [ [ [ [ _ [ [ { X.X.&.;.7.9.l.l.A.l.%.%.;.9.<.A.R.^.oXVXUXUXUXUXUXUXUXUXUXUXUXUXUXUXUXUXUXUXUXUXUXUXUXUXUXUXUXUXUXUXUXUXUXUXUXUXUXUXUXUXUXUXUXUXUXUXUXUXUXUXJXlXXXY.^.^.+XjXAXHXKXIXKXKXKXIXIXLXIXLXFXVXxX0XqX9XbXIXUXUXUXUXUXUXUXUXUXUXUXUXUXUXUXUXUXUXUXUXUXUXPXFXvX+XoXOX).).3XSXPXUXUXUXhXV.u.u.r.w e e e e e r r r r r r r r r r ",
"m m m m m m m m m m m m m m m m e e e t.V.V.V.1X0XtXtXiXiXbXNXGXGXGXHXGXAXNXMXlX3X=XOXOXOXOX+X+X=X;X:X:X3X3X9X9X9X9X0X0XzXxXxXcXlXjX1XXXT.T.T.T..X#X$X2XmXmXAXAXAXAXAXAXAXAXmXMXmXlXlXjXjXnXjXjXjXjXjXjXjXjXjXjXjXjXjXjXjXjXjXjXnXnXnXnXnXmXcXMXMXbXMXNXLXPXUXUXUXUXUXUXUXUXUXUXUXUXUXUXUXUXUXUXUXUXUXUXUXjX:X[.[.~.yX>X>X>X>X&X(.&XoXoXoXoX%X%X>X&X%X&X&X(.R.L.H.H.H.H.J.z.z.L.L.J.W.W.J.9.l.z.x.x.l.l.7.7.>.&.&...%.&._ Y Y Y Y _ [ | | | | | | | | [ [ [ X.&.X. .| _ Y Y Y Y [ } X.&.&.;.9.9.l.l.A.l.;.%.>.l.l.G.L.^.:XSXUXUXUXUXUXUXUXUXUXUXUXUXUXUXUXUXUXUXUXUXUXUXUXUXUXUXUXUXUXUXUXUXUXUXUXUXUXUXUXUXUXUXUXUXUXUXUXUXPXPXJXMX.XY.R.^.lXHXPXUXUXUXUXUXUXUXUXUXUXPXPXSXvX0X9XqXZXPXUXUXUXUXUXUXUXUXUXUXUXUXUXUXUXUXUXUXUXUXUXUXPXFXvX+XOXoX).).(.6XZXIXIXUXZXV.u.u.t.w e e e e e r r r r r r r r r r ",
"m m m m m m m m m m m m m m m m e e m t.u.V.V.0XtXtXyXiXzXbXGXGXGXGXHXGXGXNXMXlX3X;X=X+X+XOX+X;X;X:X3X:X3X3X9X9X9X0X0X0XzXvXvXvXlXjX1XXX.X.X.X.XXX#X2XnXmXMXAXAXAXAXAXAXAXAXmXmXmXnXlXnXjXjXjXjXjXjXjXjXjXjXjXjXjXjXjXjXjXjXlXlXcXcXmXmXMXMXMXMXcXcXMXMXHXLXPXUXUXUXUXUXUXUXUXUXUXUXUXUXUXUXUXUXUXUXUXUXUXPX$XoXE.W.&XrX>X>X:X(.(.(.%X(.(.oX%X&X:X:X&X&X&X(.W.W.H.H.H.J.J.J.L.J.W.W.W.z.8.z.x.x.F.F.x.l.l.7.>.&.%...%..._ Y Y Y [ _ _ _ _ | | | ..' | | [ [ [  .X.X.&. ._ x x z Y [  .X.&.;.9.9.l.l.x.l.&.&.;.l.A.S.R.^.%XSXUXUXUXUXUXUXUXUXUXUXUXUXUXUXUXUXUXUXUXUXUXUXUXUXUXUXUXUXUXUXUXUXUXUXUXUXUXUXUXUXUXUXUXUXUXUXUXUXPXUXJXMXXXY.!.OXGXJXUXUXUXUXUXUXUXUXUXUXUXUXUXHXcX0X9XiXLXUXUXUXUXUXUXUXUXUXUXUXUXUXUXUXUXUXUXUXUXUXUXUXPXFXvX$XOX).).^.(.1XZXKXIXLXKXV.u.u.t.e e e e e e r r r r r r r r r r ",
"m m m m m m m m m m m m m m m m m e V u.u.u.V.tXtXtXyXiXzXbXCXGXGXHXHXGXGXAXMXlX0X;X=X=X=X=X+X;X:X:X3X3X9X9X9X9X0X0X0X0XzXvXvXvXcXjX1XXXXXXXXXXX#X$X2XlXmXMXMXAXAXAXAXAXAXMXmXmXmXnXnXnXlXlXlXlXjXjXjXjX2X1X2X2XjXjXjXnXjXlXcXcXcXcXcXcXMXMXMXMXcXcXcXMXMXHXLXIXUXUXUXUXUXUXUXUXUXUXUXUXUXUXUXUXUXUXUXUXUXUXUXSXbXjX>XjXrX>X>XOX&X(.oX(.(.&X%X&X:X&X&X&X%X(.W.L.H.z.z.J.J.L.W.W.(.K.0.7.l.x.x.D.D.F.l.l.>.>.&...' ' ..| Y Y Y Y Y Y x x Y Y Y U U U U Y Y Y Y Y c  .X. .[ x z l x Y  .X.&.;.9.l.l.l.F.9.;.&.>.l.A.F.R.^.OXJXUXUXUXUXUXUXUXUXUXUXUXUXUXUXUXUXUXUXUXUXUXUXUXUXUXUXUXUXUXUXUXUXUXUXUXUXUXUXUXUXUXUXUXUXUXUXUXUXPXPXFXvX$X/.).3XFXPXUXUXUXUXUXUXUXUXUXUXUXUXUXLXMX0XqXiXLXPXPXUXUXUXUXUXUXUXUXUXUXUXUXUXUXUXUXUXUXUXUXUXUXHXcX$XOX'.).^.3XZXPXUXUXUXUXC.u.u.u.M e e e e e r r r r r r r r r r ",
"m m m m m m m m m m m m m m m m m e C u.u.u.C.tXtXyXyXpXxXbXFXFXGXHXHXGXGXNXMXlX0X;X;X;X:X:X=X;X4X4X3X3X9X3X9X0X0X0X0X0XvXbXbXvXcXjX1X+X+X+X+X+X$X1X2XjXlXMXMXMXAXAXAXAXMXMXmXmXlXnXjXjXjXlXnXlXlXjXjXjX$X$X$X$X1X0XjXjXnXlXcXMXcXmXmXMXMXcXMXMXcXMXMXbXMXMXAXAXAXAXAXHXKXHXHXHXIXUXUXUXUXUXUXUXUXUXUXUXUXUXUXUXUXUXUXjXrX>X&X&XOX&XoX(.(.(.&X&X&X&X&X&X&X(.W.J.z.z.z.J.R.R.W.W.c.5.5.7.l.l.l.l.l.l.>.>.&.&...Y Y Y | _ Y Y z Y Y z z z j 8 8 8 8 a 8 a a g l z k x x [ Y x 8 8 l x |  .&.&.9.9.9.z.S.<.;.>.>.l.l.L.G.(.OXPXUXUXUXUXUXUXUXUXUXUXUXUXUXUXUXUXUXUXUXUXUXUXUXUXUXUXUXUXUXUXUXUXUXUXUXUXUXIXKXKXKXKXKXKXKXKXKXKXHXFXVXVXyX).'.3XFXLXUXUXUXUXUXUXUXUXUXUXUXPXPXLXcX0X4XuXLXPXPXUXUXUXUXUXUXUXUXUXUXUXUXUXUXUXUXUXUXUXUXUXUXHXcX+X).).).(.uXIXUXPXUXUXUXC.u.u.u.C q e e r e r r r r r r r r r r ",
"m m m m m m m m m m m m m m m m e e ^ u.u.u.C.tXtXiXpXiXxXbXGXGXGXGXHXHXGXAXMXlX0X3X:X:X:X:X:X3X4X3X4X4X9X9X9X0X0XrXtXtXxXbXbXbXcXlX1X+X$X$X+X3X3X0X0XjXnXmXmXmXMXAXMXmXmXmXmXlXjXjXjXjXjXjXlXlXlXjXjX1X$XXXXX#X$X1XjXjXnXcXMXMXMXMXmXmXMXMXMXMXMXMXbXMXMXMXMXAXGXHXHXHXHXHXHXHXLXPXUXUXUXUXUXUXUXUXUXUXUXUXUXUXUXUXUXcXrX>X&X&X&X(.(.(.(.%X%X&X&X&X&X%X&X(.W.J.z.z.z.J.J.J.J.H.2.&.&.>.;.&.*.......%.&..._ Y Y Y Y Y Y z Y l l z l l 8 2 2 8 6 6 2 6 2 2 2 8 8 j j 8 8 8 6 8 8 l Y [  .&.&.9.9.l.l.S.9.&.&.>.l.S.G.R.&X>XPXUXUXUXUXUXUXUXUXUXUXUXUXUXUXUXUXUXUXUXUXUXUXUXUXUXUXUXUXUXUXUXUXUXUXUXUXUXJXNX0X0X0X0X0X0X0XzXbXxXVXBXgXpXOXOX;XbXLXPXUXPXUXUXUXUXUXUXUXUXUXPXFXcX0X:X3XSXPXPXUXUXUXUXUXUXUXUXUXUXUXUXUXUXUXUXUXUXUXUXUXUXHXcX+X).).^.~.pXLXPXUXUXUXUXZ.u.u.u.~ q e e r e r r r r r r r r r r ",
"m m m m m m m m m m m m m m e e e e ^ u.u.u.Z.tXiXiXxXxXxXbXNXGXGXHXHXHXGXAXMXcX0X4X4X:X:X3X4X3X4X9X4X4X9X9X0X0X0XtXtXzXvXbXbXbXcXlX0X$X;X3X3X9X0X0X0XjXjXlXcXcXMXMXMXMXmXnXjXjX0XjX0XkXkXkXjXzXzXjX0X$X#XT.T..XXX$X0XjXlXcXmXMXmXmXmXmXmXmXMXMXMXMXMXNXNXMXNXAXGXHXLXLXLXHXLXLXLXPXUXUXUXUXUXUXUXUXUXUXUXUXUXUXUXUXUXjXrX>X>X&X&X(.(.(.(.oX&X&X>X%X&X&X%X(.W.J.0.z.z.z.z.0.8.5.[ | ....| R R Y Y R | ' Y Y z l l z | E Y Y l j 8 8 8 2 2 2 < < * 2 < < < < < < 2 2 < * & & & < 8 x [ | ..&.7.9.9.l.S.>.%.>.>.l.F.G.R.OX>XUXUXUXUXUXUXUXUXUXUXUXUXUXUXUXUXUXUXUXUXUXUXUXUXUXUXUXUXUXUXUXUXUXUXUXUXUXUXFXMX;X:X=X%X=XOX=X0XbXxXgXgXgXpX+X=X=X3XzXGXKXLXIXIXIXIXIXIXIXPXLXFXVXzX;X;X=X9XbXKXIXIXIXLXLXIXIXIXIXIXIXIXIXIXIXUXUXUXUXUXUXPXGXkXoX).).^.^.uXLXUXPXUXUXUXZ.u.u.u.^ e e e r r r r r r r r r r r r ",
"m m m m m m m m m m m m m m n e e e ^ u.u.u.Z.iXiXzXxXiXxXbXGXGXGXHXHXHXGXAXMXcX0X4X:X3X4X4X4X9X9X9X9X9X0X0X0X0XwXrXyXzXbXVXbXNXcXlX0X9X3X9X0X0XtXtX0XtXzXzXzXvXvXvXvXvXzXzX0X0X0X0X0XtX0XzXzXzXzXkX0X$X.XN.N.U./.+X0X0XlXcXmXMXMXmXAXmXmXmXmXMXMXMXMXNXMXNXNXGXHXHXLXLXLXLXLXLXLXIXUXUXUXUXUXUXUXUXUXUXUXUXUXUXUXUXUXbXrXrX>XoX&X(.oX^.E.(.(.&X&X%X%X%XoX(.W.z.z.9.;.;.7.X.[ [ | E Y Y Y U z l l l R Y R Y z z z Y E E x Y x l 8 8 l l Y Y Y Y x z z z l 8 < & & @ # . . # : < 8 Y [ | ..&.>.9.9.l.l.<.%.>.>.l.F.G.E.'.0XUXUXUXUXUXUXUXUXUXUXUXUXUXUXUXUXUXUXUXUXUXUXUXUXUXUXUXUXUXUXUXUXUXUXUXUXPXPXFX2XoX).).^.^.^.^.+XiXxXpXeXpXtXOX%X=X3X;X0X0XjXjX2XlXlX2XlXNXNXCXVXVXkX+X&XOXOXOX1X2XjX2X2XlXjXlXlXlXlXlXlXlXlXZXLXPXPXUXUXPXPXNXkXXX(./.^.^.3XFXPXPXUXUXUX|.u.u.u.^ q e e e e r r r r r r r r r r ",
"m m m m m m m m m m m m m m m m e e w.u.u.u.|.tXiXiXiXxXxXbXGXGXGXHXHXGXGXAXMXcX0X3X4X4X4X9X4X9X3X9XwX9X0XwXwX0X0XtXyXzXvXVXVXbXbXcXjX0X0X0XwX0XtXiXtXiXzXzXzXzXxXxXxXxXzXzX0X0X0X0XtXtX0XiXzXzXzXkX0X$X.Xj.m.U./.$X0XkXcXMXMXMXMXAXmXmXAXmXMXMXMXMXNXNXNXMXAXHXFXLXJXLXLXLXLXLXLXLXPXUXUXUXUXUXUXUXUXUXIXIXHXAXAXAXAXAX0X>X>X&X%XoX(.E.(.%X(.%X&X&X&XoX%X(.R.z.7.&...[ _ l 8 z Y Y Y z z l U | &.4.z.z.8.4.4.2. .W W E Y  .4.4.4.6.6.3.6.5.5.5.8.4. . ....._ l & # @ 6 < & < 7 l z Y [ | ..;.>.9.l.l.<.%.;.>.9.l.G.R.'.VXUXUXUXUXUXUXUXUXUXUXUXUXUXUXUXUXUXUXUXUXUXUXUXUXUXUXUXUXUXUXUXUXUXUXUXPXLXAX2XT.Y.Y.Y.G.G.G.G.Y.+XrXyXyXqX9X+X%X%X;X3X3X9X9X9X9X0X9X0X0XbXVXVXVXVX0X+XOX).).).oXOX+X>X9X9X9X9X0X0X0X0X0X0X0XwXVXJXUXUXPXPXAXxXtXXX/./.!.R.~.uXKXIXUXUXUX<Xu.u.u.w.q e e e e e r r r r r r r r r ",
"m m m m m m m m m m m m m m m e e e w.u.u.u.|.tXzXyXxXxXxXbXGXGXHXHXHXHXGXAXMXcX0X9X4X4X4X4X9X4X9X9X9XwX0X0X0X0XtXtXiXzXbXVXCXbXbXcXkX0X0XwX0XtXtXtXiXzXzXzXzXxXxXbXxXxXxXkX0X0XtXtXtXiXiXzXzXzXzXkX0X$XXXm.I.T./.+X0XjXcXmXMXMXAXAXAXAXAXmXAXMXMXNXAXNXNXNXAXGXHXHXLXLXLXLXLXLXLXLXIXPXUXUXUXUXUXUXUXPXLXHXMXcXnXjXjXcXrXrXrX>X>X%X(.(.^.(.%X%XoXOX%X%X(.(.R.z.5.[ z a 5 % @ < z a 2 z ..7.z.c.v.c.J.v.v.K.v.v.q.q.q.6.q.v.q.q.q.q.6.6.3.3.3.4.X. .[ | | | | Y 8 2 8 x l 8 < a z z Y [ | ..%.>.>.9.l.>.%.>.9.l.A.G.R.E.bXmXmXmXmXmXmXmXmXmXmXmXmXmXmXAXAXAXHXGXAXAXAXMXMXMXmXmXlX2X2X2X2X2X1X#X#X.XU.D.l.g.g.g.g.g.g.g.D.Y./.+X+X;X;X+X%X%X;X;X;X9X9X9X9X9X9X9XrXxXxXxXpXyX9XoX'.).).oXoXoX;X;X>X9X9X9XqXqXqXqXqXqXqXqXwXiXzXcXMXMXVXxX0X/.^.^.E.Y.R.).+X0XjXlXlX|.u.u.u.w.q e e e e e r r r r r r r r r ",
"m m m m m m m m m m m m m m m e e e e.u.u.u.|.iXiXiXxXxXxXCXGXGXGXHXHXHXGXAXMXcX0X9X9X4X4X4X4X9X9X9XwX9XwXwXwXtXyXyXiXzXvXVXVXNXbXvXzXtXwXwXwXtXiXiXiXxXzXzXxXxXxXVXbXxXxXiX0XtXtXtX0XiXzXzXzXvXzXzX0X1XXXm.I.T./.+X0XjXlXMXMXAXMXAXAXAXAXMXMXMXAXNXNXNXNXMXAXGXHXHXLXLXLXLXLXLXLXLXIXPXUXUXUXUXUXPXPXPXLXGXMXvXvXzXxXkXtXrX>X>X&X&XoX(.(.(.%X%XoXoXoXoX(.(.L.9.&.Y 8 6 < % @ @ @ < | 7.z.z.c.c.c.c.z.c.v.c.v.v.q.q.q.q.q.q.q.q.q.q.q.6.6.6.4.4.4.4.&......._ Y l z x Y z 8 a 8 l z x Y [ ..&.;.;.;.;.%.*.;.9.l.A.G.R.(.xXkXkXkXkXzXkXzXkXkXyXtXjXcXvXCXFXFXFXSXSXVXVXxXxXxXpXtX0X3X+X`.^.Y.A.g.g.f.:.:.:.:.:.:.=.:.:.:.g.D.Y.!./.OX+XOX+X+X;X;X9X9XqXqXqX9XqX9XtXyXyXyXrX9X;X).)./.).).oX+X+X>X>X0X9XqXqXqXtXwXwXwXwXwXtXwXpXxXxXVXxXyX0X/.!.E.R.Y.Y./.OX;X9XwXyX|.u.u.u.e.w q e e e e r r r r r r r r r ",
"m m m m m m m m m m m m m m m e e e e.u.u.u.<XiXzXzXxXxXbXNXGXGXHXHXHXGXHXAXMXcX0X9XqX9X4X3X4X9X9X9X9XwX9XwXwXtXtXyXiXzXbXCXCXCXbXvXzXtXwXwXyXtXyXiXiXzXzXxXxXxXbXxXbXxXxXzXiXtXtXtX0X0XzXzXvXvXzXzX0X1XXXm.I.T.XX$X0XlXcXMXMXNXAXAXAXAXAXAXAXNXAXNXAXNXNXMXAXGXHXLXLXLXLXLXLXLXLXLXIXPXUXUXUXUXIXLXLXLXGXAXcXvXvXvXxXxXvX0XrX>X>XoX).oX(.(.(.(.oXoX(.oX(.(.L.z.&.Y l a a _ | [ Y Y 9.z.S.J.W.W.W.J.c.J.K.K.v.K.K.v.v.q.K.v.q.K.q.q.q.6.6.8.8.5.5.5.;.&.%.| Y Y | | | Y x j 8 8 l z z Y | ..&.%.&.&.;.&.%.>.9.l.x.G.R.(.xXxXyXyXyXyXkXtXyXkXtXtXtXkXvXCXCXSXFXSXSXVXVXxXyXyXrX9X3X;XOX^.Y.D.:.$.$.@.@.@.@.+.O.O.O.O.O.@.=.g.D.Y.E.).OXoXOX+X;X;X9XqXqXrXqXrXrXqXrXqXrXrX9X;X+X).^./././.oXoX$X>X0X0X9XwXwXtXtXtXtXtXwXyXtXwXyXxXxXxXpXtX$X!.R.R.R.Y.Y.^.`.;X9XyXyX|.u.u.u.e.w q e e e e r r r r r r r r r ",
"m m m m m m m m m m m m m m n e e e r.u.u.u.1XiXpXiXpXxXxXNXGXGXHXHXHXHXGXAXNXcX0X0X9X9X9X4XqX9X9X9XqXwXwX9XwXtXtXyXzXzXbXVXCXNXMXcXzXiXwXwXwXyXiXiXxXzXzXxXxXxXxXbXbXxXxXzXzXtXtXiXiXiXzXzXzXvXvXzX0X1X#XN.I.T.XX$X0XlXvXcXMXNXAXAXAXAXAXAXAXAXAXAXNXNXNXNXAXAXHXHXLXLXLXLXLXLXHXLXIXIXUXUXUXUXIXLXAXAXAXMXvXvXvXvXvXvXzXkX>X>X>X(.&XoX(.W.(.(.%X%X(.%X(.W.L.7.&.Y z U ' &.7.z.7.&.7.l.z.F.R.E.E.E.W.W.].K.K.v.v.v.v.v.v.q.q.v.q.q.6.3.4.4.5.5.;.&.%.%...| ....&...| [ Y l 8 z z z Y Y | ..%.&.&.;.&.%.%.&.<.l.A.F.R.'.yXxXxXyXxXxXtXkXkXrXrXrX0XjXvXCXCXSXSXSXVXVXVXxXtXrX9X9X3X:X=X(.^.G.j.:.:.:.:.f.,.f.f.f.f.g.g.g.g.D.G.Y.E.(.).).oX+X:X;X9XqXwXtXqXqXqXwXwXqXqX9X:X+X).(.^.^./.^.oXoX>X0X>X0XrXtXyXyXtXtXtXyXyXtXtXyXyXxXxXyXtX9XOXR.R.R.Y.Y.Y.!.).;X9XwXyX1Xu.u.u.r.q q e e r r r r r r r r r f f ",
"m m m m m m m m m m m m m m n e e e r.u.u.u.1XiXiXpXpXxXxXNXGXGXGXHXHXGXGXAXMXcXtX0X9XqXqX9XqXqXqXwXwXwXwXwXwXtXtXyXzXvXbXbXCXNXbXcXzXtXyXyXiXyXpXiXxXxXzXzXxXxXbXVXVXvXxXvXiXiXiXiXiXzXzXzXvXvXvXzXkX1X#XI.U.T.XX$X0XlXvXbXMXNXAXAXAXAXAXAXGXNXAXNXNXNXNXNXAXGXHXLXLXLXLXLXLXHXLXLXIXIXUXUXUXUXIXKXAXAXAXMXcXvXvXvXvXvXzX0X>X>X>X>X%X^.(.E.(.(.(.(.(.(.(.E.J.l.&.| Y Y ..7.z.z.J.z.z.x.x.F.R.R.E.E.J.J.K.v.c.c.q.q.q.q.q.q.6.8.6.6.3.4.4.4.4.5.&.&.&...%.&.&.;.&.X.| | Y z l z z x x Y _ %.%.%.%.&.&...%.&.>.l.l.F.R.tXyXxXxXyXkXkXkXrXrXrXrX0X0XjXcXCXCXSXSXCXVXVXxXxXrX9X9X9X9X9X:X=X).^.Y.D.G.G.G.G.Y.G.G.Y.G.G.G.Y.Y.Y.R.!.^./.).).`.OX;X4X9XqXtXtXwXwXwXqXqXqX9X:X:XoX/./.^.^././.oX+X>X0X0XrXrXtXyXtXyXtXyXtXyXyXyXtXyXyXyXyXqX9X).R.Y.Y.Y.G.Y.!.oX;X9XyXtX1Xu.u.u.r.q q e e r r r r r r r r f f f ",
"m m m m m m m m m m m m m m n e e e t.u.V.V.1XiXpXpXpXxXxXbXGXGXHXHXHXHXGXAXNXcXtX0X9XwX9X9X9XqXwXwXwXwXwXwXtXtXiXyXiXvXbXVXVXCXMXcXzXtXyXyXyXyXyXpXpXxXzXxXxXxXbXVXVXbXxXvXzXtXtXiXiXiXzXzXvXxXxXzXkX0X#XI.U.T.oX0XjXzXvXbXNXAXNXAXAXGXGXAXGXGXAXAXAXGXNXNXAXHXHXLXLXLXLXLXLXHXLXLXIXIXUXUXUXUXIXLXLXHXAXMXMXvXvXvXvXvXzXrX>X>X:X>X%X(.(.E.E.E.(.(.(.(.E.E.F.l.7.&.| _ &.7.z.J.J.W.E.E.R.G.G.R.R.Y.J.J.J.c.c.c.q.q.6.6.8.5.5.5.5.3.4.4.4.X.&.&.;.;.;.;.5.5.7.;.&.X.X.| _ x z x z Y Y Y _ %.%.%.&.&.%.%.&.%.<.>.l.F.E.xXxXxXyXyXkXkXrXkXrXrX0X>X>XjXMXNXCXCXSXVXVXxXxXyXrX9X9X9X9XqXqX:X=X+X).^.^.^.^.^.^.)./././././.).).).).).^.(.)./.).OX;X3X9XqXtXtXtXqXrXrX9XqX9X:X%X)./.^.!.!./.oXoX+X0X9XrXrXtXtXyXtXtXtXtXyXtXyXtXyXyXyXtXrX9X;X/.Y.Y.Y.Y.F.Y.!.).;X9XyXyX3Xu.u.u.t.w q e e r r r r r r r f f f f ",
"m m m m m m m m m m m m m m e e e e t.u.u.V.uXyXpXpXxXxXxXNXGXGXHXHXHXHXGXAXNXMXtXwX9X9X9X9XqXqXqXwXwXwXwXtXtXtXtXiXzXzXVXCXCXbXbXcXvXtXiXyXyXpXpXxXpXzXzXxXzXbXbXVXVXVXxXvXiXiXtXiXzXzXiXzXvXxXxXvXkX0X$XU.U.T.+X0X0XcXvXMXNXAXNXAXAXGXGXGXNXNXAXNXGXAXAXNXAXHXHXLXLXLXLXLXLXLXLXLXLXIXUXUXUXUXUXIXIXLXHXAXMXMXvXvXvXvXvXkX>X>X>X>XoX(.(.(.(.(.oX(.(.(.E.E.J.z.7.7.&.| >.l.z.J.J.W.[.(.(.R.L.J.Y.J.R.J.J.J.c.c.0.8.8.4.X.4.&.4.4.2.2.X.X.X.X.;.;.5.&.5.&.&.X.X...X.| | _ _ x Y x Y _ _ | &.&.%.%.%.%.%...%.>.>.l.F.).xXxXyXkXkXrXjXrXrXrXrX>X>X$XjXcXNXCXFXCXVXVXVXxXyX9X0X9XqX9XqXqX9X4X:X:X;X;X;X=X;X;X;X;X=XOX&X;X;X;X%X%XOX).(./.^.).OX;X9X9XqXtXwXwXtXrXrXqXqX:X:X+X)./.^.E.E./.oX+X>X0X9XrXrXtXyXyXyXtXtXyXyXtXtXtXtXtXtXtX9X9X+X!.Y.Y.Y.G.F.U.!.oX;X9XyXpX0Xu.u.u.t.w q e e e e r r r r r f f f f ",
"m m m m m m m m m m m m m m e e e e t.u.u.V.0XpXiXxXxXxXvXNXGXGXHXHXHXHXGXAXMXcXtXwXqXwX9XqX9XqXwXqXwXwXwXtXtXyXtXiXzXvXbXCXCXCXbXcXvXyXyXyXiXpXiXpXiXxXxXzXvXxXbXVXVXbXxXzXzXtXiXiXzXzXiXzXzXvXbXzXkX0X$XU.T..X+X0XjXzXcXMXNXAXNXAXNXGXGXGXNXGXNXAXAXGXNXNXAXGXHXLXLXLXLXLXLXLXLXLXIXIXUXUXUXUXUXUXUXIXLXHXMXMXvXvXvXvXvXvX;X;X&X&X%XoX(.(.(.(.%X(.%X(.E.E.J.z.l.9.>.;.;.z.z.J.L.W.W.W.(.[.(.R.J.J.F.F.J.z.z.z.8.6.4.4.&. .X.X.X.X.X. . . .X.X.X. . . . . .| | X.| [ [ _ _ Y Y Y x _ _ ' %.;.&.&.*.%...%.;.>.9.l.F.;XyXxXtXrXrXjXjXjXjXrX>X>X$X$XjXnXCXCXCXFXCXVXVXxXtXrX9X9XqXqXqXwXwXqXqX9X9XqXqX9X9XqX9X:X9X9X9X9X:X9X4X;X+XOX).^.E./.`.+X3X9XtXyXtXtXrXqXrXqX9X>X=XOX).!.E.E.R./.oX;X>XqXrXtXyXyXyXyXyXtXtXyXtXtXeXeXeXeXtXwXqX;XoXY.G.G.G.G.F.G.!.oX;X9XtXyX0XV.u.u.t.w e e e e e e r r r f f f f f ",
"m m m m m m m m m m m m m m e e e e t.u.u.V.uXpXpXpXxXxXvXNXGXGXHXHXHXHXGXAXMXvX0X0XwXqXqX9X9XwXwXwXwXwXtXyXyXtXyXzXxXxXVXVXVXCXNXbXzXtXiXiXiXiXpXxXpXxXxXxXxXbXbXVXVXbXxXxXzXiXiXzXzXiXzXzXxXvXxXzXkX0X$XU.T..X+X0X0XcXcXbXNXNXNXAXGXGXGXGXAXGXGXGXGXGXAXNXAXGXHXLXLXLXLXLXLXLXLXLXIXUXUXUXUXUXUXUXUXPXIXHXAXMXvXvXvXvXvXvX>X>X+XOXoX(.(.(.E.(.(.(.(.(.(.R.R.F.l.9.l.>.7.z.S.J.W.W.W.W.W.W.W.W.W.J.J.S.z.z.7.5.4.4.4.X.X. . . .{ { { [ { { { [ [ [ [ [ | | [ | | | [ [ [ _ _ _ Y Y Y _ ' ;.;.;.%.%.%...&.;.;.<.l.F.xXxXtXrXrX>X,X,X>X,X>X>X$X#X$XjXcXCXCXFXFXCXVXVXxXyXrX9XqXqXtXwXtXwXtXqXwXqXwXtXtXtXwXtXqXrXqXrX9XqXqX9X:X;XOX)./.R./.).+X3X9XwXtXtXwXwXtXqX9X9X>X;X)./.R.R.Y.Y./.oX+X9XqXtXtXyXtXyXyXyXyXyXtXeX7XeXeXeXeXwXwX4X;X).Y.G.G.G.G.D.G.!.oX3X9XtXyX0XV.u.u.t.w q e e e r r r r r r r r f f ",
"m m m m m m m m m m m m n n e e e w u.u.u.V.iXiXiXpXxXxXxXNXGXGXGXHXHXHXGXAXNXcX0XwXwXwXqX9XqXwXwXwXwXwXwXyXyXyXpXiXxXxXbXVXCXCXMXcXzXzXyXyXyXyXpXpXxXxXxXxXxXxXbXVXbXbXbXxXzXiXiXiXzXzXzXvXvXbXvXvXkX0X$XT.T..X+X0XkXzXcXbXNXNXAXNXAXAXGXGXGXGXNXAXGXAXAXNXAXHXHXLXLXLXLXLXLXLXLXLXIXPXUXUXUXUXUXUXUXUXIXKXAXMXvXvXvXvXvXvXtX>X+X/.(.(.(.W.W.E.(.(.(.(.(.R.R.J.z.x.l.9.z.z.z.J.J.L.L.W.J.J.J.H.c.c.z.z.0.8.4.&.X. . . .{ { E Y E x k x x x x x x x Y E E [ [ [ [ | | | [ [ _ Y Y Y _ ' ' %.;.%.&.%.%...&.;.-.>.g.%XxXxXxXrX>X>X$X>X>X>X>X>X$X#X$XjXcXCXCXFXFXCXVXVXVXxXrX0X9XwXqXwXtXtXyXyXyXwXwXtXtXyXtXtXrX9XrXrXrXtXrXrX9X;XOX).R.R.^.).OX;X9XwXtXtXwXtXqX9X9X9X;X%X).!.R.Y.Y.Y.!.).+X9XwXyXyXyXyXyXyXyXyXyXtXeXeX8XaXaX7X7XqX4X&X/.Y.F.G.F.F.D.D.!.).;X9XwXwX9XV.u.u.u.w q e e e r r r r r r r f f f ",
"m m m m m m m m m m m m n n m e e w u.u.u.V.iXiXiXxXxXxXbXNXGXGXHXHXHXHXGXAXMXcX0XtXwXqXwXwXqXqXwXwXwXwXwXwXyXiXtXxXxXxXVXCXCXGXMXNXzXtXiXyXpXyXpXpXxXxXpXxXbXxXbXVXVXVXbXxXzXxXiXtXiXzXzXzXvXbXbXvXzX0X$XT.T..X+X0XkXvXvXbXNXNXAXGXGXGXGXGXAXGXGXGXGXGXAXAXAXHXHXLXLXLXLXLXLXLXLXIXIXIXUXUXUXUXUXUXUXUXIXLXAXMXvXvXvXvXvXCXvX>X>XOXoX(.E.W.W.W.E.(.(.(.(.(.R.L.F.z.z.z.z.z.J.J.J.J.J.J.J.c.c.z.0.8.8.5.X.X. .E l j k l l l j j 8 8 j l j l z l z x z x Y Y Y [ _ | | | | _ [ [ Y Y _ ..%.;.&.&.%.%.%.%.%.-.-.>.g.xXyXtXkXrX>X>X>X>X>X>X>X>X#X@X#XjXcXCXCXFXSXSXVXVXVXyXrXqXqXwXwXtXtXtXyXwXyXyXyXyXyXrXyXtXtXrXrX>X0XrXrXqX9X;XOX/.Y.Y.!.).+X3X9XtXtXtXqXqXqXqX9X;X;X;X).E.Y.G.G.G.!.).+X9XwXyXtXyXtXtXyXyXxXeXeXeX7XaXaXaX7X7X:X-X%XE.G.D.D.D.D.A.D.!.oX;X9X9XqX9XV.u.u.u.w q e e e r r r r r r f f f f ",
"m m m m m m m m m m m m n n m e e w u.u.u.V.iXiXpXxXxXxXVXbXGXGXGXHXHXHXHXAXMXcXkXwXwXqXqXwXqXwXwXwXwXyXyXyXtXtXiXxXxXxXVXVXCXNXMXcXvXiXiXyXpXpXpXpXxXxXxXxXxXbXbXVXVXVXxXxXzXzXiXxXzXzXzXvXvXbXxXvXkX0X$XT.T.XX$X0XkXvXbXNXNXAXNXGXGXGXAXGXGXGXGXGXGXGXAXAXAXGXHXLXLXLXLXLXLXLXIXIXIXPXUXUXUXUXUXUXUXUXPXLXAXMXvXvXvXvXvXvXCX>XoXoX).(.(.E.W.E.(.(.(.(.(.E.R.J.J.F.z.z.S.S.F.J.J.J.J.S.c.z.z.0.8.7.4.&.| E Y z j l j l j j 8 j j j j j l j l l z x x x x Y _ Y [ | | [ [ _ Y Y Y Y _ | ..%.;.;.%.%.%.&.;.;.>.<.%XxXyXyXkXkX0X,X>X>X>X>X>X$X#X#X#XjXnXNXCXCXSXSXVXVXxXyXrXqXqXwXwXtXtXwXyXyXyXyXtXyXyXyXyXtXtXtXrX0X0XrX9X9X9X;XOX/.Y.Y.!.).OX3X9XtXtXtXtXqXqXqXqX9X:X+X).R.G.G.F.G.Y.).+X9XqXyXyXtXyXyXyXyXyXyXeXdX7XaXaXaXaX7X6X%X'.E.G.D.D.D.D.A.D.T.).=X3X9XwX0XV.u.u.u.q q e e e r r r r r r f f f f ",
"m m m m m m m m m m m m n n m e e w u.u.u.V.pXpXpXxXxXxXxXCXGXGXGXHXHXHXHXAXMXcX0X0XwXwXwXwXwXwXwXwXwXwXwXwXyXtXiXiXxXxXbXCXCXCXNXbXvXzXpXpXpXiXpXpXxXxXxXxXxXxXbXVXVXVXbXvXzXzXiXiXzXzXzXvXvXbXbXvXzXjX$XT.T.XX+X0XjXcXcXNXAXAXGXGXGXGXGXGXGXGXGXGXGXAXAXAXAXHXHXLXLXLXLXLXLXLXLXIXIXIXUXUXUXUXUXUXUXUXIXLXAXcXvXvXvXvXvXvXvXkXOXoX(.E.(.E.E.E.R.(.(.(.(.E.R.R.F.F.F.z.z.J.J.J.F.J.S.z.z.z.z.8.8.4.X. .| Y x l l z l l l j j l l l z z l z z z x x Y Y Y Y [ [ [ [ [ | [ _ _ _ _ Y | | %.&.;.;.&.%.%.;.%.&.>.l.xXyXyXtXtXtXkXjX,X,X,X>X>X$X#X#X$XjXnXNXCXCXSXSXVXVXxXyXrX9XwXtXwXwXtXtXyXyXyXyXpXyXyXyXtXyXtXrXrXrXrXrXrXqX9X;XOX!.Y.G.R./.OX;X9XtXyXtXtXtXqXrXqXqX:XOX/.Y.D.D.D.D.Y.).+X9XwXyXyXtXyXyXyXyXyXyXeXsXaX5X8X5XaX7X-X%X).Y.D.D.D.D.D.A.D.T./.`.3XuX0X0XV.u.u.u.q q q e e r r r r r f f f f f ",
"m m m m m m m m m m m m n n e e e w u.u.u.V.pXiXxXxXxXxXbXCXGXGXHXHXHXHXGXAXNXcXtXtXwXwX9XwXqXwXwXwXwXwXyXyXyXiXyXzXxXvXVXCXFXCXNXNXvXiXyXpXyXyXpXpXxXzXxXxXxXxXbXVXVXVXbXxXzXzXzXzXiXzXiXzXvXbXbXvXzXjX$XT..XXX+X0XjXcXbXNXAXGXGXGXGXAXGXAXGXGXGXGXGXGXAXAXAXHXLXLXLXLXLXLXLXLXLXIXIXPXUXUXUXUXUXUXUXUXIXKXAXcXvXvXvXvXvXvXvXvX;XOX).oXE.(.(.W.E.E.(.(.[.(.W.R.J.J.F.z.z.F.z.F.J.S.z.z.z.z.z.8.5.4. . .[ [ x x x x x x x z z x x x x x x x x x x x Y Y Y [ [ [ [ [ [ [ [ _ _ _ _ Y | ....&.&.;.%.%...%.&.-.;.^.yXtXrXrXtXtXkXkXjX,X,X>X>X>X$X$X$XjXnXvXCXFXSXSXVXVXxXtXrX0XqXwXwXtXwXyXyXyXyXyXyXyXyXyXtXyXtXrXrXrXrXrXrXqX9X;XoXR.Y.G.Y./.OX3XqXwXtXtXyXtXtXtXqXqX:XOX/.G.D.D.l.D.Y.).+X9XwXwXtXyXtXyXxXyXyXtXeXaXaXaX8X5X7X:X-X%X(.Y.D.D.A.A.A.A.D.Y.!.`.3X0XwXwXV.u.u.u.q q q e e r r r f f f f f f f ",
"m m m m m m m m m m m m n n e e e w u.u.u.V.iXpXxXxXxXxXbXNXGXGXHXHXHXHXGXAXMXcXtXtXwXwX9XwXwXwXwXwXwXyXyXyXyXyXiXzXxXxXbXCXFXCXNXNXvXtXpXpXpXpXpXiXxXxXxXbXxXbXbXVXVXxXvXxXzXzXzXzXzXzXzXzXvXbXvXvXzXjX1XT..X#X$X0XjXcXvXNXAXGXAXGXGXGXGXGXGXGXGXGXGXGXGXAXAXHXHXLXLXLXLXIXLXLXLXIXIXIXUXUXUXUXUXUXUXUXIXHXmXcXvXvXcXzXzXvXvXvXkXoXoX(.^.E.R.E.E.E.(.(.[.(.W.R.J.J.J.F.S.z.z.z.z.S.z.z.z.z.8.8.5.4.X. .| [ [ [ E E E x x x x x c c x x x x x x x x Y E E [ [ Y [ [ [ [ [ _ Y Y Y _ ' %...>.&.%.%.%.%.%.%.;.g.VXwXwX0X0X0XkXtXkXkXrXrXrX>X>X0X>X>XjXcXvXCXCXSXSXVXVXxXtXwXwXqXwXwXtXtXtXyXyXyXtXtXwXwXtXwXtXtXtXrXrXtX9XrXqX9X:X).R.F.D.Y./.OX:X9XtXtXtXtXtXtXtXtX9X4X+X/.D.x.g.g.D.Y.).;X9XwXyXyXyXyXyXyXyXyXwX7X7X7XaX5XaX:X:X-X&X(.Y.D.l.l.l.g.g.A.I.Q.+X3XuXwXwXV.u.u.u.w q q e e r r f f f f f f f f ",
"m m m m m m m m m m m m m m e e e w u.u.u.V.iXpXxXxXxXxXvXNXGXGXHXHXHXHXHXAXAXcXzXwXwXwXwXwXwXwXwXyXwXyXyXyXiXyXpXiXxXvXCXCXCXGXNXNXvXiXpXiXpXpXpXpXxXxXxXbXxXxXbXVXVXVXbXxXzXzXiXiXiXzXzXzXvXbXxXvXkXjX1XT.T.XX$X0XkXvXMXNXAXAXGXGXGXGXGXGXGXGXGXGXGXGXAXAXAXGXHXLXLXLXIXIXLXIXLXLXLXIXUXUXUXUXUXUXUXPXLXAXmXcXcXcXkXkXzXcXcXcXcXOXoX(.E.E.R.R.L.R.(.(.(.(.W.R.L.L.F.z.z.z.z.z.z.z.z.z.z.z.7.7.7.4.X.X. . .[ E E E c E E x c c c c x x x x x x x x x x Y Y E [ [ [ _ [ _ _ Y Y Y Y ' ..%.%.;.&.%.%.%.%.&.-.{.eXwX0X0X0XtXyXyXxXkXkXkXkXrXrXrXrXrXkXcXNXFXSXSXSXVXVXxXtXrXqXtXwXwXwXyXyXyXyXyXtXtXtXtXtXrXyXyXtXrX0X0XrXrXqX9X;X).Y.D.D.Y./.OX:XqXtXtXtXtXyXtXtXwXwX4X;X/.G.l.g.g.A.Y./.;X9XwXyXyXyXyXyXwXqXqXqX6X:X5X:X*X*X:X:X:X%X^.Y.D.g.g.g.g.g.g.D.Q.`.3XuXiXwXV.u.u.u.q q q e e r r f f f f f f f f ",
"m m m m m m m m m m m m m m e e e w t.u.u.V.uXpXxXxXxXxXbXCXGXGXHXHXHXHXGXAXNXcXtXtXwXwXwXwXwXwXwXyXyXwXyXiXyXpXpXxXxXvXbXCXCXGXbXcXvXiXpXpXiXpXpXpXxXbXxXxXxXxXbXVXVXbXbXxXxXzXiXiXiXiXzXzXvXbXxXxXkXjX1XT..XXX$X0XkXzXbXNXNXGXGXGXAXGXGXGXGXGXGXGXGXGXGXAXAXHXLXLXLXIXLXLXIXIXLXLXIXIXPXUXUXUXUXUXIXLXHXAXmXcXkXkXcXcXkXcXcXzXvXkXoX^.E.E.R.R.E.E.(.(.%X(.E.E.J.J.z.z.z.z.z.z.z.z.z.z.z.z.7.5.5.4.X.X. .[ { E E E [ [ E c c c c x x x x x x x x x x x Y E E [ _ Y Y Y Y Y Y _ _ Y ' ..%.%.%.%.%.%.%.-.>.S.-XqX3X9X9X0X0XtXiXxXxXyXyXkXtXtXrXrXjXkXvXCXVXSXSXCXVXVXxXtX9XqXwXwXwXwXwXyXyXyXyXyXyXtXtXtXrXtXtXyXyXtXtXtXtXwX4X;X).Y.D.A.U.!.OX;X9XtXyXyXtXtXtXtXrXqX9X+X/.D.g.g.g.l.Y.).;X9XtXyXyXyXtXwXqX6X4X=X-X}.{.{.}.*X:X:X:X%X^.G.x.g.g.g.>.,.g.D.Q.`.3XuXeX7Xu.u.u.t.q q q e e r r f f f f f f f f ",
"m m m m m m m m m m m m m m e e e w t.u.u.V.uXpXxXxXxXxXbXbXGXGXHXHXHXHXGXAXNXMXiXtXqXwXwXwXwXwXwXtXwXpXyXyXyXpXpXiXxXvXCXSXSXCXNXcXvXxXiXiXpXpXpXxXpXpXxXxXxXbXVXVXVXVXxXxXxXiXiXiXiXiXzXvXvXbXbXvXzXjX$XT.T.#X$X0XkXvXbXMXNXGXGXGXGXGXGXGXGXGXGXGXGXGXGXAXAXHXLXLXLXPXIXIXLXLXLXLXIXIXIXIXIXUXUXIXLXLXHXAXmXcXcXkXzXzXcXcXzXzXzXvX;X(.E.E.E.E.R.E.E.(.(.(.E.E.J.F.S.z.z.z.z.z.l.z.z.z.9.7.7.5.4.&.X. .| [ [ E E c [ [ c c c x x x x k x x x x x x x x x x Y _ Y _ | _ _ Y _ _ _ _ %...' ..%.%.%.%.%.%.>.R.-X3X1X1X3X0X0XyXpXpXxXxXyXtXyXtXtXqXrXkXvXCXVXBXSXSXVXVXyXtX0X9X9XwXwXwXwXyXpXyXyXtXwXtXtXtXtXyXyXyXyXyXyXtXtXqXqX;X).Y.D.l.G.!.oX;X9XtXtXtXyXtXyXtXtXwX9X+X^.D.g.g.<.g.Y.).;X9XtXtXtXtXqX4X:X%X'.(.~.~.~.[.[.[.*X*X-X%X^.G.g.<.>.>.:.:.,.m.Q.`.3XuX8X7Xu.u.u.t.q q q e e r r f f f f f f f f ",
"m m m m m m m m m m m m m m e e e w t.u.u.V.uXxXxXxXxXbXbXNXGXGXGXHXHXHXGXAXNXMXtXwXwXqXwXwXwXwXwXyXyXyXyXiXyXyXpXxXxXvXbXCXCXCXNXbXvXiXpXpXiXyXpXxXpXxXxXbXxXxXVXVXVXVXbXxXzXiXiXiXuXiXiXiXbXbXxXbXzXjX1XT..X#X$X0XkXvXcXNXGXAXGXGXGXGXGXGXGXGXGXGXGXGXGXAXAXHXLXLXIXIXIXIXIXLXLXLXLXIXIXIXIXIXUXPXLXKXHXAXmXcXkXkXzXcXcXkXzXzXzXcXzXoXE.R.R.E.Y.E.E.(.(.^.(.R.L.z.z.z.z.z.z.z.z.z.z.l.7.7.7.4.5.&.X. .[ E E c E E c c c x x x x z z l l l l z z x x x x Y Y Y _ [ _ _ _ _ U Y _ ' ..%.%.%.>.%.&.%.%.%.A.S.:X`._.+X1X9XwXyXpXpXxXxXyXtXtXrXtX9X0X0XkXvXVXCXSXVXVXVXxXtX9X9X9XwXqXwXyXyXwXwXyXtXtXyXtXwXtXyXyXyXyXyXyXrXtXwX9X;X^.G.x.g.G.!.oX:XqXwXyXyXtXyXyXyXtXtX9X+X!.D.g.<.:.g.Y./.+X9XwXwXwXqX4X=X).^.R.G.F.F.G.L.W.[.{.*X-X{.^.F.g.:.:.-.-.%.,.m.Q.+X3XuX7X7XV.u.u.t.q q q e e r r f f f f f f f f ",
"m m m m m m m m m m m m n n m e e e t.u.u.u.uXpXxXxXxXxXbXNXGXGXGXHXHXGXGXAXMXMXiXtXwXwXwXwXwXwXyXyXyXyXpXyXiXiXpXxXxXvXCXCXCXGXNXNXvXiXiXpXpXpXpXpXxXxXxXxXxXxXVXVXVXVXbXbXzXiXuXuXuXuXuXuXzXxXvXvXzXjX1X.XT.XX$X0XkXvXbXNXNXGXGXGXGXGXGXGXGXGXGXGXGXGXGXAXAXHXLXLXIXIXIXIXIXIXIXLXIXIXIXPXIXIXIXIXLXLXHXAXmXcXzXcXcXcXcXvXvXxXzXcXzX>XR.R.R.R.R.E.E.(.^.(.E.R.R.F.z.z.z.z.z.z.z.z.z.z.9.7.5.7.5.&. . .[ E x Y E E E E x x x z l l j l l l l l z x x Y z z z Y [ [ [ _ _ _ U ' ' ' %.%.%.%.%.-.%.%.%.9.l.L.=X_.Q.+X1X9X0XiXxXyXxXtXtXrXrXrX9X;X+X$X0XkXxXVXVXVXVXVXxXrX0X9X9X9X9XwXqXwXyXyXyXyXtXtXtXtXyXyXyXyXpXyXyXyXtXtX9X:X/.G.g.g.D.!.oX;XqXtXyXyXyXyXyXyXtXwX4X+X!.D.g.:.:.g.Y.).;X9XwXwXqX4X=X^.R.D.g.>.%.-.9.S.L.~.[.{.%X(.E.D.g.-.%.@.@.@.,.D.Q.+X3XuXwX3Xu.u.u.t.w q e e r r r f f f f f f f f ",
"m m m m m m m m m m m m n m m e e w r.u.u.u.1XpXxXxXxXxXbXCXGXGXGXHXHXHXGXAXNXMXiXyXyXtXwXwXwXwXyXyXyXyXyXyXiXiXiXxXxXvXCXCXCXCXNXNXvXzXiXyXpXpXpXxXxXxXxXxXxXbXbXVXVXVXbXxXiXuXuX0X0X0X9X0XiXxXxXzXkXjX1X.X.XXX$X0XkXvXbXNXAXGXGXGXGXGXGXGXHXHXGXGXGXGXGXAXAXHXLXLXIXPXIXIXLXLXLXIXIXIXIXIXIXIXIXIXIXKXHXAXmXcXzXzXcXcXvXvXvXvXvXcXzXvXoXY.R.R.R.E.R.E.E.(.(.E.J.F.z.z.z.z.S.S.S.z.z.z.z.7.7.5.&. .|  .Y x Y x Y x x z z z l j l l l x l z z z x x x x Y Y [ [ [ [ | _ ' ' ' _ ' ] %.%.;.%.%.%.%.%.<.<.l.G.=X_.Q.+X1X9XtXiXxXyXyXrXrXrX9X>X;X)././.#X$X0XkXxXxXxXpXpXtX0X9X3X3X9X9XuXwXwXyXyXyXyXyXtXyXyXyXyXyXyXyXyXyXyXwX4X;X^.D.g.g.D.!.oX;XqXwXtXtXtXyXtXyXtXwX:XOXE.x.f.:.:.g.Y.).;X9XwXwX9X:X).R.l.-.` U U U ' >.S.L.(.{.{.(.E.D.g.=.@.@.@.@.g.D.Y.1X3XuXuX1Xu.u.u.r.w q e e r r r f f f f f f f f ",
"m m m m m m m m m m m m n n e e e w r.u.u.u.1XxXxXxXxXxXbXCXNXGXHXHXHXGXGXAXNXMXiXwXwXwXwXwXwXwXwXwXyXyXyXiXiXiXpXxXxXvXCXSXCXCXNXNXvXzXxXpXpXpXpXxXxXxXxXbXxXvXbXVXVXbXbXxXiXuX0X0X0X1X1X3XuXiXtXtX0X0X$X.X.XXX$X0XkXzXMXNXAXGXGXGXGXGXGXGXGXGXGXGXGXGXGXAXAXHXLXPXIXPXIXIXIXIXIXIXIXIXIXIXIXIXIXIXIXLXHXAXmXcXzXcXcXcXvXvXvXvXvXcXkXzXvXR.Y.R.R.R.R.R.(.(.^.E.R.G.F.F.z.z.z.F.z.z.z.z.z.5.5.5.&. .| Y z Y Y [ Y [ [ [ [ [ [ [ [ [ [ [ [ [ [ [ [ | | [ [ [ [ [ [ _ ' ' ' ) z Y ' U U %.>.;.-.%.&.%.&.9.l.F.'._._.1X3X0XtXyXyXyXyXtXrX9X>X;X).!.G.I.I.T.+X0X0XwXyXtXwXwXqX9X9X3X3X0X9XwXwXwXwXiXwXyXyXyXyXyXyXtXpXyXwXyXwXqX4X%X/.D.g.,.D.!.oX3X9XwXtXyXyXyXyXtXtXqX:XOXR.x.:.:.-.g.Y.).;X9XqXqX4X=X^.D.:.' U U U U Y | 9.J.W.(.[.(.R.D.f.%.@.@.+.@.g.Y.Q.`.0XuXuX|.u.u.u.r.w q e r r r r f f f f f f f f ",
"m m m m m m m m m m m n n n m e e w e.u.u.u.<XxXxXxXbXxXbXNXGXGXHXHXHXHXGXAXMXcXzXtXtXwXwXwXwXwXyXyXpXyXpXpXiXiXpXxXxXvXCXSXFXNXNXMXvXzXpXpXxXpXpXpXpXxXxXxXbXbXbXVXVXVXxXxXiXuXuX0X1X1X1X1X1X0XtX0X0X1X$XT.T.XX$X0XzXvXMXNXAXGXGXGXGXGXGXGXHXGXGXGXGXGXGXAXHXHXLXLXIXPXPXPXIXIXIXIXIXLXLXIXIXIXIXIXLXLXHXAXmXcXzXvXcXcXcXcXvXvXcXzXzXzXxXtXE.Y.R.R.R.E.E.^.^.E.^.G.F.x.x.z.F.F.S.S.z.z.z.z.l.&.&.&.&.| 7.&.;.5.5.5.5.4.X. . .[ { { { [ { [  . .[ | | |  .| | [ | _ _ Y z z U U U ' ' &.%.%.%.%.%.;.&.7.l.L.;X1X1X3X9XtXyXyXxXyXyXtXrX9X;XoXR.D.g.O.K ~ f.T.).+X:X4X9X9XwX9X3X3X3X9X9XqXwXwXwXwXyXyXyXyXyXyXyXyXyXwXwXwXqX4X4XOX^.D.f.:.D.!.oX;XqXtXyXtXyXtXyXyXyXwX4XOXR.g.:.%.%.,.U./.;X9XwXwXqX;X).F.<.%.' ' _ Y _ _ ;.F.R.~.(.(.E.D.f.@.@.+.+.@.g.Y./.`.3XwXiX|.u.u.u.e.w q e e r r r f f f f f f f f ",
"m m m m m m m m m m m m m m e e e w e.u.u.u.|.xXxXxXxXbXbXNXGXGXHXHXHXHXGXAXMXcXzXyXtXwXwXwXwXwXyXyXyXyXyXyXyXpXiXpXxXvXVXSXFXGXNXNXvXiXpXpXpXpXpXpXpXxXxXxXbXbXVXVXVXbXvXzXiX0X3X3X1X`._._.1X1X1X3X1X+X#XT./.XX$X0XlXvXMXNXAXGXGXGXGXGXGXGXGXGXGXGXGXGXGXAXGXHXLXLXLXPXIXIXIXIXIXIXIXIXIXIXIXIXIXIXIXHXHXAXmXcXzXvXcXcXcXvXvXvXzXzXzXzXxXrX>XY.L.L.R.R.E.E.R.E.^.G.F.x.F.z.G.F.J.F.z.z.F.z.l.z.z.9.z.9.0.7.8.5.5.5.5.4.&.X. .[ |  . .[ { | [  . . .| | | | | _ | _ Y Y Y ' U ' ' ' ) ' %.%.%.%.&.&.&.>.l.F.4X9X9X0XwXtXyXxXxXxXyXtXrX9X;X).Y.g.` p u y a O.D.!.).+X;X9X9X9X9X9X9X9XuX9XwXwXwXyXwXyXyXpXpXpXyXyXwXwX9X3X3X3X3X`.!.D.:.:.D.R.oX;XqXtXyXtXyXyXyXyXyXqX:XOXY.g.@.@.] :.U./.OX9XwXwXqX:X'.E.F.l.&.&.&.X.| _ ..S.L.E.^.^.R.A.f.@.+.+.+.+.g.Y./.OX3X9XwX|.u.u.u.e.q q e e e r r f f f f f f f f ",
"m m m m m m m m m m m m m m e e e w w.u.u.u.|.xXxXxXbXbXbXCXGXGXGXHXHXHXGXAXNXMXzXtXwXwXwXwXwXyXyXyXpXyXyXyXpXpXiXxXxXvXCXCXGXCXNXNXvXzXpXpXxXpXxXxXxXxXxXxXxXbXVXVXVXbXxXzXiX9X3X3X`._._._.|.1X1X1X1X#XXXT.T.XX$X0XzXvXNXNXAXGXGXGXGXGXGXGXGXGXGXHXGXGXGXAXGXHXHXLXPXPXIXIXIXIXIXLXLXLXLXLXIXLXIXIXLXLXGXAXmXnXzXcXcXvXcXvXvXvXzXzXzXzXvXrX9X%XG.R.R.R.G.E.E.^.^.E.R.G.F.F.F.S.J.F.F.F.J.J.S.z.z.z.z.z.z.8.8.5.7.5.5.4.4. . . .|  . .[ [ [  . .| | | ..| | | _ _ _ _ _ U Y U U U U ) %.%.%.%.%.%.%.&.7.l.G.4XwXqXyXyXiXxXxXxXxXyXyXtX9X;X/.D.:.K u u a g g ` g.Y.).OX3X9X9X9X9X9XwXwXwXwXwXwXwXyXyXyXyXyXyXyXwXqX9X3X3X3X3X`.).R.D.:.:.D.R.oX;X9XtXyXyXyXyXyXyXtXqX4X'.Y.g.@.` ` :.D./.+X9XwXwXwXqX:X{.W.K.z.8.8.5.5.....l.F.R.R.R.Y.x.:.@.] ] ] O.f.Y./.=X4X4XqX|.u.u.u.w.q q e e e r r f f f f f f f f ",
"m m m m m m m m m m m m m m e e e w w.u.u.u.|.xXbXbXxXxXbXNXGXGXGXHXHXHXGXAXNXvXiXyXwXyXwXyXyXyXyXwXyXpXpXyXpXiXpXxXxXvXNXFXCXNXNXNXvXxXpXpXpXxXpXxXxXxXxXxXxXbXVXVXVXVXxXxXiX9X3X+X_._.Q.Q.Q._._._._.Q.Q.T.T.XX$X0XzXMXNXNXGXGXGXGXGXGXHXGXGXGXGXGXGXGXGXAXAXHXHXHXLXLXLXIXLXLXLXHXLXLXLXLXLXLXLXLXLXHXAXAXmXcXcXzXvXcXcXzXzXxXzXkXzXzXvXkX9X&XoXD.R.F.R.E.E.E.E.R.E.G.R.L.F.L.F.F.F.J.J.z.J.F.J.z.z.S.H.z.z.7.7.5.5.5.5.X.X.&. . . . .[ | |  .| ..| ..| | Y Y ' _ ' _ U U z U U ' ] -.%.%.%...| ..&.;.z.S.6XyXyXpXyXpXyXxXyXxXyXyXtXqX;X/.D.$.G u y U _ _ ' @.D./.+X9X9XwXqXqXqXqXwXwXwXwXtXqXwXwXyXyXyXpXwXwXuX3X=X1X1X+X`.`.R.g.:.$.A.Y.oX3XqXtXyXtXtXyXtXyXtXqX:XOXY.,.` ) T $.D./.+X9XtXyXwXeX:X-X[.].K.H.v.q.q.8.7.S.J.R.R.R.F.g.=.+.` ` ` +.,.G./.=X4XqXqX|.u.u.u.w.q q e e e r r f f f f f f f f ",
"m m m m m m m m m m m m n m e e e w ^ u.u.u.Z.pXxXxXbXxXbXNXCXGXHXHXHXHXGXAXNXMXiXtXyXtXwXwXyXyXwXyXyXyXyXyXpXpXiXxXxXvXbXCXGXCXNXNXvXxXpXpXxXpXxXxXxXxXxXxXxXbXbXVXVXbXxXzX0X9X1X`._.Q.Q.Q.Q.Q.Q.Q.Q.Q.Q.T.T.XX$X0XzXbXbXNXAXGXGXGXGXGXGXGXGXGXGXGXGXGXGXAXAXAXHXHXHXLXLXHXLXHXHXHXHXHXLXHXHXHXHXHXHXHXAXMXMXcXkXzXzXcXzXzXvXvXzXkXkXcXvXxX9X:X>XE.R.F.F.R.R.R.G.E.G.G.R.L.L.x.l.l.x.J.J.F.J.J.J.F.z.z.S.z.z.9.7.0.5.5.4. . . .|  .| | | | | | | | | [ | _ _ _ ' _ z Y R _ U U g U %.;.%.-.' | ....&.>.l.F.qXyXyXyXyXyXxXyXyXyXyXyXyXqX:X/.D.@.J a g _ | ..&.l.F.^.+X9X9X9XtXwXwXwXwXyXwXqXwXwXwXwXwXwXwXwXwX6X3X`._._.`.`.`._.Y.g.$.@.m.T.).;XqXyXyXyXtXyXtXtXtXqX4X'.Y.:.` K K $.D.!.OX9XtXtXyXyXeX:X*X[.].].K.K.K.K.H.K.W.W.R.R.F.g.$.` ` ` ` ` ,.G./.%X6XqXwXZ.u.u.u.^ q q e e e r r f f f f f f f f ",
"m m m m m m m m m m m n n n m e e w ^ u.u.u.Z.pXxXxXbXxXbXNXFXGXHXHXHXHXHXAXNXcXzXyXyXtXyXwXwXwXyXyXyXpXyXpXpXpXpXxXxXvXNXFXCXGXNXNXvXzXpXpXxXxXxXxXxXxXxXxXxXbXbXVXVXbXxXzX0X3X+X_._.Q.Q.Q.Q.Q.Q.Q.Q.Q.U.T.T.XX$X0XzXvXbXAXAXAXGXGXGXGXGXGXGXGXGXGXGXGXGXAXMXAXAXHXHXHXHXHXHXHXHXHXHXHXLXLXLXLXLXLXHXGXAXMXcXcXkXkXcXzXzXzXvXzXcXkXkXcXxXxX>X>XoX(.E.G.F.R.L.G.R.F.G.G.F.G.J.G.x.l.x.F.J.J.J.F.G.F.F.z.z.z.l.9.7.7.&.X.X.X. .| [ | [ [ [ [ [ | | | _ _ _ Y _ Y Y U g _ _ Y ) a g ' ;...-..._ ....%.;.7.l.J.qXyXyXyXyXyXyXyXyXyXyXyXyXqX:X).D.@.K U ' &.5.8.0.J.^.+X4X9XrXwXwXwXyXwXwXyXwXwXwXwX0XwX0X0XwX9XuX3X`._.|._._.`.`._.R.g.@.@.g.Y.).;XqXwXyXtXyXtXyXyXtXqX4X'.Y.:.` J K @.D.!.+X9XwXyXtXtXwX7X*X[.[.].].].].].].].].[.~.R.F.g.$.` ) ` ) ` ,.G.^.%XqXqXwXZ.u.u.u.^ q q e e e r r f f f f f f f f ",
"m m m m m m m m m m m n n n m e e w ^ u.u.u.Z.xXxXxXxXbXbXNXGXGXHXHXHXHXGXAXNXbXzXyXtXtXyXwXwXwXwXyXyXpXpXpXpXpXpXxXxXvXNXCXFXCXNXNXbXzXpXxXpXxXxXxXxXpXbXbXbXbXbXVXbXbXxXzX0X1X1X_._.Q.Q._._._._._.Q.Q.U.T.T.XX$X0XtXxXbXNXAXAXGXGXGXGXGXGXGXGXGXGXHXGXGXAXAXAXAXAXGXHXHXHXHXHXHXHXHXHXLXLXJXJXLXJXLXHXAXMXcXjXlXlXzXjXjXcXcXzXkXkXkXzXvXkXrX>X&X(.(.R.Y.F.L.G.Y.E.F.D.;.>.F.R.l.l.x.l.z.F.F.F.F.J.z.F.z.l.l.l.7.&.&...| ..| | [ Y _ _ _ [ Y Y [ _ _ _ Y U Y U U z a U U U z z U ' %.&.%._ ' ....&.;.7.l.L.qXyXyXtXyXyXyXtXyXyXyXyXyXqX4X).G.:.) ' &.0.q.H.K.[.*X:XqXwXwXwXtXwXwXwXwXwXwXwXwXwXwXwX0X0X9X9X3X3X_.|.|.|._.`.}.`.Y.g.@.O.g.Y.).;XqXwXtXyXyXtXtXyXrXqX4X'.G.:.~ J J @.D./.;X9XtXyXtXtXeXeX:X5X[.[.].].].[.[.[.[.[.{.~.F.g.@.` K T T ` ,.F.E.'.;X6X6XC.u.u.u.~ q q e e r r r f f f f f f f f ",
"m m m m m m m m m m m m m m m e e w C u.u.u.C.xXxXxXxXxXbXCXGXGXGXHXHXHXGXAXNXcXzXyXyXwXwXyXwXyXyXpXpXyXyXpXpXxXpXpXxXvXCXFXGXCXNXbXvXzXpXpXxXiXxXxXxXxXxXxXbXbXbXVXVXbXbXvX0X9X1X_._._._._._.1X1X+X+XXXQ.T.T./.+X3X0XxXbXNXAXGXGXGXGXGXGXGXGXGXGXGXGXGXGXAXAXAXAXHXHXHXHXHXHXHXHXLXLXLXLXLXPXPXPXPXJXHXGXNXmXjXjXlXjXjXlXjXcXjXjXjXkXkXvXkXrX>X&X%XE.E.R.R.G.G.F.Y.R.x.l.l.L.D.x.>.x.l.>.7.x.J.J.z.z.z.x.>.>.>.&.;.| | &.| | | Y Y Y z z Y z z Y Y _ U U g z U z < < a g U 6 a U ' ;...Y _ | ....&.&.7.S.J.qXyXyXyXyXyXtXyXyXyXyXyXyXwX4X%XR.l.>.9.0.K.K.].[.}.:XwXwXwXyX9X9XqXwXwXwXwXwXpXwXwXwXrX0XtX9X3X3X3X_.|.|.|.=X3X}.`.R.g.O.+.g.Y.).:XqXwXyXyXyXpXtXtXtXqX;X^.G.:.~ p g @.D./.+X9XtXtXtXyXwXdXaX5X[.[.[.[.[.[.[.5X5X:X*X(.G.g.@.P K K K ) :.D.R.'.=X4X6XC.u.u.u.C q q e r r r r f f f f f f f f ",
"m m m m m m m m m m m m m m e e e w M u.u.u.V.xXxXxXxXxXbXCXGXGXGXHXHXHXGXAXNXbXzXyXyXwXyXwXyXwXyXyXyXyXpXpXpXpXpXxXxXbXCXCXCXGXNXNXvXxXpXpXpXpXpXxXxXxXbXxXxXbXbXVXbXbXvXzX0X9X3X1X1X1X+X+X1X0X1X0X1X+XXXT.T./.+X3X0XvXbXNXAXGXGXGXGXGXGXGXGXGXGXGXGXGXGXAXAXAXHXHXLXLXLXLXLXLXLXLXLXPXPXPXPXPXPXPXPXJXFXAXmXjXjXjXlXjXjXjXnXjXjXjXjXzXkXvXrX:X&X%X(.W.R.E.Y.F.F.D.F.l.g.F.F.l.l.g.l.l.x.l.l.z.z.z.z.x.l.<.;.&.&.&.&.| | | Y Y Y z l l z z z z a l z z z u 6 g a 6 6 6 6 g u 6 ) ' .._ _ [ | ..X.&.;.7.z.L.qXyXyXtXtXtXtXwXtXyXyXtXtXwX4X{.~.J.z.H.K.].].].[.*X7XwXtXtX0X9X9X3X3X3X3XuXuXwXwXwXwXwX0XtXwXuX3X3X`.|.|.1X3X3X3X`.R.g.O.O.g.Y.).:X9XtXtXyXtXtXtXwXqX4XOX!.F.:.~ p p O.D.!.+X9XtXyXtXyXeXeXaX*X}.[.[.[.[.}.5XdXdX8X:X{.R.f.+.K J J K P $.A.R.).=X4X4XV.u.u.u.M q q e r r r r f f f f f f f f ",
"m m m m m m m m m m m m m m e e e w w t.u.u.V.iXxXxXxXxXbXNXGXGXGXHXHXHXGXGXNXbXzXiXyXyXyXwXwXyXyXyXyXyXpXyXpXxXpXxXxXbXbXCXCXCXNXNXvXxXpXpXpXpXpXxXxXxXxXbXbXbXVXVXVXbXvXvXiX0X9X3X1X1X1X1X1X0X0X0X3X+X#XT.T./.XX1X0XkXvXNXNXGXGXGXGXGXGXGXGXHXGXGXHXGXGXAXAXHXHXLXLXIXLXLXIXIXIXIXPXPXPXUXUXUXUXPXPXPXHXFXmXjXjXjXjXjXjXjXjXjXjXjXkXkXzXvXrX>X%XoX(.E.W.R.L.R.x.A.A.x.<.l.l.>.l.l.g.l.x.l.x.x.x.z.l.7.7.*.;.....&.| [ Y Y x z x z l z 8 8 8 a 8 g a g a 6 6 a a < 5 a < 6 u U ' | Y _ [ [ ..&...&.&.7.z.L.6XyXyXtXtXtXwXwXtXtXyXyXwXqX:X%X~.J.K.K.].].].[.*X8XeXtXyXrX0X3X3X3X3X3X3X3X3XuXwXwXwXwXwXwXwXwX9X3X X3X3X3X3X3X3X'.R.g.O.` g.Y.).:X9XtXyXyXyXtXwXqX9X%X^.Y.l.@.P p u ] D./.+X9XwXtXyXtXyXeX7X:X}.[.].[.}.:XeXdXdXdX6X&XR.f.+.J J J J K @.g.Y./.=X4X;XV.u.u.t.w w e e e r r r f f f f f f f f ",
"m m m m m m m m m m m m m m e e e w 0 t.u.u.V.uXxXbXxXxXvXNXGXGXGXHXHXHXGXAXMXbXzXyXyXyXyXyXyXyXyXpXpXpXyXpXpXpXxXxXvXvXCXCXCXCXNXNXbXzXpXpXpXpXpXxXxXxXxXxXxXbXVXVXVXbXvXvXiX0X9X1X1X1X+X+X0X0XtX0X0X0X1XT.T./.XX+X1XjXlXcXNXGXGXGXGXGXGXGXGXGXGXHXGXGXGXAXAXHXHXLXLXIXIXIXIXIXLXIXPXPXPXPXPXUXUXPXPXPXHXFXmXjXjXjXjXjXjXjXnXjXjXjXjXkXzXvXtX>X&X%X(.E.W.L.J.R.L.x.x.D.l.g.-.>.x.l.D.>.l.l.x.<.>.l.>.>.&.%.%.| | &.[ _ z l l z l l 8 z 8 8 8 a 2 6 7 8 6 < < 6 7 5 & g & 5 7 ' ..Y _ [ [ | | ..&.&.;.;.S.L.=XwXtXwXqXqXwXwXwXwXwXwXwX9X:X[.W.J.K.K.].].].[.aXaXdXgXyXwX3X1X1X+X+X=X=X3X3X9XuXwXwXwXwXwXyXwX9X3X3X3X3X6XuX9X4X'.Y.g.` ` g.Y.).:X9XwXtXwXtXqX9X4X;X).Y.D.<.@.P i t ] D.!.OX4XqXwXwXeXwX7X6X-X{.(.(.{.:XwXtXkXxXyXyX&XR.f.O.J p p J J @.g.Y.!.'.=X`.V.u.u.t.w q q e e r r r f f f f f f f f ",
"m m m m m m m m m m m m m m e e e w 0 r.u.u.u.<XxXxXxXxXbXCXCXGXGXHXHXHXGXGXNXcXzXyXyXyXyXpXyXyXpXyXpXpXpXpXpXpXxXxXxXbXCXCXFXGXNXNXvXiXpXpXxXpXpXpXxXxXxXxXbXbXVXbXVXbXvXzX0X9X3X1X+X+X+X+X1XjXiX0X0X0X1XT.T./.+X+X1X0XlXcXNXAXGXGXGXGXGXGXGXGXGXHXGXGXGXAXAXGXLXLXLXIXLXLXLXLXIXLXLXLXPXPXPXPXPXJXJXJXSXNXlX2X2X2XjXjXjXnXnX2XjXjXjXkXkXvXrX9X&X%X(.E.R.W.J.J.J.F.A.x.x.g.-.%.>.l.g.;.>.<.%.l.-.l.&.;.%.%...| | [ z z l 8 l z l 8 6 < < 6 < 6 < 6 6 < < & < < & & < & & < U _ Y _ [ [ |  .| ..X.;.;.7.z.L.~.g.yX4X4X4X9XqXqXqX4X4X:X&X{.~.R.J.K.K.].].].}.aXaXsXgXeXwX3X1X`._._._._._.`.3X3XuXwXwXwXpXeXwXqX6X3X5X6XwXwX9X3X'.Y.f.O.` g.Y.).:XqXwXwXqXqXqX:X;XOX/.D.g.-.@.P t t ` g.Y.).+X:X9XqX9X6X4X-X{.(.~.(.%XrXtXxXVXvXkXrX>XT.:.` F p u p J O.g.G.R.).=X_.V.u.u.r.w q q e e r r r f f f f f f f f ",
"m m m m m m m m m m m m n m e e e w w e.u.u.u.|.xXxXxXxXbXCXGXGXGXHXHXHXGXAXNXcXzXyXyXwXyXyXpXpXyXyXpXpXpXpXpXxXpXxXxXbXCXCXCXGXCXNXvXzXpXpXpXpXxXpXpXbXxXbXbXbXVXVXbXbXvXvX0X3X1X+X_._.XX#X1XjXtXzXkX0X1XT.T./.+X+X1X0XlXcXNXAXGXGXGXGXGXGXGXGXGXGXGXGXGXAXAXHXLXLXLXLXLXLXLXLXLXLXLXHXLXJXJXJXJXJXJXFXCXcX2X$X$XjXjXjXjXnXnXnXnXnXjXnXkXxXtX9X&X&X(.E.R.W.J.J.F.J.F.x.l.l.<.%.<.>.>.] %.:.' >.%.%.' ..%.%.' _ U Y U z a 8 l l 8 8 6 < < 5 < & & < < < < $ & & & < $ $ % g U Y Y [ [ | | | ....&.&.;.;.z.L.~.T D.;X=X;X:X:X:X:X;X%XoX(.E.Y.F.F.H.H.K.K.].}.aXaXsXsX8X7X3X}.`._.Q.P.P.!._.`.3X9XqXyXwXwXwXwXqX4X5X5XqXqXqXqX4XOXY.f.O.~ g.Y.).+X4X9XqXqXqX4X:X%X).R.x.:.-.+.K t t K ,.D.R.).OX=X;X&X;X;X{.~.E.R.oX>XjXzXvXvXvXvXtX>XT.:.` F i u p J ` g.U.R.^.%XQ.u.u.u.e.w q q e e r r r f f f f f f f f ",
"m m m m m m m m m m m m n n m e e e w w.u.u.u.|.xXxXxXxXbXCXGXGXGXHXHXHXGXGXMXbXzXyXyXyXyXwXwXpXyXpXpXpXpXpXpXpXxXxXxXvXCXCXSXCXCXNXvXzXpXpXxXpXpXxXxXxXxXxXxXbXbXVXbXvXvXzX0X0X+X+X_._.Q.XX1XjXzXzXkXjX1XT.T.XX+X3X0XzXzXbXNXGXGXGXGXGXGXGXGXGXGXGXGXAXNXAXAXAXHXHXLXLXHXLXLXLXHXHXHXHXHXGXFXFXFXSXSXVXcXjX#X#X$X$X2X2XjXnXnXnXnXnXnXjXkX+X>X>X&X&X(.E.W.R.L.J.J.F.F.F.F.x.l.l.>.%.' %.%.-.U ' U ' a _ ' U _ U 8 8 z 8 8 8 8 8 2 6 < 6 < & & $ & < & & $ # $ & $ $ % < g U Y Y [ [ | [ | |  ...X.&.;.7.l.L.W.1 ] Y.).OXOXOXOX'.)./.Y.G.x.g.g.g.l.z.H.K.W.[.}.aXaXaXaX7X X}._.P.G.A.A.G.Q._.`.3XwXwXyXwXwXqXqX5X3X3X6XqXwXwX4XOXY.f.` P g.D.^.OX=X:X:X4X:X=X%X'.^.Y.l.<.%.' K t 3 p $.g.G.Y.^.^.^.^.^.).^.R.G.Y.#X0XjXcXvXCXvXvXkX>XT.:.` p u u u p P :.D.Y.^.'.Z.u.u.u.^ q q e e e r r r r f f f f f f f ",
"m m m m m m m m m m m m n n m e e e w ^ u.u.V.Z.xXxXxXxXbXNXGXGXGXHXHXHXGXGXNXbXzXyXyXwXwXwXeXyXpXpXpXpXpXyXpXxXxXxXxXbXCXSXCXCXCXNXvXzXpXxXpXpXpXxXxXxXxXbXxXVXbXVXbXbXvXzX0X0X1X+X_._./.#X1X0XzXzXjXjX1XT.T.XX1X0X0XiXbXbXAXGXGXGXGXGXFXGXGXNXMXNXMXNXNXMXMXAXAXHXHXHXGXGXAXAXGXGXAXAXMXmXMXcXcXvXvXjX$XXXT.T.XXXX$X$XjXnXnXnXnXnXjXjXkXU.OXrX&X&X(.(.R.R.L.L.J.J.F.J.F.x.l.l.%.:.U J &.' U U U g U U U U z a 7 < 6 6 < 6 < 6 6 6 < & < $ # @ @ @ % & # # $ $ + & g _ _ _ Y [ [  .[ [  . . ...X.&.;.7.z.L.L.  5 ] R.E.^.^.E.R.U.I.j.f.f.$.$.$.%.>.>.z.L.~.{.}.5XaX8X X}.[.~.G.A.A.g.m.G.!.`.3XqXwXwXwXwXwX4X3X=X4X4XqXqXqX4XOXY.f.P P f.D.R.^.'.'.OX'.'.%X(.~.R.G.A.g.=.+.J 1 > t ~ :.l.D.Y.Y.Y.Y.Y.Y.Y.G.D.T.$XjXcXvXvXCXvXvXkX>XT.$.~ i t y u i K #.m.D.Y.!.M.u.u.u.^ q q e e e r r f r f f f f f f f ",
"m m m m m m m m m m m m m m m e e e w C u.u.u.C.xXbXxXbXbXNXFXGXHXHXHXHXGXGXNXcXzXyXyXwXyXyXwXeXpXyXyXpXpXpXpXxXpXxXxXvXFXSXSXCXNXNXbXzXpXpXxXpXxXxXxXbXxXxXxXvXVXVXVXbXvXzX0X9X3X+X+X_.+X1X0XzXzXzXkXjX1X.X/.XX$X0XtXzXbXbXbXFXGXGXGXGXGXNXNXMXMXMXlXcXlXnXmXMXMXMXAXAXMXMXMXMXMXMXmXmX2X@X.X.XT.T.T.U.I.b.I.U.U.T.XX$X,XjXjXnXjXjXjX0X0Xj.oXrX:X%X[.W.~.W.R.L.J.J.H.z.H.S.F.l.<.>.-.] ] %.) U U U U g a U a 8 7 < 5 < & & < & & & & & $ # # # $ # # # + # # # a U | [ _ _ [ | [ | | [  .|  ...X.&.;.7.z.F.S.. X a -.R.Y.Y.I.D.j.f.$.#.#.#.O.#.O.#.$.<.A.L.~.[.}.}.}.}.[.].P.S.l.-.@.@.G.!.`.3X4XwXqXwX6X3X3X'.'.{.:X6XqXqX4XOXY.f.( H :.l.Y.!.^.^.^.E.^.!.!.R.R.F.D.g.=.` J 3 > i K @.g.l.D.D.D.D.D.D.D.D.g.T.$XjXcXvXCXCXvXkXkX>XU.$.P i t t t i H ` :.A.G.Y.C.u.u.u.C q q e e e r r f f f f f f f f f ",
"m m m m m m m m m m m m m m m e e w w M u.u.u.V.xXxXxXbXbXCXFXGXGXHXHXHXGXGXNXbXzXiXyXyXwXyXyXyXyXpXpXyXpXpXpXxXxXxXxXbXbXSXFXGXGXNXvXxXpXpXpXpXpXxXxXxXxXxXbXxXVXVXbXvXvXzX0X9X3X1X+X+X+X1X0XzXzXzXjXjX1X.X.X#X$X0XtXzXxXbXNXbXNXGXNXNXNXMXMXcXjX2X2XjX2X$X2X2XnXmXmXmX2X2X2X2XnXnX2X2X.Xj.f.f.:.:.f.g.j.j.x.D.I.U.T.XX$X,X,XjX,X$X$X#X#Xf.Y.qX>X&X[.(.W.W.W.J.J.J.J.c.z.z.F.F.x.l.>.>.] ) U g ) U a < < 5 5 6 & < < < & $ & $ $ $ & & $ # # $ # # # # % $ & 6 U ..| | [ [ [ [ [ | | | [ | |  .X.&.;.7.z.S.z.. X : ) g.F.D.g.f.#.I I I I I I I I I Q @.g.S.L.L.~.].].].P.K.S.9.>.` K ~ D.Y.~.{.3X4X4X3X4X3X`._.).`.{.:X4X4X;XoXY.f.P H :.g.F.Y.R.Y.G.G.Y.R.R.R.R.G.D.g.=.+.H > - t P @.g.l.D.D.F.F.F.F.D.l.m.XX0XcXvXNXNXCXvXkXkX+XU.$.P t 5 5 t t J ~ @.,.A.D.V.u.u.u.M q q e e e r r f f f f f f f f f ",
"m m m m m m m m m m m m m m e e e e w w t.u.u.u.uXbXbXbXbXCXGXGXHXHXHXHXGXAXNXbXiXwXyXyXyXyXwXpXyXyXpXpXpXpXpXiXpXxXxXvXCXSXFXGXNXNXvXzXyXpXxXpXxXxXxXxXxXxXbXbXVXbXbXbXvXzX0X3X3X1X+X1X1X3X0XvXxXzXzXjX2X.X.X#X1X0XkXzXzXvXvXcXMXMXNXMXbXcXjX2X#X.X.X.X.XT..X.X@X2X2X@X.Xh.N.N..X.X.Xh.=.$.@.+.+.+.@.*.:.f.j.g.x.I.I.T.XX#X$X$X$X#X.XT.T.f.f.tX:X&X(.W.W.W.W.L.R.J.J.H.J.z.z.J.J.Y.x.>.-.%.' J g U a 6 & & & & & + $ & # $ # # $ # $ $ # + + # # $ & < 5 u 8 ' ....| | | | [ [ [ [ | | | | |  .&.&.;.7.9.S.7.@   # a @.G.D.f.#.I I L L I I I I I P P I #.:.l.A.S.S.H.L.H.S.S.>.%.` K ` g.G.R.(.'.=X3X+X'.`.^.!.!.!.(.{.=X%XoX/.G.f.( P :.g.l.A.A.D.g.g.D.Y.R.R.Y.G.x.g.=.+.H , - t ` :.g.A.F.G.Y.Y.F.G.F.A.I.#XjXcXvXNXNXvXvXzXrX+XU.$.K t 5 5 5 t J P ` $.:.m.u.u.u.t.w w q q r r r r f f f f f f f f f ",
"m m m m m m m m m m m m m m e e e e w w r.u.u.u.<XxXxXxXbXAXGXHXHXHXHXHXGXAXNXbXzXyXyXwXyXeXwXyXyXyXyXpXpXpXpXpXpXxXxXbXCXCXCXCXGXNXvXiXpXiXpXpXxXxXxXxXxXbXbXbXbXbXbXvXvXzX0X0X3X1X1X1X1X0X0XzXxXcXkXjX1X.XXXXX1X0X0XkX0XjXjXjXjXlXzXzXkX0X$X.Xj.f.f.s.s.s.$.s.d.d.d.s.$.$.$.$.$.$.$.$.+.#.O.( ~ P ` +.@.*.:.g.g.g.j.I.U.T.T..XT.U.N.j.D.:.O.kX>X%X(.~.W.W.W.J.J.J.J.J.H.J.J.J.J.L.R.G.D.-.%.%.' ' U 5 7 < $ & $ : : : $ + + # # < & # # % $ < : 7 6 8 8 U _ | | | | | | Y [ [ [ [ [ | | |  ...X.&.5.7.7.0.5.O   X 7 ) l.l.:.O.L L L L I P I I I L L L L I @.:.>.9.9.9.9.9.>.-.] ` K ) g.A.G.R.!.).).^.!.Y.G.D.D.G.!.^.).).!.Y.D.=.( P @.:.<.<.9.<.:.:.g.l.D.F.G.D.x.g.:.O.L - - t ` :.l.F.Y.R.Y.R.Y.F.D.D.T.$XjXcXvXNXNXvXvXzXrXoXI.#.K t 5 5 5 t G P ` @.=.y.V.u.u.r.w w q e r r r r f f f f f f f f f ",
"m m m m m m m m m m m m m m m n e e e w e.u.u.V.|.xXbXbXbXAXGXGXHXHXHXHXHXGXNXcXzXyXyXyXyXpXeXeXyXpXpXyXpXpXpXpXpXxXxXvXCXCXFXFXGXNXvXiXpXpXxXpXxXpXxXxXbXxXxXbXbXVXVXvXvXzX0X0X3X3X1X1X1X0XiXzXxXzXkXjX1X.XXX#X$X0XrX0X0X0X$X1X1X0X0X0X$X#XT.g.:.%.%.@.@.@.@.@.$.$.$.f.=.=.=.=.$.$.$.#.O.O.( P P H K ` +.*.:.g.g.g.x.x.D.D.I.D.j.f.f.f.x.:.F oX&X&X(.~.W.W.W.J.J.H.z.z.H.H.H.J.L.L.L.R.J.G.l.9.&.' ] ' g g a 6 6 < < & & & & < < 6 & < < 6 6 6 8 8 l z _ _ _ [ [ | | | | [ [ [ [ [ [ | | |  ...X.&.;.5.7.5.X.@   X < g %.l.:.O.L L L L L L I L L L L L L L I O.+.@.-.>.>.;.-.@.` T K T ` g.D.F.G.Y.D.D.D.D.D.g.g.g.D.U.Y.Y.I.D.j.$.P H ] -.>.>.:.:.:.:.<.l.D.F.G.D.x.g.:.O.H - - 3 ` :.l.F.Y.R.R.R.R.Y.D.D./.$XjXcXNXNXNXvXvXkX>XXXj.O.K t 1 1 1 5 F H ~ O.$.y.u.u.u.w.w q q e e r r r f f f f f f f f f ",
"m m m m m m m m m m m m m m m n e e e w ^ u.u.u.Z.xXxXbXbXNXGXGXHXHXHXHXHXAXAXcXzXyXyXyXwXwXwXeXpXpXpXpXpXpXpXpXpXxXxXbXCXFXFXGXNXNXvXzXpXyXpXpXxXxXxXxXxXxXxXbXbXVXvXvXvXzX0X0X3X3X1X1X0X0XiXzXxXzXjX0X$XT.T.XX$X>X>X>X+X#X.XT.T.T.T.T.U.D.g.:.-.-.%.=.$.$.$.$.$.$.$.f.f.f.f.f.$.$.$.#.O.O.~ P K J J P ` @.:.>.g.l.l.l.l.l.g.g.g.f.<.<.D.:.F x.>X&X(.(.~.W.W.L.L.J.J.z.z.z.J.J.L.L.L.R.R.J.J.F.F.l.>.%.' R U U g g a 6 6 6 5 5 7 8 6 6 8 8 8 8 a l z Y x Y Y | | | | [ [ [ [ [ [ [ [ | [  .X.X.X.&.;.5.5.5.| O   . % g ` g.:.O.P L F L L L L L L L L L L L L P ` O.@.%.%.%.@.` T ` ` ` ` O.f.g.g.f.f.f.j.f.f.,.:.:.f.j.j.j.j.f.=.O.P K ` @.%.%.-.$.$.f.g.g.D.I.U.I.D.j.=.O.F - - > ` :.x.G.Y.R.R.R.R.Y.F.D.XX$XjXcXvXNXvXvXvXkX$XT.f.` J 5 > > 5 t i J ~ ` @.y.u.u.u.^ w q q e e r r r f f f f f f f f f ",
"M M m m m m m m m m m m m m m n n e e w ^ u.u.u.C.xXxXbXbXNXGXHXHXHXHXHXHXAXNXcXzXyXyXyXyXeXwXeXeXeXyXpXpXpXpXpXxXxXxXvXCXCXCXCXNXNXvXtXyXpXyXpXxXxXxXxXxXbXxXbXbXVXVXvXvXlX0X0X3X3X3X3X9X0XiXiXkXkXjX$X#XU.T..XXX+XoXXX/.U.j.j.g.g.g.f.f.:.:.:.:.:.:.:.f.$.:.=.$.=.f.f.f.f.f.f.$.$.#.#.O.` P H J F H J P O.=.>.g.g.l.l.l.g.g.g.g.<.<.l.D.:.J T rX*X(.E.W.W.W.W.J.J.H.z.z.z.z.H.L.W.W.W.L.L.J.J.z.z.z.l.l.>.;.%._ U z a 8 8 8 8 8 < = 2 8 8 8 l z x x Y _ [ | [ | [  .| [ [ [ [ [ [ [ [ | | | X.X.;.;.;.5.&.[ O   . # a ) >.:.O.P H F F F F L L L L F L L F L P ` O.+.@.+.' ` ` ` ` T T ` O.#.$.s.f.f.f.f.f.f.f.=.f.$.s.s.d.d.s.#.O.K K K ` ] @.:.f.j.j.j.I.I.U.U.U.I.j.j.$.P i 5 a +.:.l.F.Y.Y.R.R.Y.Y.D.I.XX$XjXcXvXvXNXvXkXjX$XU.f.T F 5 > > 5 5 i G P ` O.r.u.u.u.~ q q q e e r r e f f f f f f f f f ",
"M M m m m m m m m m m m m m m n n e e w M u.u.u.V.zXxXxXNXGXGXHXHXHXHXHXHXAXNXcXzXyXyXwXyXwXwXeXpXeXpXpXyXpXpXpXpXxXxXvXCXFXFXGXGXNXvXzXyXpXpXpXxXpXxXxXxXxXxXxXbXVXVXvXvXzX0X0X9X9X9X3X0XtXiXiXzXjX0X$X.XU..X.X@X#X@X@X.XU.j.g.g.l.l.g.:.:.f.f.f.f.f.f.f.f.f.f.$.f.f.f.h.h.h.f.s.#.O.O.O.P K H F F H H ~ O.$.:.f.g.g.x.g.g.g.<.>.:.l.D.x.*.K 1 rX&X[.(.W.W.W.L.J.J.H.H.H.z.H.H.H.J.W.W.W.R.J.J.z.z.z.l.>.&.&.&...| | Y Y 8 8 8 8 8 8 8 8 j z l z z x Y [ [ [ [ [ | | [ [ [ [ [ [ [ [ | |  . .X.X.&.;.;.;.&.z O   . # u U @.A.l.#.L F F i F i F F L L F L F L P P +.+.@.@.@.+.+.` ` T T T O.#.$.f.f.f.f.f.f.f.f.f.f.s.h.h.N.h.h.#.` P K K K P O.$.f.j.j.j.I.I.U.U.U.I.b.j.f.@.T K ) %.<.l.D.G.Y.Y.Y.Y.F.D.D..X$XjXcXvXvXvXvXkXjX$XU.f.P i > - - > 5 i F H ~ ` t.u.u.u.M q q q e e r e r f f f f f f f f f ",
"M M m m m m m m m m m m m m m n n e e w w t.u.u.V.1XxXxXbXGXGXGXHXHXHXHXHXGXNXcXzXyXtXwXwXeXwXyXwXpXpXyXpXpXpXpXpXxXxXbXCXFXFXGXGXNXvXzXyXpXpXpXpXpXxXxXxXxXxXxXVXVXVXvXvXzXiXtXtXtX9X0X0X0XiXtX0X0X$X#XU..X@X@X2X2X2X2X@XT.j.g.<.g.g.g.g.f.f.f.f.f.f.f.f.f.f.f.f.f.f.f.h.h.h.h.s.s.#.O.P P H F F F H K ` +.@.:.<.g.g.l.g.g.f.:.:.g.x.g.x.:.P - g.*X(.(.W.W.W.L.J.J.H.z.H.S.H.H.c.J.J.J.W.W.L.J.z.z.l.9.7.7.>.;.;.&...| Y z j 8 8 8 j j l l z z z x x x x E [ [ [ [ [ [ [ [ E [ [ [ [ | |  . .X.X.&.&.&.&.| l .   . + 6 g ] <.>.<.l.:.F , , , F F L L L F F L P O.@.%.-.%.%.@.+.` T T K P O.#.f.f.f.f.f.f.f.f.f.f.h.h.n.@X@X@X.Xh.( K J g g J T #.f.f.j.j.j.I.I.U.U.I.x.x.g.-.+.' ' -.<.l.A.F.G.G.G.F.D.A.A.T.$XjXcXvXNXvXvXkXjX$XT.f.P i > - : > > t p H P / u.u.u.t.q w q e e e r r f f f f f f f f f f ",
"M M m m m m m m m m m m m m m n n e e w w e.u.u.u.|.xXxXbXNXGXGXHXHXHXHXHXAXNXcXzXyXyXyXwXwXyXwXeXpXyXyXpXpXpXpXpXxXxXvXCXCXFXCXCXMXvXiXpXpXpXpXpXpXxXxXxXxXxXxXVXbXVXVXxXvXiXiXtXtX0X0X0XtX0XiX0X0X#X.XN..X@X2X2XnXnX2X#X.XI.g.>.>.>.g.g.g.j.f.f.f.f.f.f.f.f.f.f.f.f.f.h.h.h.s.s.s.#.O.` P P K K P K ` ` +.@.:.<.g.l.l.l.l.D.D.G.D.>.:.x.$.` 1 1 *X[.(.[.W.W.J.J.J.z.H.z.z.c.z.c.J.J.J.K.J.J.J.H.z.z.7.7.;.>.;.&.%.&.| | z l j j j l l l z z x z x x x Y E [ [ [ [ [ [ E x [ [ [ [ [ [  . . .X.X.&.&.2.X.[ 8 .   . + 5 g ) -.F.l.g.<.-.+.F F P O.O.O.P L L T @.-.-.>.>.>.>.%.%.+.' ` ` ` #.$.f.j.j.h.h.h.f.f.f.h.h.N.@X2X2X2X@XN.#.H p p u a P #.$.f.j.j.j.j.b.I.U.b.x.l.>.;.%.| ..;.>.l.l.A.D.D.A.A.l.l.g.U.#XjXnXvXNXvXvXcXkX$XT.j.P t , - : : > t i H K / u.u.u.e.w w q e e e r r f f f f f f f f f f ",
"M M m m m m m m m m m m m m m n n e e e w w.u.u.u.Z.xXxXvXNXGXHXHXHXLXHXHXGXAXMXzXyXyXwXyXwXwXwXpXwXpXyXpXpXpXpXxXxXxXbXNXFXGXGXAXNXvXiXpXpXpXpXpXpXpXxXxXxXxXxXVXVXvXvXxXxXiXtXwX0X9X0X9X0X0X0X0X$XXXT.N.@X$X2XnXnXnX2X#X.Xb.g.>.>.>.>.g.g.g.f.f.f.f.f.f.f.f.f.f.f.f.f.f.f.d.s.s.s.#.O.` ` ` ` ` ` ` ' +.@.%.:.f.g.F.R.Y.A.g.g.D.:.*.x.g.:.O.y o W.[.[.(.W.W.W.J.z.c.z.H.c.c.c.c.H.J.J.L.H.J.J.c.c.z.9.7.7.;.;.;.&.&.&.| x x k l j l z z z x l x x x x E E E [ [ [ [ [ Y E Y [ [ [ [  . . . . .X.X.X. .} x 8       X > g ) @.A.F.l.-.A.l.%.%.>.>.9.<.:.@.+.%.;.>.9.9.9.9.9.9.>.%.@.] ' @.$.f.f.j.j.h.h.h.h.f.f.h.h..X2X2XnXnX2X.Xs.H i t y p K O.$.:.f.j.j.j.x.b.x.D.l.l.<.;.......&.>.<.9.l.l.l.g.l.<.<.:.m.#XjXjXcXvXCXvXkXkX>XT.j.H t - : % : > t i F H e.u.u.u.^ w q q e r e r r f f f f f f f f f f ",
"M d m m m m m m m m m m m m m m n m e w w ^ u.u.u.C.xXxXbXNXGXHXHXHXHXLXGXGXNXMXzXtXwXwXwXyXwXwXyXyXyXpXpXpXpXpXxXiXxXbXCXFXFXGXCXNXvXyXyXyXpXpXpXpXpXpXiXpXxXxXxXxXxXxXxXzXtXtX9X9X3X3X9X9X9X9X3X+XT.N.N..X@X2X,X,X,X2X#X.Xj.:.-.-.:.>.>.f.f.f.f.f.f.j.j.j.j.h.h.j.j.h.h.h.s.s.$.#.+.+.+.O.` ` ` ] +.+.@.@.@.g.F.F.l.g.:.:.x.D.f.@.:.g.x.:.+.p ; %.[.[.[.W.W.W.J.z.c.z.z.z.c.z.z.z.z.J.J.J.K.J.c.z.z.z.7.7.7.&.;.&.&.&.X.[ x l j z z z z l z l x x x x x x [ Y Y [ Y Y x [ [ { [ [ { {  .{  .X.X.X.X.} [ k *       X : u U ] <.l.l.l.l.:.l.l.' l.z.z.l.>.;.>.9.9.0.z.H.H.H.c.0.7.;.%.@.@.$.f.j.j.j.h.h.h.h.j.j.h.h.@X2X2X,X,X2X@Xs.P F p a g P s.h.h.h.h.f.j.x.x.x.x.l.<.;.%.........&.;.>.<.<.<.>.>.:.-.%.f.XX,XjXvXvXCXvXzXkX>X/.j.H 3 - % % : : 5 t p H r.u.u.u.^ q q q q r e r r f f f f f f f f f f ",
"M d m m m m m m m m m m m m m m n m e e w V u.u.u.C.iXxXvXNXGXGXHXLXHXHXGXGXAXMXzXyXwXwXwXwXwXwXyXyXyXyXyXyXpXpXpXpXxXvXCXCXSXFXCXNXvXiXyXyXpXyXpXyXyXyXrXrXrXtXxXxXkXzX0X0X9X9X3X;X+X+X+X+X;X+X+XXXU.h.N..X@X$X,X,X2X2X@X.Xf.$.@.%.:.:.:.:.f.f.f.f.j.j.U.T.T.T.T.T.T.T.U.j.j.s.#.$.@.@.+.@.+.+.+.@.@.@.=.f.F.F.g.f.g.x.Y.R.F.f.=.-.:.x.g.:.+.K 1 $ L.[.[.W.W.L.J.J.J.H.z.z.z.z.z.z.z.H.H.H.H.H.J.z.8.8.7.7.7.;.&.&.&.&.| [ x z l l l j x z x x x x x x x Y Y _ [ [ Y Y [ A [ [ [ [ [ { { X. .X.X.X.} { x j *       X % a K ` %.l.l.>.<.>.' -.<.%.l.J.S.z.9.S.S.H.K.K.K.K.K.K.i.i.0.7.;.-.:.:.f.j.j.h.h.f.f.f.f.f.h.@X2X2X,X,X,X@X#.P K K K ~ h.N.U.U.N.h.h.j.g.g.l.<.>.&...| _ ' ' ' ..%.-.>.>.:.-.%.@.@.@.,.XXjXcXvXNXCXvXvXkX>X/.h.F 3 - % : % : 1 t p H t.u.u.u.M w q q e r e r r f f f f f f f f f f ",
"M d m m m m m m m m m m m m m m n e e e w w t.u.V.V.1XxXbXNXGXHXHXHXHXHXHXGXNXNXzXyXwXwXwXwXwXwXyXwXwXwXwXwXqXwXyXyXyXzXbXVXVXVXbXMXzXrXwXwXyXwXwX9X9X9X9X3X3X9X9XrX9X0X0X+XOXOX).^./.)./.).).)./.U.N.j.h.N..X@X@X@X@X@X.Xh.$.@.+.+.@.*.%.%.$.=.=.f.g.U.R./.OX+X+X+XOX)./.Y.j.f.$.@.@.@.@.@.@.@.@.@.-.:.G.^.F.F.Y.Y.R.E.l.F.g.=.@.%.:.x.x.=.+.T t X ..W.W.W.W.W.W.J.c.H.H.z.z.z.z.z.z.z.H.H.H.z.H.z.z.z.7.7.&.5.&.&.&.&.| E x l l l j l x z l l z x x x Y Y _ [ E E [ _ [ [ [ [ [ [ [ { { { } X.X.X.} A k j @       . $ 7 g ` @.l.>.-.>.%.-.) %.g.-.%.L.L.J.L.~.].[.].K.K.K.K.K.K.i.0.0.9.g.g.f.f.f.f.f.f.:.f.f.f.j..X@X@X2X$X@XN.#.` ` ` ` f.N.I.T..X.XU.j.b.F.x.l.>.&..._ Y U U U ) _ ' %.%.-.-.%.@.@.@.@.f.XX0XcXvXCXvXvXvXkX>X/.h.F > - % % % % > t p ~ u.u.u.t.w q q q e r r r r f f f f f f f f f r ",
"M M m m m m m m m m m m m m m m n m e e w w e.u.V.V.|.bXbXAXAXGXHXLXHXHXHXGXAXbXzXyXyXyXwXeXwXwXyXwX4X4X3X3X4X4X9X9X9XjXzXvXvXvXvXcX0X4X4X4X4X9X4X:X=X+XoX).).OXOX+X;XOXoX!.Y.Y.G.G.D.D.G.Y.Y.U.I.j.j.f.f.h.h.N.N.U.U.N.h.$.#.O.O.O.#.+.#.$.$.$.$.j.x.Y.!.).OX;X;X&X%X'./.Y.D.g.@.@.@.@.@.@.@.@.@.$.D./.^.R.R.Y.F.F.F.] l.g.%.@.@.%.:.x.g.:.@.T p % & K.W.W.W.W.K.K.K.J.H.c.c.z.z.z.z.z.c.z.z.H.c.c.z.z.0.7.5.&.&.&.X.X.| Y x l j l l l j j x x x z x x Y x [ Y [ [ [ c [ [ [ [ [ { { { { } } } X.} [ x j 8 O       X $ 5 a U ) >.l.>.-.%.@.%.U %.<.-.) F.~.{.}.[.[.].].K.i.i.i.i.i.i.i.S.S.S.D.j.f.=.=.=.:.$.=.$.$.h..X@X@X@XU.s.@.] ] ] @.h.I.T..X@X@X@X.XT.R.L.F.>..._ Y U z g g g U ' ] %.%.-.-.-.@.@.@.g.XX0XcXvXCXNXvXvXkX>X/.j.i > - $ % % % 1 u J ^ V.u.u.e.w q q q e e r r r f f f f f f f f r r ",
"M M m m m M M m m m m m m m m m n m e e w w ^ u.u.V.Z.xXbXNXAXGXHXHXHXHXHXAXNXMXzXyXeXwXwXwXwXwXwX4X4X;XOX`.`.oXOXoX+X$X0XjXkXkXjX0X;X'.'.(.'.(.(.^.!.Y.G.G.Y.Y.Y.U.U.U.m.g.g.f.:.:.:.:.g.g.j.j.j.f.f.f.f.f.f.h.h.h.h.d.$.#.O.O.O.O.#.O.#.#.#.#.$.f.x.G.R.^.'.+XOX;XOX).^.Y.D.f.@.@.@.@.@.@.@.:.D.R.Y.A.g.g.<.>.D.A.] %.g.-.@.+.@.@.f.D.g.:.@.` J 1 X &.W.W.W.W.W.K.J.H.H.c.c.c.z.0.z.z.z.c.z.H.c.z.z.z.0.8.7.5.&.&.| | [ Y z l j j j l l l l x x x x _ x x Y { [ [ [ [ [ [ [ [ { { {  . .} } } } } A x j 8 .       X $ 5 u U ) -.>.<.%.%.] %.] U %.l.-.) l.F.~.[.[.[.].K.i.i.i.i.i.i.i.H.J.L.G.G.g.:.:.=.$.@.=.$.$.$.h.N.U.h.h.@.@.@.@.@.@.j.I.T.@X@X@X@XXXE.E.W.J.l..._ U z g g g z z ) ] ] %.-.-.%.%.@.$.m.#X0XkXvXCXCXvXkXtX>X/.j.F > - % % % : 5 u J e.u.u.u.^ w q q e e e r r f f f f f f f f f f f ",
"M M m m m M M m m m m m m m m m n n e e w 0 C u.u.u.C.xXvXMXAXGXGXHXHXHXHXGXNXMXzXyXwXwXwXwXwXqXqX3X;X).T.U.U.U.U.U.U.T.XX$X$X$X$XXXR.Y.G.G.G.G.G.S.l.9.9.<.g.l.g.g.f.=.@.@.@.+.+.+.+.@.$.$.$.$.$.s.$.$.$.$.s.s.s.s.s.s.$.#.O.( O.O.O.O.( ( O.O.#.=.j.D.Y.E./.).oX).)./.Y.D.g.:.@.@.@.@.:.g.D.A.g.:.-.-.-.>.:.g.A.%.J :.%.+.` ` +.$.g.D.g.:.@.O.T y $ & K.W.W.W.W.K.K.H.H.c.c.z.0.0.0.z.c.c.H.H.H.z.z.z.0.8.5.4.&.&.X. .| Y z l l j l l l l z z x x x x Y [ [ [ [ [ [ [ [ { { { { { { X.{ } } } } [ x k j * .       X $ > a U ) ] -.-.%.] ] ] @.K ' -.>.] ] <.<.A.L.].[.K.i.i.i.i.i.i.i.H.K.K.L.L.J.l.>.;.%.@.@.@.@.@.@.$.f.$.@.@.@.@.@.%.@.j.I..X@X@X@X@XXXoX(.(.W.S.%.' U U ) _ _ ) Y _ %.&.-.;.>.:.:.-.%.m.XX>XjXkXvXCXvXkXrX&X/.j.H t 3 5 5 5 6 p K ~ t.u.u.u.C w q q e e e r r f f f f f f f f f f f ",
"M M m m m m M m m m m m m m m m n n e e e w n t.u.u.V.1XxXbXMXAXGXHXHXHXHXAXAXMXiXyXeXqXwXwXwXwX4X4XOXT.j.f.f.f.f.f.f.f.j.I.T.T.I.A.l.l.g.<.<.<.>.-.;.;.;.;.>.>.<.:.@.O.( ` P ` ` O.O.#.$.$.$.$.$.s.$.$.$.$.$.$.s.s.s.s.$.#.I I I I I ( I I ( O.#.#.f.g.D.U.Y.T.T.T.T.Y.I.g.f.$.$.$.g.Y.R.l.g.:.:.:.:.:.>.:.>.l.%.G ' %.+.+.T T O.:.x.x.g.:.@.+.T y < X 7.K.W.W.W.K.K.H.H.H.c.c.0.z.0.z.z.c.c.H.z.z.z.0.8.8.5.5.&.&.| [ x x z l l j j j j l l z x x x _ x [ c { { [ [ [ { [ A { { } } } } } } } { x x j 8 @         X $ : 7 g ) ' %.%.%.] ' ` ' ' 7 %.-.>.g %.<.>.l.l.F.P.i.q.q.q.q.q.i.H.K.K.K.K.H.0.7.;.-.%.@.+.+.@.@.@.@.@.@.@.@.@.@.@.@.$.j..X@X@X@X.X#XoX*X[.].J.;.' ' ' ...... .| ..&.;.;.<.<.>.:.:.:.j..X$X0XkXzXkXkXrX>XoXT.j.L H F i p p p J K O.u.u.u.t.q w q q e e e r f f f f f f f f f f f f ",
"d M m m m m M m m m m m m m m m n n m e e w w e.u.u.u.|.xXvXMXMXGXGXHXHXHXAXAXMXiXwXwXwXwXwXeXeXqX4X).U.f.$.#.#.O.O.O.#.=.f.g.g.l.>.>.&.%.' ' ' _ ' ' ....;.;.;.-.%.+.P H H P P P O.O.#.#.#.$.#.#.#.#.#.#.#.#.$.#.$.s.$.$.#.( ( I I ( I I I I ( O.$.=.f.g.g.j.j.j.j.j.j.j.f.j.T.).E.F.x.g.>.<.>.<.-.-.>.>.-.:.] @.u @.' T K K ` +.:.x.x.g.$.@.+.` J 5 $ @ J.K.W.K.K.J.H.H.c.c.c.0.0.c.0.c.c.H.c.H.H.z.0.0.8.5.5.&.| ..| Y x x z z l j l l l l z x x x Y c A { { [ [ { [ { { A { } } { { } } { { x x k l = O .       . $ : 6 g U ' @.%.%.] ' ) U U y 6 -.>.%.y %.>.:.:.g.A.F.L.H.6.6.6.6.H.K.K.K.K.K.z.8.7.;.%.%.@.@.@.@.@.+.+.@.@.@.@.@.@.@.@.f.N.U..X.X#X>X*X*X[.[.W.0.&.&.;.5.;.5.X.X.o.o.;.;.7.9.9.<.f.f.h.T.XX$X0XjXjXjX$X#XT.I.d.( I ( P P P P ( ( / u.u.u.e.w q q q e e r r r f f f f f f f f f f f ",
"d M m m m m M m m m m m m m m m m n m e e w 0 ^ u.u.u.Z.xXvXcXMXAXGXHXHXGXGXAXMXiXqX7XwXwXwXwXwX6X:X).U.f.#.#.O.( ( O.$.:.g.g.<.>.>.%...' _ U U U z U ) | ..&.&.-.%.+.` H H P P P O.#.$.s.s.s.#.#.#.#.#.#.O.O.O.#.#.$.$.$.#.( ( ( ( ( I I I I I O.$.:.g.g.g.g.g.x.g.g.x.Y././.R.D.x.g.g.<.>.:.:.:.:.-.%.%.] +.@.a y ` T K J K ` @.g.x.g.f.:.$.+.` K u ; . &.K.K.K.K.K.J.H.H.c.c.q.0.0.q.c.c.H.c.c.c.c.z.0.7.5.&.&.X. .| [ Y x z l l l l l l k z x x [ c c A { [ { [ A { { { { { { { } } { } A A c x k 8 * .         # $ : 5 g U ) ] %.@.` ' U K U g X U %.-.J ' -.-.-.-.>.g.A.L.W.K.6.3.6.H.K.K.K.K.H.8.7.;.%.%.@.@.@.+.+.+.+.@.@.@.@.@.@.@.@.f.b.U.XXoX&X>X*X*X[.[.].c.7.5.5.8.8.5.5.o.X.o.o.;.7.9.9.l.g.j.h.N.T.XX#X$X$X#XXXT.I.j.s.( ( #.( ( ( ( ( ( r.u.u.u.^ w w q e e e r r r f f f f f f f f f f f ",
"d M m m m m M m m m m m m m m m m n n m e w 0 C u.u.u.C.iXxXcXmXNXGXGXGXGXGXNXcXuX9X6XqXwXwXwXwX4X;X).I.f.#.#.( ( ( #.f.g.g.g.g.>.-.%.' U U z g g a a z U | ....&.%.@.` P H H P P O.#.s.s.d.s.s.$.#.#.#.O.( ( O.#.#.$.$.#.#.#.#.O.O.O.O.( ( ( O.#.$.f.g.g.D.D.D.D.F.R.E.Y.D.A.l.l.g.g.<.:.-.>.<.<.>.%.@.U ` U y u u T K J p T ` @.g.g.g.:.=.@.@.` T p 5 $ * H.K.J.K.K.H.H.q.q.q.0.q.q.0.c.c.c.H.c.H.c.0.0.0.5.5.4.&.X. .[ Y x x z k k k l x x x x x c [ A [ [ A A [ { { [ { { [ [ } [ [ { [ A c c k j 8 @ .         X $ > 6 u K ) ` @.] ) ) U g g u # < ) >.] u %.%.%.%.%.-.-.<.g.F.L.H.0.0.H.K.K.K.K.c.9.>.-.%.%.%.@.@.@.@.@.@.%.@.@.@.@.@.@.j.I.T.oX&X*X*X*X[.[.[.].K.0.7.8.8.8.6.5.5.o.X.X.o.7.9.9.l.g.j.h.h.N.N.U.U.U.N.N.N.h.d.s.s.s.s.s.s.p.p.p.d.t.u.u.u.C q q q e e r r r r f f f f f f f f f f f ",
"d d m m m m M m m m m m m m m m m n n e e w 0 w t.u.u.V.1XvXlXcXMXAXGXGXGXAXNXcX0X3X3X6X7XqXwXwX4X;X).U.f.#.#.O.( ( f.j.g.x.x.l.>.%.] ) U z a u 7 6 6 7 g U [ | ..%.] ` T H H P P #.$.f.f.f.d.s.s.#.#.O.( ( ( ( O.#.$.$.$.$.$.#.#.#.#.O.O.O.#.#.#.=.f.g.x.x.G.!.R.F.l.D.D.x.x.l.g.:.%.-.>.l.A.A.U $   + : U T K 7 u K J u J J ` @.f.g.f.f.:.$.@.O.T K y ; . [ H.H.H.H.H.v.c.c.8.c.q.q.c.c.c.H.H.c.H.c.z.0.8.7.5.&.4.X. .[ [ x x x x x x x x x x x c [ [ [ [ [ [ S { A { [ { { { { { { { A c k k x k j = O         . + $ : 5 u g U ) ` ' U U g g a 7 $ X g %.>.< K %.%.@.%.-.-.-.>.<.<.-.F.[.K.K.K.].K.K.S.<.>.:.>.:.:.:.:.:.:.:.:.:.:.:.:.%.-.j.U.E.(.*X*X*X[.[.[.[.].K.0.0.8.8.8.5.5.o.X...X.o.5.5.9.l.g.j.h.h.h.h.d.d.d.d.d.d.d.p.s.s.p.p.s.s.a.d.d.d.u.u.u.t.q w q e e r r r r f f f f f f f f f f f f ",
"d M m m m m M m m m m m m m m m m n n e e w 0 w e.u.u.u.|.zXzXlXMXMXAXGXAXNXMXlX1X`.}.3X6XqXqX4X4X'.!.I.:.@.#.#.O.#.f.j.x.x.x.A.-.%.' U g a 6 5 5 6 6 7 8 g z _ ' ' ' ` T K H P P O.#.f.f.f.f.s.s.#.#.( I I I I O.$.s.s.s.$.$.$.$.$.$.$.#.+.@.@.$.:.:.g.Y.Y.F.x.D.D.A.x.A.l.g.:.:.<.A.A.<.' 1 X o # X : g p K y 5 u J u a a K ` +.:.:.:.:.%.@.@.+.` K G 5 $ @ 0.K.K.K.H.v.c.c.0.0.0.q.c.c.v.H.H.H.H.c.0.0.0.8.5.5.X.X. .{ [ c c x x x x x x x c c c A c [ { [ [ A A S A { { A [ A [ A A c x k k k l 8 * .         X # $ > 6 u g U ) ) ) U K g a g 7 % X 5 ) ] g K ) %.<.9.<.>.-.%.:.:.<.g.>.<.l.J.W.].].J.l.l.g.g.g.g.g.g.g.g.g.<.<.>.>.:.-.-.g.I.E.E.[.[.[.[.[.[.].K.K.0.0.8.8.6.5.o.X.[ [ | ..;.5.7.g.j.j.h.h.h.h.d.d.d.d.d.a.a.a.d.d.d.d.a.d.d.d.h.B.V.u.u.e.w w q e e e e r r f f f f f f f f f f f f ",
"d M m m m m M m m m m m m m m m m m e e e w w w ^ u.u.u.C.iX0XjXcXMXMXNXNXMXjX2X+X_.`.}.3X3X3X3X%X!.Y.A.:.@.@.#.O.$.j.g.x.x.D.l.>.%.' U a 7 6 5 5 5 < 6 6 a a z ) ) ) T P K H L P I $.s.f.h.f.s.s.#.O.( I P P I #.#.s.$.f.f.f.:.=.=.=.=.$.$.$.$.:.g.G.Y.F.D.D.x.A.l.l.l.l.g.g.l.l.g.%.g ; X X + + $ K K y ' %.) 5 : t y u u K T +.*.:.:.:.%.+.@.+.` K J 5 : . j H.K.H.K.H.v.c.v.c.c.0.q.c.c.c.H.H.c.c.c.0.0.0.5.5.5.X.X. .[ c [ c c c c x c c c c A A [ [ [ [ { A A A { { { { [ A A A c x x x k k j = @ . .       X $ % < 5 7 a J U U ) U U a a y 7 & + # & ] K y @.g < a ] >.:.-.>.>.>.>.<.<.>.>.<.S.L.L.F.A.l.l.l.l.l.l.l.l.l.l.<.<.>.:.-.-.:.x.Y.E.W.].[.].].K.K.H.H.0.0.0.5.5.5.o.X. . .X.X.;.5.>.g.j.h.h.d.d.d.d.d.a.a.a.a.a.a.a.d.a.a.a.d.d.h.j.V.u.u.u.^ w w q e e e e r r f f f f f f f f f f f f ",
"M M M M M M m m M M M m m m m m m m m e e e w 0 V u.u.u.V.1X0X0XjXlXcXcXmXjX2X#XY.P.~.~.'.'.'.'.^.G.D.g.@.@.@.@.#.:.g.g.x.D.D.g.>.-.@.) U J g a g g g g g g z U ) ) T P K J H L L O.#.s.f.h.h.s.s.#.#.O.I I I Q #.$.$.f.f.j.g.D.I.D.D.D.I.D.D.F.R.G.D.D.D.D.D.D.x.D.l.l.l.l.g.-.@.J % $ X X X % : ' ] g K ` u ; # % 5 5 t u J T ` +.$.@.%.$.+.+.+.` ` J p 1 # X } H.H.H.H.H.c.q.0.q.q.q.c.c.c.H.c.c.c.c.c.0.0.8.6.5.5.X.X.{ [ { c c c c c x c c c A A A A [ [ A A [ { A { { A A A A c x x x l l j 8 * O .         # $ : : 5 u a g g U K K g g u u 7 : X # X u ) $ U -.] . . a -.<.l.<.-.>.>.;.>.<.<.:.-.>.l.S.S.A.A.A.A.A.A.A.l.l.l.<.>.:.-.%.-.g.x.J.J.L.J.c.z.S.S.S.0.0.8.8.5.;.5.;.X.X.X.X.X.&.5.7.<.f.h.d.d.d.d.d.a.a.a.a.a.a.a.a.a.a.a.a.d.d.h.j.V.u.u.u.M q q q e e r r r r r r f f f f r r f f f f ",
"M M M M M M m m M M M m m m m m m m n e e e w 0 0 r.u.u.V.Q.+X+X2X1XjXjXjX1X#XI.<.A.G.L.R.!.!.Y.F.g.f.:.@.@.@.@.#.$.f.j.g.x.x.<.>.%.@.` ) U U U U U U U U U U U ) ` ` T K H H H L I #.s.f.h.h.h.s.s.#.O.I I P O.#.$.=.f.g.D.Y.!./././.^.^.E.Y.F.D.F.D.D.x.x.D.D.D.D.A.<.-.%.@.U : $ X + X # % 1 ' ` ] ) u p 1 > & $ 1 t t p J T T ` +.+.@.@.@.@.+.T T K p 5 & + = 6.H.H.H.c.v.c.H.q.0.q.0.c.v.H.H.c.c.c.c.q.8.8.6.6.2.2.X.} { [ [ [ A A A c c c A c A [ A [ A A A A A A A S { A S A A x x k k j j = * . .         # % % > 5 5 u a g g g a a a u 5 5 $ X % & 5 g % u J ] '   X X 5 ' >.>.) J @.] %.;.>.<.g.>.>.g.l.F.G.A.l.A.A.l.l.g.<.<.-.-.%.%.:.g.l.x.l.l.9.9.9.9.9.9.9.9.7.;.;.;.;.;.&.&.&.&.;.5.;.>.f.s.d.d.d.d.d.p.a.a.a.a.a.a.a.a.p.a.d.d.f.j.m.V.u.u.r.q w q q e e e r r f f f f f f f f f f f f f ",
"M M M M M M m m M M M m m m m m m m n e e e w 0 w w.u.u.V.M.Y.T..XXXXX#X#X.Xm.=.-.<.m.A.F.F.D.g.:.@.@.O.+.@.+.@.@.+.$.:.f.g.>.:.%.%.+.` ) ) ) ) ) ) ) ) U U U ) ) ` ) T K H H H L ( #.s.h.h.h.h.s.s.#.O.O.I I O.#.$.:.j.D.Y.R.^.(.OX(.R.Y.G.D.D.D.D.x.x.x.A.D.A.l.<.:.-.` u > % $ $ # # $ % : a ' ` ) u & 5 ; % X + 1 5 y u J K T T +.+.` +.+.+.+.` ` K J u 1 # . x 8.H.c.q.c.q.q.q.q.q.q.q.q.q.q.q.q.q.q.q.0.8.6.5.2.X.} { { { { { { A A c c c c A c A A [ A A A A S { { A c A A c x x k k k j 8 * @ . .       X $ % & > 5 5 y 7 a a a g a a u 5 5 # . $ 5 X g : : : + g ] $ . X X > U @.a u ' %.%.%.-.>.<.<.<.<.g.l.A.G.G.A.l.<.<.>.>.:.-.%.%.@.:.:.>.>.-.-.-.-.>.>.>.>.>.;.-.&.%.&.;.;.;.;.;.;.;.>.:.:.s.s.d.d.d.p.p.p.p.a.a.a.a.a.a.p.d.d.d.j.f.y.u.u.u.^ 0 w q q q e e e r f f f f f f f f f f f f f ",
"d d M M M M m m M M M m m m m m m m m e e e w 0 w C u.u.u.V.j.j.j.N.U.U.N.f.@.@.@.=.:.,.g.g.=.@.` ~ ~ ~ P ` ` ` ` O.O.@.$.=.%.%.@.+.` ` ) ) ) ) ) ) ) ) T T ) ) ) ` T P P H H H L I #.s.h.h.h.h.d.s.#.#.O.Q I O.#.$.$.j.D.Y.R.(.).E.Y.G.D.D.x.x.x.l.x.A.A.l.l.g.>.:.' a - % % $ $ $ $ : 5 y ) J t $ X . . $ : & X $ > 1 t u J K K T ` ` ` ` ` O.` ` T T ` u 5 : + * } 0.q.q.q.c.c.q.q.0.q.0.q.q.c.c.q.q.q.0.8.8.6.5.2.2.} } } } { { [ A A A c c A c c c A A A A A A { { A c A c c x x k k j j j = * O .         $ $ % % : > 5 5 7 y u u a a a g 7 < # . + K ) : $ < g 5 X : ' ' 6 # + # U -.' ) ' ..%.%.%.-.:.<.<.<.<.<.<.l.A.A.A.<.>.-.-.-.-.%.%.@.@.@.@.@.@.@.@.%.-.-.-.;.;.%.-.-.;.;.;.-.;.;.;.;.;.-.=.=.s.s.s.s.p.p.a.a.a.a.a.a.a.a.a.d.d.d.j.g.t.u.u.u.C w q q q q e e e e f f f f f f f f f f f f f ",
"d d d M d M m m m M M m m m m m m m m e e e w 0 0 w t.u.u.u.=.O.#.$.s.$.O.O.` ` ` O.@.@.@.O.` ~ ~ P P K P P P ~ ` ` ` O.+.+.+.+.` ` ` T T ) T T T T T T K K K T ) T K K K P H H L I #.s.h.h.h.h.d.s.#.#.O.O.I O.#.$.$.f.x.G.^.E.Y.G.D.D.D.x.x.x.l.x.x.l.g.g.<.%.] ) J 1 : % ; : : : u a 7 : X o : % X . . # % : X $ 1 1 y p G T K T T ` ` ` ` ` ` ` ` T T G y 1 # . = 2.0.q.q.q.q.q.q.c.q.q.0.0.0.0.0.q.0.0.8.6.5.5.5.2.} } } } { { { S A c c c c c A c A A A A A A c [ A A c x x x k k j j j = * @ . . . .   . % $ % & % : < < < 5 5 u a a y a u : + . . # g :.7 $ 5 u < 5 % 5 5 $ # # X u ] ' a a U ' ' @.@.%.-.>.<.<.>.>.>.>.g.l.l.l.>.-.-.-.%.@.@.@.@.@.@.@.@.@.@.-.-.-.-.%.-.-.-.-.:.-.-.-.-.-.-.%.=.$.$.$.s.s.p.p.p.a.a.a.a.a.a.a.p.d.d.f.f.,.u.u.u.r.q w q q q q e e e f f f f f f f f f f f f f f ",
"d d M M M d e m m M M m m m m m m m m e e e e w w 0 w.u.u.u.e.( ( ( ( ( ( P ~ ~ P P P ~ P P P P P P P K P K K H P P P P P P P P P P K K P K P P K K K K K K P K K K K K H H H H L I #.s.f.h.h.h.d.s.#.#.O.( ( O.#.#.$.j.T.!.Y.F.D.D.D.l.l.l.l.l.x.g.:.-.:.%.` ` J 5 J a g u 7 : $ X X X # $ : 5 > #   . X $ : + X - t 5 y p J G K P T T ` T ` T T ` T ` P J u 5 % + . k } 6.q.8.q.q.q.q.q.q.q.q.q.0.8.6.8.6.8.5.6.5.2.2.} } } { { { { A c c c c c c c c A v A A A A A c c c c x x k k l j j j = * @ . . .     + % % $ $ % : > : : > 5 7 y u u 7 7 : # # . X # 7 U u g $ 5 $ # + $ $ # X X + + : 5 # X > ) @.] @.-.:.-.-.<.>.<.<.<.g.l.l.l.S.A.>.%.=.$.@.@.@.@.=.-.-.-.%.-.-.-.-.-.-.:.-.%.%.%.%.%.%.%.%.@.@.$.$.s.p.p.p.p.a.a.a.p.p.p.p.p.d.d.f.:.y.u.u.u.w.w w q q q e e f f f f f f f f f f f f f f f f ",
"M M M M M M m m m M M m m m m m m m m m m e e w w w C u.u.u.t.( ~ ~ P P P P P P P P P P P P P P H P H H H H H H H H H H H H H H F F F F F F F F i i i i i i i i i F H H H F F H L I #.s.h.h.h.h.s.s.#.#.( ( I I #.g.T.R.Y.D.D.D.D.l.l.l.l.l.g.>.-.@.@.-.-.` K g > % $ # X X . . X # $ % $ : 1 5 & .   X X $ : $ $ - 5 t 5 u p J K K K T T T T T T T T ` K J J u 1 # . @ x 1.6.q.q.q.q.0.0.0.0.q.q.0.0.0.8.5.6.5.6.4.2.2.X.} { [ { { A A c c c A c c c c c A c S { A A A c c x x k k k k j j 8 * @ . . .   . . % $ % % $ % : : > : < 5 5 6 5 7 7 5 ; # . X X # & 7 X $ $ + X # $ $ # $ + X X X X + X X # # < ) %.-.-.-.-.-.>.<.l.l.<.>.<.g.l.A.A.A.l.:.@.@.@.:.-.-.-.%.%.%.%.%.%.%.%.%.-.-.%.@.@.%.%.@.@.@.@.$.#.s.p.p.p.p.a.a.a.p.p.p.p.p.d.d.f.,.t.u.u.u.~ w w q q r r r r f f f f f f f f f f f f f f f ",
"M M m M M M M m m m M m m m m m m m m m m e e e w 0 n t.u.u.u./ ~ ~ P P P P P P P P P P P P P H H H H H H H H H H H H H F H F F F F F F i i i i i i i i i i i i i p F F F F F H L I #.s.f.h.h.h.s.s.#.#.( I #.I./.E.Y.D.D.D.D.l.g.g.l.g.g.>.:.@.@.@.%.@.g 5 X X X X X # X X + + # $ % % $ - 5 5 X   . + X $ : X # : 5 5 y u p J K K P T T T T K K T T T K K J i 5 : + . = c } 6.8.q.q.q.q.8.q.0.q.0.0.0.8.6.8.6.5.4.X.2.} } { [ A A A c c c c c A c c v A A A S S S A v c x c k k k j j j 8 = * @ .       . X % $ $ $ $ % : : : : : 5 < 5 5 5 6 5 & X . . X $ % % . + # # # # # # # + + X X X X X + X X # # % 7 g ) ] -.-.-.%.-.-.>.<.<.<.>.<.<.<.l.S.l.<.%.=.%.-.%.%.@.@.@.@.@.@.@.@.@.%.@.@.%.%.@.@.@.@.@.#.#.( p.p.p.p.a.a.a.p.p.p.p.p.d.d.f.,.u.u.u.t.q w q q q r r r r f f f f f f f f f f f f f f f ",
"M M e e m e m m m m m m m m m m m m m m m e e e w 0 w w.u.u.u.e.P P P P P P P P P P P P P H P H H H H H H H H H H H F F F F F i F i i i i i i i i i i i i i i i i i F F F F F F L I #.s.s.h.h.s.s.s.#.I f.XX/.R.G.F.D.A.A.g.g.g.g.l.g.>.-.-.%.@.%.] 5 o $ # # X X X # # X + X X # $ : : % : 5 : .   . + X # : % X $ y t 5 y u J K K K K K K K K T K T K K K J p u 1 $ X O j c { 5.8.q.q.0.8.q.0.q.q.q.0.0.6.6.6.4.4.2.X.} { { { { { A c A c c v c c A A A A A A A S v A c c k k k j j j j 8 = * O .         % ; % $ $ $ : % : : : : > > 5 5 1 < : $ # . . . . X X + $ $ # X $ + # # # $ # X X + X X X X + X < u u > % $ : u g U U ' ] %.-.<.<.<.>.>.>.<.l.R.A.:.%.%.%.@.+.+.@.@.@.@.@.@.@.%.%.-.%.%.%.%.@.@.+.#.#.p.p.p.a.a.a.a.a.a.p.p.p.d.d.f.y.u.u.u.w.q q q e e r r r r r f f f f f f f f f f f f f f ",
"M M e e m m m M M M m m m m m m m m n n m m e e w w w C V.u.u.t.~ ~ ` ~ ( P ( ~ ~ ~ ~ P P P P P P P P H H H H F H F F F F F i i i i i i i i i i i i i i t i t t i i i i F F F F L I #.s.s.h.h.s.s.s.j./.E.R.Y.G.D.A.x.l.g.g.>.>.>.:.%.%.>.@.g 5 ; u 5 $ X X X X X X X X X X X + $ : ; : - 1 5 $     X $ X # > % $ $ y t y y u J K K K P K K K K J K K T T K J G u 5 : $ . @ k A } 5.6.8.8.6.8.8.0.0.0.8.8.8.6.6.5.5.2.1.} { { { A A A A c c c c c c c A A c A S { S A c c k k k k k k k j = * @ . . .     # : % $ $ $ $ $ % & & ; : : 5 5 5 5 5 & $ + . . X X X . X X X # & $ & $ # : # 7 a < $ o X X X % < u $ $ $ $ # $ $ % > g K K ) ' %.%.-.-.<.<.<.<.<.l.A.A.g.@.+.+.+.+.+.+.+.@.@.@.@.@.@.%.%.@.@.@.@.+.#.#.s.s.s.s.d.d.d.d.a.p.p.s.s.s.=.t.u.u.u.~ q q q e e r r r r r r f f f f f f f f f f f f f ",
"M M e e m m M M M M m m m m m m m m m m m e e e w 0 0 n r.u.u.u./ ` ` ` ` ` ` ` ` ` ` ` ` ` ` ` ` ` ` ~ P H H F F F F F F F i i i i i i i i i i t t t t i i t t t i i i i F F F F I #.s.s.d.s.h.I./.!.R.Y.G.D.A.l.g.<.:.-.%.@.@.%.@.@.K 5 $ $ u J : # + X X X X X X X X X X # # $ : - : : 1 - X     X $ X X : % % $ 1 t t y J G J K K K J J K K J K K K T K K G u u 5 $ + . * k { 2.2.6.6.6.6.6.6.8.8.0.0.0.6.6.6.2.2.2.} { { S A A A c c c c c c A A S S A S S A c v c c k k k k k k j j = @ O O . . .   : & $ $ $ $ $ $ % % & % : & : > > > : % # + . X X X X . . + & X X X # $ < 5 % : y a 5 : & y ) ] ) g 6 & $ $ $ # $ # $ y ) ] %.-.-.%.:.>.-.-.>.>.<.<.l.l.D.G.g.@.` ` +.+.+.+.@.@.@.@.%.@.%.@.@.@.@.@.#.#.$.$.s.s.s.s.s.s.s.s.s.s.s.$.y.u.u.u.r.e 9 w q e e r r r r f f f f f f f f f f f f f f f ",
"M M e m m m M M M M m m m m m m m m m m m e e e w 0 0 0 w.u.u.u.r.` ` ` ` ` ` ` ` ` ` ` ` ` ` ` ` ` ` ` P P H F i i i i i i i i i t i i t t t 3 t t 3 t 3 3 t t t i i i i F F F F I #.s.s.j.T.).!.Y.Y.G.D.A.l.g.:.%.@.+.` ` ` -.` p $ - > 5 J a $ X # X X X X X X X X X + + # $ : : : : > > $ .   . + $ $ X > % & $ : t t t u G J K K J K K J K J J K K K K K K J u 7 : # . O * x { 1.2.5.5.6.5.5.6.6.6.6.6.6.6.2.2.} } } { S { A c c c c c c k c v A A S A A v c c c c k k k k j k j j j * @ O O . . . # > ; $ $ $ $ $ & $ % % % % : : : : : : $ # + . . X X # . + 7 a < X X X X X X & u u U ) ) ) a u U : X # # $ $ $ # # # $ $ a ' %.%.:.>.>.<.>.-.-.-.:.-.-.>.g.l.F.L.S.:.+.' ` +.@.@.@.@.%.@.@.@.@.@.@.@.@.@.#.$.$.$.s.s.d.d.d.d.f.d.f.f.t.u.u.u.w.w w q q e e r r r r f f f f f f f f f f f f f f f ",
"M M m m m M M M M M M m m m m m m m m m m e e e e w 0 0 C u.u.u.t.~ P ` P P P ~ ~ ` ` ` ` ` ` ` ` ` ` ` P K J F i i i i i i i i i t i t 3 3 t 3 3 , 3 1 3 3 > 3 3 i i i F F F F L L O.b.oXE.!.R.Y.F.D.x.l.g.-.@.' T K p J ` ) 5 $ 5 t 1 5 J 5 $ # X X X X X . . X X X X # # # $ : % - - 1 & +     . # $ $ . 5 > % $ $ 5 y u u G G K K K K J K K K K K K K K K G p p u 1 $ + . @ = x S } 1.2.2.3.3.6.6.6.6.5.4.2.2.} } 1.} S S S A A A c c k c c c S v A A S A c c c x k x k k k j j j j 8 * @ O O O . . 1 : $ $ $ $ # % % % & $ & $ % & : : : & $ # # . X . X X . X 6 g u X X + X X + # X . X : g ) u : # # # X $ $ $ # X X . X X X $ # # : 5 ) %.>.<.>.-.%.%.%.-.-.-.<.l.S.F.F.D.-.@.@.@.@.@.@.@.@.@.@.@.@.@.@.@.@.@.$.=.f.f.j.j.j.j.g.j.g.m.V.u.u.u.C w w q q e e r r r r f f f f f f f f f f f f f f f ",
"M d m m M M M M M M M m m m m m m m m m m n e e e w 0 0 w r.u.u.u./ J K J K P P K K P P K K P P P P ) T K K H i i i i i i i i i i i t 3 3 3 3 > > 1 > > > > > 3 3 i i i F H H L $.I.E.^.!.T.Y.G.D.l.g.>.%.' ) ` ) T K J u - ; - 1 5 t p g 5 $ X X # X X X X X X X X X X # $ & : ; - : > > $ . .   . $ - % . > : ; % X 5 u t y p G J K K K J J K J J K K J K K J p a y 5 : # . . * 8 c A } } 2.} 2.2.5.5.5.6.4.2.2.2.} } { A A { A A c c c c c c c v v c c c c k c k k k k k j k j j j h = * @ O O O . $ > ; $ $ $ $ $ $ $ $ $ % $ : % & % : : : $ # + . X X + X . X 7 y 7 % # X X X X X X X X X X X $ : % : $ # $ $ X + $ < K ) ) U % X # $ $ $ > K ' %.-.-.-.%.%.%.%.%.%.>.g.A.S.S.S.l.:.@.@.@.@.@.@.@.+.@.@.+.@.+.@.$.:.:.,.<.g.g.g.g.g.g.M.u.u.V.r.q 9 w q q e e r r r f f f f f f f f f f f f f f f f ",
"M M M M M M M M M M M m m m m m m m m m m m e e e w 0 0 w ^ u.u.V.r.F F F F H F G G H H J J J K J K P K P H J i i i i i i i i i t t 3 3 3 > 3 > > > > > > > > 3 1 i i H H ( f.Y.).E.E.R.Y.Y.D.l.g.:.@.@.+.] ) ) u % $ X $ < 5 1 5 y p p 5 $ # X X X X X . X X X X X + + $ % : ; : : : > % X .   . X # : : X : : & & + > 5 y y p p G J G J p J G J K K J J K J K J G y y < $ + . O * j c { } } 1.2.2.2.2.2.2.2.2.2.1.1.} { { { c v v c x x x c c c c c c c c c x k k k k k k k k j j j j * @ @ O . + u 5 : % % % $ # # $ $ $ $ $ % & & % & & : $ $ X # . X . X X . . $ 5 7 5 + + X X X X X + X X X + X X X # $ $ 5 6 > 5 < : u U 7 % : 5 $ $ : : % $ $ < a ) %.%.%.@.] ] ] %.%.>.g.l.l.A.A.l.<.@.@.@.@.+.@.@.@.@.@.+.@.%.%.:.:.>.>.>.>.<.<.<.t.u.u.u.^ w w w q q e r r r r f f f f f f f f f f f f f f f f ",
"M M M M M B B M M M M m m m m m m m m m m m e e e e 0 0 0 N t.u.V.t.~ 3 > , 3 3 3 t i i i i i i i i F H J H F i i i i i t t 3 3 3 t , 3 > > > > > > > > > - > > > 3 F P g.XX/.R.!.E.Y.G.D.g.:.=.%.-.] ` : %   . $ % & : < > > 1 t u p 5 % # X X X X X X X X . X X + # $ $ & - > 1 > : - $ X . . . + $ - 5 X $ 1 & % $ % t y u p G G J G G p K G J J J J J K J J G G p y 5 : # . . @ = j v A { } { { } } } } 2.1.2.1.} } { A A c c c x k k k k k k x c c v v k x k k k k k k k k k j j = * $ # 7 %.R.l.y % % $ $ $ $ $ $ $ $ $ $ % & & % & & % $ # + + . X X # X . . # u a a # # X X X X X X X + X + X # # $ $ X X $ 5 a g 7 > & $ % g 5 $ % % % % % $ $ $ $ u ) ] @.@.-.] ] ] %.%.>.<.l.l.l.g.l.l.>.@.@.@.@.+.@.@.+.@.%.@.-.:.:.:.:.:.:.>.,.V.u.u.t.M w w w q q e r r r r f f f f f f f f f f f f f f f f ",
"B M M M B B B B B B M m m m m m m m m m m m n e e e w 0 0 w e.u.V.u.w.> , > - > > > > > > 3 3 3 3 3 i F F F F i t t t 3 t 3 3 > 3 > 3 3 > > > > > > > - > - > , , O.Y.(.R.E./.E.R.F.g.:.g.g.:.` y $ X + $ ; ; % & : 6 > : 1 - 5 u u 5 & # # X X . X X X X X . X X $ $ $ & - : 1 > - : % # X . . . # $ - 5 $ X 1 : : : X 5 y y u u J p G p J G G J J J G J J J G G J G p 5 1 $ #   O * = k c A A A { { { { { { } } } { { S v c k k k k k k k k k k c c A v v v k k x x x x k k k j = * g ' l.~.~.l.S.U 1 % $ $ $ # $ # $ # $ % $ $ % & $ % % % # # X X . . X X X . . X u K g : + + X X X X X X X X X X + + $ < 6 5 5 : % X $ : : 5 5 : # $ $ % $ % $ # # $ % $ $ u ) ] ' ] ) ' ] ' @.%.-.>.<.<.>.<.<.<.l.%.@.@.@.+.@.@.@.@.@.@.@.@.@.@.@.@.y.u.u.u.e.w q w q q e r r r r f f f f f f f f f f f f f f f f f ",
"B M M M M M M B B B M m m m m m m m m m m m m e e e e w 0 0 ^ u.u.V.t.s - - - - - > > > > > > 3 1 3 i p F F F i t t 3 3 3 1 > > > > > > > > > > - - , > - - 3 =.Y./.R.R.E.!.Y.D.D.g.:.' - - $ X $ ; % % % : : : > 5 : : ; : 5 u p 5 & $ + X X X X X X X X X X X $ % % $ > : > > > > ; $ + . . . X $ % 5 5 $ . 1 : : : X > y y y u p p J p p G J G J G J J J J G G G p p y 5 : # . O @ * h k c v A c A A c c c A { { A c c c k k k k k j j j j k x c v c { A c k k x c x x j z _ ;.L.(.[.[.}.~.S.G.A.5 : & $ $ $ $ # # # $ $ % $ % $ % $ $ & $ $ # # X X X X X . .   . : a g 5 $ + X X X X X X X X X + + X X # $ : 7 u u 6 1 & $ $ & $ $ % : % % $ $ # # $ $ > 5 : ; 7 K U ) ) ' ] ' ] @.%.%.>.>.>.>.>.>.>.<.>.@.+.@.@.@.@.@.+.` ` ` ` ` O.t.u.u.u.~ w w w q e r r r r r r f f f f f f f f f f f f f f f f ",
"M M M M M M M M M M M M M M m m m m m m m m e e e e e e w 0 n r.u.u.u./ - - - - - - > > > > > 3 3 3 i p i p i i t 3 3 , , > > 1 > > > - - > > > > , , - F f././.Y.Y./.R.G.x.g.>.) - # X $ : % % % : % % : : : : > : % & : 1 u p t ; # + X X X X X X X X X X X + $ % : & : - 1 1 > : $ # X . . . + $ : 1 5 : X > > > $ X : 5 t t u u p p p p G G G G G G J J K G G K p u u 5 1 $ . . O * = j x c c A v A c c c c v v c k k k k j h j j h j j j k x c [ { { A c c x x [ | z.R.[.}. X}.[.}.[.~.S.F.S.a > % $ $ $ $ $ $ $ $ # $ $ $ $ $ $ & $ % $ # # + X X X X + . . . . + 5 a y $ # + X # X X X X X X X X + X # X $ : u 7 u a u u > # + X X $ $ $ % $ $ # # $ & & % 5 u a U U ' ] ) ) ) ' ] ] %.%.>.:.>.:.:.%.:.<.:.+.@.@.+.+.] ' ` ` ` ` y.u.u.u.r.e 9 w w e e e r r r r r f f f f f f f f f f f f f f f f ",
"M M M M M M M M M M M M M M m m m m m m m m e e e e e e w w w ^ u.V.u.r.> - - - - - > > > , > , 3 i i i G i i i t t t , , > > > , , - , , , > > - , , j.oXR.R.R.^.!.D.g.g.@.5 . X % & % % % : % : % % : : : : > & % % & > t a 5 : $ # X X X X X . X X X X + # $ % : % - : : > > > & $ # X . . . $ $ : 5 5 > X : 5 1 # $ $ y 5 y y y i p p J p G G G G G J J G G K J G p y u 5 : $ . . # * j k c A A A v v c c k k k k j j h h h h = h j j j k k c E [ [ [ [ ..;.L.5X}.7X X}. X5X}.}.}.}.~.L.L.S.-.y > $ $ $ # $ $ $ $ $ $ $ $ $ # $ $ $ $ $ $ # + # . . X # X X . . . . : u u : + $ X X X X + X X X X X X + X X X + % 7 > > > 5 7 : % # # # X X + # $ $ $ $ $ % % $ % : K ' ) g a K U U ) ' ] %.] %.:.>.>.:.:.%.-.l.@.@.+.@.+.+.' ] ' ] t.u.u.u.^ 9 9 q q e e e r r r f f f f f f f f f f f f f f f f f f ",
"M M M M M M M M M B B M M M m m m m m m m m m m m e e e w w 0 N t.u.V.u.b - - - - > i F H H H H H H P P P P K H F F F F F F F i i i i i i i t , H D./.!.Y.Y.^.Y.x.l.g.K - > 6 u > : : & % % % ; & % : : > : % : $ % & > 5 a t - $ + + X X X X X X X X X X # $ % - : : : : : 1 : - $ # X . . . . $ $ > 5 t 5 X $ t > $ $ # 5 t 5 y i u p G p G G J G G p p J J K G J G G p y 5 < $ z o...] ) z k x c c c k k k k k k j j h h 8 = = = = = 2 l _ &.9.L.[.[.}.5X}. X X}.8X5X}. X X}.}. X X[.~.L.L.9.) 1 - $ $ # # # # $ $ $ $ $ $ # # $ % $ $ $ + + # + . X X X X X X . . . $ 5 u : + + X # # X X X X + X X X X X X X X # X $ $ $ # $ $ $ $ $ $ $ # # X X X $ $ % % : $ % % < < < a U U K ) ) ) ' ' ' ] %.%.%.-.:.-.-.%.:.:.+.+.+.+.+.] ' =.u.V.V.t.M 9 q q q e r r r r r f f f f f f f f f f f f f f f f f f ",
"M M M M M M M B B B B M M M m m m m m m m m m m n m e e e w 0 w w.u.u.u.e.- o - - i J P O.O.O.O.` O.O.O.O.O.O.( ~ ( P P ~ P P P P P P K P H ( m.).E.Y.R.Y.F.D.@.K u - t J a 6 > : > : : : & % % : : : % : % % % $ : > 5 u 5 ; % + + X X X X X X X X X X X # $ & - : : : > > 1 ; : $ + # . . . + $ % > 5 5 5 o X 5 : $ : + 6 5 5 5 y y u p p p p p p p p p J G G G J J p u u t 1 : $ H.~.}. X}.}.[.~.W.L.J.9.9.;.&...&.&.%...;.9.l.S.R.(.[.}.7X5X5X8X X X7X5X5X8X X X5X}.}. X}.}.}.}.[.~.L.L.S.-.p : : $ # $ $ $ $ $ $ $ $ $ $ $ $ # $ $ $ $ # + + + . . X X X . X X . . + < 6 > + # # + + + X X # X X X X + X X X + + # $ $ $ + + $ # $ $ # $ # # # # X X X + # & < 5 : % % % : : K U ] ` ) ` ' ' ' ' ] %.%.%.-.-.:.%.%.<.@.] +.+.] ' r.u.u.V.w.w 9 w q q r r r r r r f f f f f f f f f f f f f f f f f f ",
"M M M M M M M B B B B M M M m m m m m m m m m m n n m e w w 0 w C u.V.V.t.b $ o > H ` +.$.$.$.@.@.@.$.$.$.$.$.@.@.#.#.#.+.+.O.O.+.+.+.O.#.D.OX^.R.R.Y.x.g.:.p X > g U p 5 : & : : & : : : : : & : > > : : % % - ; : 1 u 5 & % $ + X + X X X X X X X X X # $ $ & - : : : > > > : & # X X . . . X $ $ > 1 5 > % X 5 > $ < # : 6 1 t y u y u u u u u p p p J p J J G J J p a y u 5 : $ z L.[. X}.5X7X8X7X7X8XaX8XaXfXfX8XaXfX7X8XaX8X5X7X7X}.5X8X}.7X7X X8X7X X8X5X}. X5X}. X}.}.}.}.[.~.L.L.G.9.' y : & $ $ $ $ $ $ $ # # $ # # $ $ $ $ $ $ # # # # + X X X + X X X X   . X & 5 > $ # # # # X X X X X X # # # X + # + + # $ $ # $ # + # # # $ $ # $ # + + # $ # X X $ : 6 : > : & > g U g U ) ' ' ) ) ) ) ' ' ] @.%.-.-.%.%.<.@.+.+.' =.t.u.u.u.C q 9 w q r r r r r r f f f f f f f f f f f f f f f f B f f ",
"M M M M M M M M M M M M M M m m m m m m m m m m n n n m w w 0 0 w e.V.V.u.w.o $ 3 P +.@.:.:.:.:.:.:.:.:.:.=.=.=.=.=.$.$.=.$.$.$.$.$.#.G.9X/.G.E.F.f.f.g.o o y K J u > > : % % : % & : : ; < : : : : : - : : : : > > 6 5 ; $ $ + # X X X . X X X X X X + $ & % % > : : > - 1 1 : & # X X . . X # $ : 1 > t : 5 X $ < ; : $ $ 5 5 t 5 t u p p p p p u p p p p J J K G G p u u 5 y > : & 0.~.}.7X7X7X8XeX8XeXsXeX8XpXgX7X8XsX7X7XeX8X7XsX8X5X8X7X5X7X7X5XfX5X X5X X}. X}.}.}.}.[.[.[.(.P.L.L.S.%.y 1 : $ $ $ # # # # $ # $ $ # $ # $ $ $ # $ # # $ X . X X X + X X + X . . . $ : 5 $ # # # # X + X X X X # # + $ X # # + # # # $ # $ # # $ $ $ # $ # # # # # # + # # # + X # 5 7 U y : ; : : a ) ' ) ) ) U ) ) ) ] ] @.-.:.-.%.:.:.' ' y.u.u.u.e.w 9 w q q r r r r r r f f f f f f f f f f f f f f f B f f f ",
"M M M M M M M M M M M M M M M m m m m m m m m n m n n m e w w 0 w ^ V.V.V.t.w o , P @.=.f.f.j.j.f.f.:.:.:.:.:.:.:.:.:.f.f.:.:.:.$.j.oX).Y.Y.D.g.f.) % : g U a y 5 1 : : : % : % & : : : : : : : - - : : : : > > > > 1 ; $ $ # X X X X X X X X X X X # # % & : : : > : > : > 1 : $ X X . . X X $ $ - 5 t 1 $ u + & 5 5 : & X 6 t t 5 t u y u p p p p p p p G G G J G J J p u y t 6 > $ ) H.[.5X5X7X8XgX8X8XgXsX8XpXgX8X8XgX8X7XeX7X7X8X7X X7X7X5X8X5X-X8X}.}. X}.}. X}.}.}.[.[.~.[.~.L.S.G.l.) y : $ $ # # $ $ # $ $ $ $ # $ $ $ # $ # # $ # $ # # X X X + X . X X # X . X # & > $ + # # X + + X X X # # X $ $ $ + # # # # # + # # $ # $ $ $ $ $ $ # $ $ # # # # $ # # $ # X + : 7 u 5 5 u g U ) U U ` ) ) U ) ) ' ' ] %.-.-.-.-.>.@.t.u.u.u.^ w q w q q e r r r r r f f f f f f f f f f f f f f f f f f B ",
"M M M M M M M M M M M M M M M m m m m m m m m n m m n m e w w w 0 n r.V.V.u.^ $ , P @.:.f.m.I.I.N.N.N.m.m.N.h.j.j.j.j.j.j.j.j.f.T.OX!.Y.D.g.:.` - : T ) J y 5 5 1 : : : : : : : : : : : : : : : - : : > 1 > > : > 5 ; % $ + X X X X X . X X X X + + # $ & & : > > 1 1 > > 5 > & X X X . . X X $ $ > t y ; - p : X 1 5 : : # 5 5 t y 1 t y t u u p u u p p G G G G G G p G u t t 5 5 % & 5.L.}. X5X7XeX8X8XeXgX8XeXgX7X8XgX8X7XeX8X5X7X7X}.7X5X}.7X}. X7X}.}. X[.}.}.[.[.}.[.~.[.~.L.S.S.F.-.p 1 & $ $ # $ $ $ # $ $ $ $ $ # $ $ $ $ # $ # # # # # X X X X X . X + X X . . # $ : % # + + # + + X X X X # # # $ # $ $ $ $ $ # + $ # # # $ $ $ $ $ # + # # $ # # $ # $ $ # $ # + X X % 7 u K u g a g ) ' ' ' ) U ) U ) ' @.%.-.:.-.-.y.u.u.u.r.q 9 w q q e e r r r r f f f f f f f f f f f f f f f f f f f B ",
"M M M M M M M M M M M M M M M m m m m m m m m m m m n n e e e w 0 0 ^ u.u.u.r.3 , P @.=.j.T.T.T.XX#XXX#X$X#X#X#X#X#X#X.X.XXXXX>X/.Y.D.g.g.) o 5 ) ' p t > 1 5 5 : ; : : : : : : : > > > : : : : : : > : 1 1 > > : : ; # # + X X + X X X X X X X X # + & & : : - : > > > 1 1 : $ X X . . . X + $ % 5 t 5 $ ; G 5 X % 5 : % $ : t y t 1 y y y u u u u u p p J p J J G G G J u u y y 5 < @ Z 0.P.}.}.5X7X7X7X8XsX7X8XeX7X7XeX8X7X8X5X5X7X5X}.7X}.}.5X}.}. X[.}.}.[.}.}.[.[.[.[.~.(.~.L.S.G.S.U 1 : & $ $ # $ $ $ $ $ # $ # $ $ $ $ # # # $ % $ # # X X + # # X X X # X . . . # $ : & # # # # X + X X X X X # # # # # $ $ $ # $ + # # # # $ $ $ $ $ $ $ + # # # # $ $ # # # $ # + # + # X X 6 K u 5 7 u ) ) ' ] ) ) U U U ) ] %.-.>.,.t.u.u.u.^ w 9 q q e e r r r r r r r f f f f f f f f f f B f f B B B f f ",
"M M M M M M M M M M M M M M M M m m m m m m m m m m n n e e e w w 0 n r.u.u.u.^ t P @.=.j./.OX$X0XjX0X0X0XjXjX0XjX0X0XjX0X;XoX/.G.f.f.:.1 u ` ' U 5 5 1 > 5 5 5 : ; : : : % : > > > : > > : : : : 1 > 5 5 1 5 : : % $ $ # + + X X X X X X X + X X # % : > > : : : > 1 5 > 1 % # X X . . X X # X : 5 t - $ - p u $ X 1 > % % : y t 5 1 5 t y y u y y u p p p p G G G p p p p p y y 5 < & 6 9.S.P.[.}.7X5X5X7X8X7X8XeX7X7XeX5X5X7X5X}.7X}.}.5X}.}. X}. X X[.}.}.[.}.}.[.}.}.[.~.~.~.S.G.L.>.p 5 % $ $ $ # $ $ # $ # # # # $ $ $ $ $ # $ $ $ $ # $ # X X # + . X X # X . . X # $ $ $ $ + + X + + + + X X X # # # # # $ # $ # # $ # # # # $ % % % $ # $ + + # $ # $ # # $ # $ $ # + $ # # # # . & U U U u U U ] @.' U ) U U U ) ] -.y.V.u.u.r.e q q q q e r r r r r r r f f f f f f f f f f f B f f B f f f f ",
"B B M M M M M M M M M M M M M M m m m m m m m m m m m n m m e w 0 0 0 ^ u.u.u.r.H P @.=.h.XX;X0X0XvXkXkXzXkXkXkXzXkXkXkX>XoX!.x.g.:.J : ` ' T p > > 1 : : 5 t : : : > : : : : > > : > 1 > : : : 1 1 : > 5 1 > > & $ # # $ + X + X X X X X X X + # # % : : : 1 : > 5 5 5 1 1 $ + X X . . X X $ $ : t 5 ; $ > F u % X : < % % % 7 y y 5 5 t y y u u y u u u p p p G G G G p p u y y 5 > : $ o.9.H.~.}. X X X7X7X7X7XpX5X5X8X5X5X8X-X}.7X}.}.5X}. X5X{.5X X}. X}.[. X}.[.}.}.[.[.{.~.G.~.~.' y : % $ # $ # # $ $ # $ # # $ $ $ $ $ # # $ $ $ $ # # X X # # X X X + $ X . X X # $ $ $ # # # # X X X # X # X + # # # $ $ $ $ $ # # $ # $ $ $ % % % $ $ $ $ $ $ # # # $ $ $ $ $ $ $ $ $ # # # # # X X & 7 g a g g U ) ] U U U U ) ) @.t.u.u.u.^ w q w q q e e r r r r f f f f f f f f f f f f f f f f f f f f f ",
"B B M M M M M M M M M M M M M M m m m m m m m m m m m n m e e e w 0 0 n r.u.u.u.^ ~ @.=.j.XX;X0XtXzXkXtXkXkXkXzXkXkXkX>XoXY.g.g.+.1 J @.T u t 5 : : 1 > > 5 5 - : : : : : > > 1 > : > > > - > > > 1 1 5 5 1 > : $ $ # # + + + X X X X X X X + # + % : : : : : > 1 1 5 5 t : $ + X . . X X + $ $ > t 5 % $ 1 F i ; X & 5 : % $ 5 y 5 5 5 y y y 5 y y y u p p p p p p G J p p a p y t 5 : $ g 9.0.P.[. X X}.7X7X5X7X8X5X5X8X4X5X7X}.}.5X}.}.7X}.7X5X}.7X5X}.5X}.}.5X}.}. X X[.}.}.~.!.{.9.p 1 : $ $ $ $ # # # $ $ $ # # # $ $ $ # $ $ $ $ $ $ $ # X X # # X X X # # X . . X $ $ # $ $ # # + X # X X X X X X # # $ $ $ $ $ $ $ $ # $ $ $ $ $ % $ $ $ $ $ $ # $ # $ $ $ # $ $ $ $ $ $ # $ # $ $ # $ # X # u U y g g K ) ) U U U U e.u.u.u.r.M 9 q w q q e r r r r r f f f f f f f f f f f f f f f f f f f f f ",
"B B M M M M M M M M M M M M M M m m m m m m m m m m n n n m e e w w 0 w ^ u.u.u.t.~ @.=.j.T.oX&X0X0X0X0X0X0X0X0XrXkX$X/.x.g.f.> K @.` p u y 5 > 1 > 1 > 5 5 > : : : : - - : > : > : : > 1 - > : 5 1 1 t 5 > : % $ $ # X + + X X + X X . X X X X # $ & : : 5 : : 1 5 t t 5 > # X . X . X X # $ % 5 t 5 % $ 1 p p 1 X $ > % % $ > 5 5 5 5 5 5 5 u 1 y y u p u a u p G p J p p p y y t 1 > % & L.0.L.~. X}.}.7X7X5X7XeX5X7X8X5X5X8X}.}.7X}.5X7X}.7X7X X7X5X}.7X X}.7X}.}.8X X}. X}.P.`.}.' y : : $ $ $ # # # $ $ $ $ # # # # $ # $ $ $ $ % % $ $ + # + # $ X X # $ X X . . # $ % $ $ $ # + + + + X + X X X # $ # # $ $ $ # # # # $ # $ $ % % % % % $ % $ $ $ $ $ $ % $ $ $ $ $ $ $ # $ # # $ # $ # # + # X . a g 6 u a U ) U U ` t.u.u.u.^ w 9 q q q r r r r r r f f f f B f f f f f f f f f f B B f f f f f ",
"M M M M M M M M M M M M M M M M m m m m m m m m m m n n n m m e e w 0 0 N r.u.u.u.e.@.:.f.N.T./.#X+X$X+XXXXX$X+X$X$X/.x.x.+.y @.` K y y y 5 5 5 1 > 5 > 1 5 : : > : : - : 1 5 > > : : > > > > : 5 5 5 5 1 > % $ $ $ # + + X # X X X X X X X X + # & : : : : : 1 5 t y t t % # X . . . X X # # ; 5 t > $ % t p F 5 X X < > % # % y 5 1 5 6 5 u t t t y y u u u u p p p J p p u p u u t 5 : % >.S.L.[.}.5X5X7X7X5X8XsX5X7X8X5X7X7X}.5X7X}.7X7X XsX7X5X8X X X8X}.5X7X X7X8X}.}.7X~.~.}.S.a t & $ $ $ $ # # # $ $ $ # $ $ # $ $ $ # $ $ $ & % $ $ X # # # X X # # # X X . . $ $ % $ # % # # X # # X X + + # X # # # # $ $ # $ # # $ # $ $ % % % ; % $ % $ % $ # # $ % % $ $ $ % $ $ $ $ # $ # $ # # # # & % $ X # K a y 5 a U U w.u.u.u.r.M 9 9 q q q r r r r r r f f f f f f f f f f f f f f f B B f B f f f ",
"M M M M M M M M M M M M M B M M m m m m m m m m m m n n n n m e e w w 0 0 ^ u.u.u.t.=.:.f.f.j.N.I.I.I.I.N.N.N.I.$X/.D.g.J T @.T p y t y t 5 5 1 1 5 > 1 5 > : > - : : > : : 1 1 5 > 1 5 > > : 1 5 5 > 1 > : & $ # $ X # X # + X X X X X X X # # $ % : > : - : 1 5 t t t 5 % X X . . . X X $ $ : t t : $ ; t p p t X X ; 5 : % $ 1 y 5 5 y t t t t t t y u y u u u u p u p p p a u u y 1 > & & S.H.~.}. X5X7X7X5X7X8X7X8X8X5X7X7X}.7X8X5X8X8X7XsX7X7X8X X7X7X X7X7X X8X7X}.5X X~.~.}.U u : $ $ $ $ $ $ # # # $ $ $ # $ $ $ $ $ $ $ % $ % $ % # $ $ # $ X # # $ # X . . X % % $ $ $ $ $ + # # X + + + + # # # $ $ # $ # # $ # # # # $ $ % % % % % % $ % $ $ $ $ $ % $ $ $ $ $ $ $ $ $ $ $ $ $ $ $ % : 5 a a 6 & X 6 a u 7 7 ~ t.u.u.u.^ q 9 q q q r r r r r r f f f f f f f f f f f f f f f f B B B B f f f ",
"M M M M M M M M M M M M M B M M m m m m m m m m m m n m m n m m e e w 0 0 n r.u.V.V.y.=.:.f.f.f.f.=.f.f.f.f.f.T.!.D.:.t @.+.J p y 5 t 5 5 5 5 > > 5 1 5 1 : - : : 1 : : 1 : 1 1 1 5 1 > 1 > 1 5 1 1 > > : % $ # $ # # + # + # + + # X X + X # $ % : > : : : - 1 5 t t 5 1 $ + X . . X X # $ $ 1 t 5 : % ; t p F t + X % 5 : > $ : 5 5 5 5 y y y t t y t u y u y u u u p p u p p p y t 5 > : $ S.S.~.}. X X7X8X7X7XsX7X8XsX5X7X8X}.7X8X5XsX8X7XsX7X7XsX X8X7X5XsX7X5XsX7X}.5X[.~.}.G.a 5 : $ % $ $ $ # # # $ $ # $ $ $ $ $ $ $ $ $ $ $ & % & # # # # $ X $ $ $ X .   X # ; % $ % $ $ # + # + # + # # # # # $ $ $ # # $ $ $ + + # # $ % % % % % % % $ % $ $ $ $ $ $ $ $ $ % % $ $ % % $ $ $ $ $ $ % : 6 u g g a > . % u 5 1 w.u.u.u.r.n 9 9 q q q r r r r r r f B f f f f f f f f f f f f f f f f B B B f f ",
"M M M M M M M M M M M M M B M M m m m m M M M m m m m m m n n n e w w 0 0 0 ^ u.V.u.t.=.:.:.:.:.:.:.:.:.:.f.Y./.D.+.J <.T G F u i y y y 5 5 5 1 : 1 > 1 : : > : : > > > > > 5 1 1 1 > 1 1 1 1 5 1 1 > : ; % # $ # $ # # # # X + # + X + + X $ $ % > : : : & : 1 1 t t 5 - + + X . . X + # $ $ 1 t 5 : % 1 y p p y & . $ 5 : % $ $ 7 6 5 t y y y 1 1 y 5 y 5 y u y u u u p p u p u u t 6 5 : : ) H.L.}.}. X7X8X7X7XsX5X7XsX5X7X8X5XsX8X7XsX8X8XsX7X8XsX5X8X7X7XsX7X7XsX5X}.7X(.[.{.U u : & $ $ $ $ # $ # $ # $ $ $ # $ # # $ $ # % % % % % $ $ + # # $ X $ $ $ + . . . # % : $ $ $ % $ # # # # # + + $ # $ # $ $ # $ # # # # X # $ % $ % & % : % % % % $ % $ $ % $ $ $ $ % % $ % % $ $ $ $ $ $ % $ $ $ 6 7 7 K a : . # 7 ~ t.u.u.u.^ w q 9 w q q e r r r r r f B f f f f f f f f f f f f f f f f B f f f f ",
"M M M M M M M M M M M B B B M M M M M M m m m M M m m m m m n n e e w 0 0 0 n r.u.V.u.r.:.f.=.f.:.:.:.:.:.x./.G.K +.-.K J p i i t u y y t t 5 > 1 5 > 5 : : 1 : : : : > > 1 1 1 1 1 5 1 > 1 1 5 1 1 : - % $ $ # $ # $ # # + # # # # + + + # $ % : : : : : > > 1 5 t t 1 % # + X X X + # $ $ ; t t 5 ; ; 1 i G K y % + X 5 1 > % # 5 5 5 5 5 5 6 6 5 5 y t t t t t y y u a y p p u y t 5 1 > % $ H.S.[.}. X5XaX7X7XsX7X8X8X5X8X8X XsX8X7XgX8X8XsX7X8X8X7XsX7X8XsX7X8X8X5X5X}.[.~.S.p 5 > $ $ $ $ # # # # # # # # # $ # $ # $ $ $ $ % % % $ $ $ $ $ $ X $ $ $ $ X X . . X $ ; $ $ % % $ # # # # $ # # # $ $ $ $ + # # $ $ $ $ $ # $ % % % & & & & % ; % % % $ $ % % $ $ $ $ % % % $ $ $ % $ $ # $ $ $ $ $ % 5 a 7 5 % + # e.u.u.u.r.n 0 9 0 q q e r r r r r f f f f f f f f f f f f f f f B B f f B B f f f ",
"M M M M M M M M M M M B B M M M M M M M m m m m m m m m m m n n e e e w 0 0 0 ^ u.V.u.t.m.f.j.j.j.f.f.f.j./.I.K +.:.K K G i y i y u y y t 5 5 > 1 1 1 1 : : : : > > > > 1 1 > 1 > 1 1 1 > 5 1 1 > : - - $ # # $ $ # $ # # # # $ + # # # + # $ % : & & : : : > 1 5 t t : $ # + . X X X # # $ : y 5 5 - ; 1 u p p u & X + : > : : # : 1 1 5 5 1 5 5 5 y 5 5 t t t t t y y u u u p u u y u 5 < : $ ;.S.P.}.}. X8X7X7X8X7X7X8X5X7X8X5XsX8X7XsX7X8XsX7XsX8X7XsX7XsX7X7X7X5X5X}.[.~.~.T u > % & $ $ # # # # # $ $ # # # # $ # % $ $ $ % $ $ $ $ % $ # # + . $ $ % # X X . . X $ : % $ $ $ $ $ # $ # # # + # # $ $ $ + X # $ # $ # $ # $ % : : : : % & % % $ $ % % $ % $ % $ $ % % % % % % $ $ $ $ $ $ $ $ $ $ & & < a 7 < $ b t.u.u.u.^ 9 9 q w q q e e r r r r f f f f f f f f f f f f f f f f f f f f B f f f ",
"M M M M M M M M M M M B M M M M M M M M m m m m m m m m m m m n m e e e 0 0 0 n e.V.u.u.V.m.N.N.N.N.m.j./.Y.J @.:.K J F J p y i u u t y t 5 1 1 > 5 > : & : : : > : : : > > 1 5 1 1 > 1 5 1 1 1 > > : % $ $ # $ $ $ $ + # # # # # # X + # # $ % : : % : : : > > 5 y t - $ # X X . X X # $ $ : t 5 1 ; : 1 p i G u > # $ 5 : ; : $ # 5 1 1 1 > 5 6 5 5 t 5 t 5 t y u u t u u u u u y u t 5 5 : : 6 H.L.[.[. X7X7X5XsX7X7X8X7X8X7X7X8X7X8XsX8XsX8X7X8X7X7X7X7X7X7X7X5X5X}.{.~.R.-.u 5 : % $ $ $ $ # # + # # # # # # # # $ $ # $ $ $ % $ $ $ # $ $ $ X # # $ % # X X . X X $ 5 $ $ $ $ $ $ # $ # # $ + # $ # # # X X # # $ $ # # $ $ % % % & % : : % % $ % % $ $ # $ $ $ % $ % % % % % $ $ $ $ $ $ $ $ $ $ $ $ % > 1 1 : e.u.u.u.e.e q w w q e e r r r r r f f f f f f f f f f f B f f B B f f f f f f f f f ",
"M M M M M M M M M M M M M M M M M M M m m m m m m m m m m m m m n n e e w w 0 w C u.V.u.V.B.U.T.T.U.U.T.T.i =.:.K G p G J p u i u u t t 5 5 1 5 5 1 : ; : : - : > > : : 5 > > 1 1 : 1 5 5 1 5 1 : : $ # + # # + # # + $ # # # # # + # # # $ $ : % & : : : 1 > > t t t $ $ + X . . X # $ $ % 5 t 5 > ; : t p p J p 1 $ X $ > > : $ X 5 1 1 5 5 1 5 1 5 t t t t 5 5 t t t u u u y y u u t t t 5 : $ S.L.[.}.}. X7X5XfX5X8X8X5X7X8X5XsX7X8X8X7X8X7X7X8X7X7X7X7X7X7X X X}.[.(.L.L.K y : $ $ $ $ $ # # # # # # # # X X + # # $ $ $ & & & $ $ $ # # # # X % # $ $ # X X X . X $ : : % $ # $ $ $ # # # X # # # $ $ + + X # # + $ $ # $ $ % : : ; % % % % $ $ $ $ $ $ $ $ % $ $ % % % % ; % $ $ $ # $ $ $ $ % $ % & & & < : / t.u.u.t.C 9 q q w q q e r r r r r f f f f f f f f f f f B B B f f f B B B f f f f f ",
"M M M M M M M M M M M M M M M M M M M m m m m m m m m m m m m m n n e e w w 0 0 w e.u.u.u.C.T.XX.XXXXXU.i $.:.` J p u J J G p G i u y y 1 1 5 > > 1 : & & : - - > : : : > > > > 1 > 1 5 5 1 1 1 : : $ # # # # # # # # # + # # # # # # # # # $ % % % : : > 1 > > t u 1 $ # # X X X X $ $ $ ; t 5 1 : ; > 5 i i F G 5 % # X 5 5 1 $ X & 1 5 5 > 1 1 1 5 t 5 5 5 t t y t y y u u y u u p t t 5 1 : & U L.[.}. X5X X7X5X8X8X7X8X7X7X8X7X8X8X8X7X8X7X7X7X7X7X7X7X5X X}.}.{.{.!.~.-.p : : % $ $ # # + # # + # # # # # X # # # $ $ $ $ $ $ $ & # $ $ $ X # $ % % $ X X X . . X $ : & $ $ $ $ $ $ $ $ # # # $ $ $ # . X + # # # # # $ $ $ % : % ; % % % % % $ $ $ $ $ $ $ $ $ % % : % % % % % $ % $ $ $ $ % % % % & % & : s r.u.u.u.w.q 9 9 9 w q q r r r r r f f f f f f f f f f f B B B f f f f f B B f f f f f ",
"M M M M M M M M M M M M M M M M M M M m m m m m m m m m m m m m n n e e w w 0 0 0 C t.u.u.V.M.#XXXXXU.F $.:.+.K J u p K J G p G u p u t 1 5 1 : > > % % : : - : > > : : < : > > 1 1 1 1 > > > 1 : % $ # # # # # # # # # # # # X # # # + # # $ $ % % : : > 1 > 1 t t > $ $ + X X + + $ % % : t 5 > : - > 5 i F G F t : # X % 5 5 % $ $ : 5 < 1 1 : 1 5 5 5 5 5 5 t 5 t t y u u u y u p y t 5 1 > & & L.P.[.}. X X5X5X7X7X8X8X7X7X8X7X7X8X7X7X7X7X5X5X5X5X5X5X5X}.7X7X5X}.{.(.J y : % $ # # # # # $ # # # # # # # # # # $ $ $ $ $ $ & % $ $ # $ + X % $ % % $ + + X . X + $ : % $ % $ $ $ $ $ $ $ # $ $ $ $ X X X + # # # # $ $ $ $ % : : : % : % % $ $ $ $ $ $ % % % $ $ % % % : : % % % $ $ % $ % $ % % % % $ $ % ^ u.u.u.t.N q 9 9 w q q e r r r r r r f f f f f f f f f f f f B f f f f f B f B f B B f ",
"M M M M M M M M M M M M M M M M M M M m m m m m m m m m m m m m m n n e e w w 0 0 w ^ u.u.u.C.Q.#X#XH +.f.@.P K i i p P K G G p u u u t t 5 > : > > & : % : % - : 1 : > > : > 1 1 5 5 > 1 : - 5 : $ $ # $ # + $ + # # $ $ # # # # # # + # # $ % % : : > : > > 1 y 5 : # $ X X X X # $ % ; : t 5 > - : 5 5 i F F J t : $ X $ 5 1 & $ X 5 6 1 5 < < 5 5 1 > 5 t 5 1 t y t y y t y t u y t t 5 6 > & $ >.S.[.[. X5X5X7X X5X5X5X5X7X5X7X5X7X7X5X7X}.5X5X4X8X7X8X7X7X7X7X5X{.{.>.p > & % $ $ # # # # # $ # + # + X # + # $ $ % $ $ : $ % % # $ $ $ X # % % & $ # X X X . X X $ : & $ $ $ $ $ $ # $ $ $ $ $ $ X X X X # # # $ # # $ $ $ % % : % : % % $ $ $ $ $ $ $ $ % $ $ $ $ & : : % ; % % % $ $ % % % % % % $ # $ b t.u.u.u.^ 4 4 9 q q q q r r r r r f f f f f f f f f f f f f f f f f f f f f f B B B f f ",
"M M M M M M M M M M M M M M M M M B B m m m m m m m m m m m m m m n n e e e w 0 0 0 n r.u.u.u.C.#XH K :.=.` P K p u i P K J p i p i y y y t 1 > > : % & & : : : : > : > : > > > t y 5 : > : : : % $ # # $ $ # + + # # # # # # # # X $ # + # $ $ & % : : > > 5 1 y 5 : + $ + X X X # $ % ; > t 5 - - ; 5 5 i i F J i 1 $ # X 5 1 : % X % < 1 > 5 5 > 5 5 5 1 5 5 6 5 t 1 5 t t u u u u y y 5 u > : & 6 L.~.}. X5X5X5X5X X5X7X7X7X7X7X7X8X8X8X8X8X8XeX8X8X8X8X8X7X7X5X{.(.L.p u : % $ $ $ # # # # # # # + # # # # # $ $ $ $ $ & $ & % % $ # # # X $ $ ; % $ # + X X X X X $ : % % $ $ $ $ % $ $ # $ $ $ + X X X X # # # # # # # $ $ % : : : : : & % $ $ % $ $ $ $ $ $ $ $ % % ; ; > : % $ $ $ $ $ % % % % # X $ & e.u.V.V.r.w 4 4 4 q q e e e r r r f B f f f f f f f f f f f f f f f B B f f f f f f f f f ",
"M M M M M M M M M M M M M M M M M B B m m m m m m m m m m m m m m m m n e e w 0 0 0 0 ^ u.u.u.V.y.T ` :.+.` P J p i G P K G p G u u y y y t 5 1 5 : % & % : : > : > : : > > : > 5 y t : : : % & $ # # # $ # # + # # # # # # # # # # # # # # # % & : > > > : > 5 y 5 $ # # + X X # # $ % ; 1 t > - : - 5 t i p G J p > $ X X & : : > # $ < 5 < > < < < 5 < < 5 5 5 1 5 t t t t y y y t y u t t 5 : & . 0.~.}. X5X5X5X5X7X5X7X7X5X7X7X7X7X7X7X8X8X8X7X8X7X8X7X7X5X5X}.{.'.] u < & $ $ $ # # # # + # + # # X + # $ $ $ $ % $ $ & % $ & $ $ $ $ X X $ % % % $ # # . X X X + # : : % % % $ $ $ $ $ $ $ $ $ X X X X + # + # + # # # $ $ % % % ; : % % $ $ $ $ $ $ $ $ $ $ $ $ % % ; - : : & % $ % $ % % $ % % $ # $ / t.u.V.u.^ 4 4 4 4 7 q e r r r r r f B f f f f f f f f f f f f f f f B B f f f f f B f f f ",
"M M M M M M M M M M M M M M M M M M B M m m m m m m m m m m m m m m n n e e e w w 0 0 n e.u.u.u.t.~ :.$.` ` K J i i J T K p i p u i y i i y 5 1 > : $ % & : : > > : : : : : : 1 t t 5 : ; : $ $ # $ $ # # # # # # # + # # # # + # # # # # # # % : : - : : 1 1 t t 5 $ # X X X X X $ $ : : 5 t : : - : : t u p J F p t $ + X $ : : 1 $ + : > < < 5 < 5 5 > > > 5 < 5 1 t 5 5 t 5 t u t t u 5 t 5 5 : % ..L.[.5X5X7X5X7X7X7X7X7X7X7X7X7X7X8X8X8XeX7X8X7X6X7X6X5X6X-X{.(.F.p 5 : % $ # $ # # # # # # + + + # # $ $ $ $ % $ & % : % & % $ $ # # X % % $ % % $ $ X . X X X # # : ; % % $ % % $ $ $ $ # # # X X X X X # # + X # # # $ $ $ % : ; ; % : $ $ $ $ $ $ $ $ $ % $ $ % : - : - ; : % $ $ % $ % $ $ & $ + 9 r.u.u.u.w.9 4 4 4 4 6 7 q e f f r r f B f f f f f f f f r f f f f f f f f f f f f B B f f f ",
"M M M M M M M M M M M M M M M M M B B M m m m m m m m m m m m m m m m n n e e e w 0 0 0 N t.u.u.u.e.:.+.P K J J i y K T J p u u u u y i u y t 1 > % $ $ % & : > : : : > : : : 5 t t 5 1 : & $ # $ $ # $ $ # $ # # + # X # # # # # + # + # # $ % : > 1 > : > 1 t t > + # X X X X X # $ : > t 5 > > : : - 1 u p G J J y % # X X & : : % # : 5 > < 5 < : < 5 > 5 1 : 1 5 5 5 5 y y y y t u y t u y 5 % : 7 L.~. X5X7X5X7X7X7X7X7X7X5X7X7X8X8X8X8X7XeX6X7X6X6X6X5X{.}.(.{.U y : & $ $ $ # # # X # # + X + # # + $ $ $ & & % $ $ : % % $ $ $ # X X % % % & % $ $ X X X X + # $ : : % % % % % $ $ $ # # X + . X X X + # # # # # # # # $ % % : % : % % $ $ $ $ $ $ $ $ % $ $ $ % % ; - ; : ; % $ % $ $ $ $ % % $ X w.u.u.u.r.n 4 4 4 4 4 6 6 6 q q f f f r r f f f f f f f B B B B B f f f f f f f f f B f f f f ",
"M M M M M M M M M M M M M M M M B B B M m m m m m m m m m m m m m m m n n e e e w 0 0 0 w ^ u.u.V.V.y.` K K J p u u P K J u y u u u u p G p y 5 : ; $ $ $ & % - : : : > : : 1 5 t 1 5 > & $ $ $ # # $ # $ # # # # # $ # + # # # # # # # # # $ % : : > > : > 1 t t : # # + X X # X $ % - > 5 5 1 - > - > > u i F J J p > X X X % : $ $ # $ : > 5 > : > 5 > < : > < 1 1 5 6 5 5 y 5 5 y y y t 5 t 6 > : # 9.L.[.}.5X5X7X7X7X5X7X5X7X7X6X7X7XwX7XqX7X6X6X5X6X5X:X{.'.(.A.p < % $ $ # # # # X # X + + # X # # $ $ $ $ % $ $ % % % & % % $ $ $ . X $ % % % $ $ # X X X X # X # % & & % $ % % $ $ $ $ X X X X X X + $ # # $ # # # $ $ $ % % % : % % % $ $ $ $ $ $ $ $ $ $ $ % $ % & : : > : : % % % $ $ % % % $ b t.u.u.u.^ 4 4 4 4 6 6 6 7 7 7 q q r f f r r r r f B f f B B B B f f f f f f f B B B f f f f f ",
"M M M M M M M M M M M M M M M B B B B B M m m m m m m m m m m m m m m m m n e e w 0 0 0 0 n e.u.V.V.t.O.K J G G u u T K G u y u u y i i G p u t 1 $ $ $ $ & : - : : > : - > 5 t 5 5 1 : % # $ # # $ # $ $ # $ $ X # # # # # # # # + X # # $ # % : - > : 1 > 5 t t ; X X X X X X X $ & - 5 5 5 > - > : 1 > i F F J J F 5 # . X $ > - & # # : > 5 > 5 < > < > > 5 5 1 1 5 5 5 t 1 5 t 5 5 t 5 5 6 5 > : $ _ S.~.}.}.5X X5X5X5X6X6X5X7X6X7X6X6X4X6X6X6X6X6X3X3X=X'.(.!.g t : % $ # # # # X + + + + # # # $ # % $ $ $ & & % % : : & & % $ $ # . $ $ % % $ $ $ $ X X X . X + # : : & & % % & $ $ $ # X + X X X X $ # $ # # # # + $ $ % % : : % % % % # $ $ $ $ $ $ $ % $ $ $ % % : : - : : & $ % $ % $ $ % % 9 r.u.u.u.e.w 4 4 4 6 6 6 7 q q q q q q r f B f r r r f f f B f f B f f f f f f f B f B f f f f f ",
"M M M M M M M M M M M M M M M B B B B B B m m m m m m m m m m m m m m m n n e e w w w 0 0 0 C t.V.V.u.e.J G G G G p P J G u y t t t i p G G p i t ; $ $ $ $ : ; : > : : : 1 5 5 1 5 > ; $ # # # $ # # $ $ $ $ $ # # # # # + # # # # # + # # $ & : > : : > 5 t y 1 % # # X + + + # $ % : 5 t 5 > : : > > > t G G J J G t $ . X X : : > $ + % > 5 5 > < > : > < 5 : 5 1 5 5 1 5 y 5 5 5 5 5 t 5 5 5 1 : % 6 S.L.(.}.5X5X5X X5X5X5X5X6X6X7X5X6X6X6X6X4X4X6X4X-X=X'.'.g.p > : $ # # # # # X X # # X # X $ $ $ $ $ & % % % % : % % % % $ $ $ X X % % % % % % $ $ X . X X X # X % & % % $ % $ % $ $ # # + + X X + # # # # # $ # # $ $ $ % & % : : % % $ $ $ $ $ $ $ $ $ $ % $ $ % : : ; - : % % % $ % $ % % % w.u.u.u.t.N 4 4 4 4 6 6 6 q q q q q q q q q f f f f r r r f f f f f f f f f f f f f f f f f B B B ",
"M M M M M M M M M M M M M M B B B B M B B M m m m m m m m m m m m m m m n n n e e w w w 0 0 w ^ u.V.V.t./ p p G p J K J p y t 5 t t u p G J F i t ; % % % & : : : > : : > 5 t 5 5 5 : $ # # # # # # $ # $ $ $ $ $ # # + # # # # # # # # + # $ : : > > > > 1 t u : $ X X + X X + # % : 1 t 5 5 > : : > > > t p J J K G y % X X # % : : $ # $ : > 1 > > < 5 : > > 1 5 < 5 5 5 5 5 5 t 5 5 5 5 t 5 5 5 1 : $ A.S.~.}.}. X X5X5X5X5X6X5X4X6X6X5X6X4X6X4X6X6X5X3X'.`.(.J y : $ # # # # # X X X X # # # # $ # $ % % % : : : : % : : $ $ $ $ # X . & % % % % $ $ $ X X X + # # $ : : % $ $ % % $ $ # + X + + # # # $ # $ # # $ + # $ % $ % & & : & $ $ $ % % $ % $ % $ $ % % $ % ; - : : - - ; % $ % $ $ % $ ~ t.u.u.u.^ 4 4 4 4 6 6 6 7 q q q q q q q q q q f f f f f f f f B f f f f f B f f f f f f f B B B B ",
"M M M M M M M M M M M M M B B B B M M B B B m m m m m m m m m m m m m m m n n e e e w w 0 0 0 n e.u.u.u.t.~ p p G J K K p t t > 5 t u u F G J F i > : % $ % % % : : : : 1 5 5 5 1 > % # $ X # # # # $ # $ $ $ $ $ # # + # # + # # # # + # # $ ; : > : 1 1 t t y > $ # + X X + # # % : : t t 5 : > > > > > t p F G J J u $ X X # % > : % $ + < > > > > > < < > < < > < 1 < 5 1 1 1 5 > 5 5 6 5 5 5 1 5 : & ) S.L.(.}.5X5X5X5X5X4X6X5X6X6X6X6X6X6X4X4X4X6X3X}.{.}.>.u : & # # + # # + X X + + # # $ $ % % % % $ : : : : : % : % $ % $ $ # . # $ % % % % % $ # X X X X X # # : : % % $ % % $ $ $ $ X + + # X + # # $ # # # # # $ $ $ % & % % $ % $ $ $ $ $ % $ % $ % $ $ $ & ; : - : : : : % % % % $ % w r.u.u.u.e.w 4 4 4 4 6 6 6 q q q q q q q q q q q q q f f f B f f B f f f f f f f B B f f f f f f f f ",
"M M M M M M M M M M M m B B B B M M M B B B m m m m m m m m m m m m m m m m n n n e e e w 0 0 0 C t.u.u.u.e.p p G K P K i 1 5 : 1 y u i p J J J p 5 > & % % % % : : - 1 5 5 5 1 1 : $ # X + # + # # # $ $ % % $ $ # $ # # # # X # # # + $ # $ : : : : > > 1 t y - # # + X + X # $ & - 1 t t 5 : > : > : > 5 i p J J J u - X . # $ : : : % X % > > > : < > < < > : > > > : < > 5 > 5 6 5 1 5 5 5 5 5 5 : : < S.L.~.}.5X5X5X5X5X5X5X5X6X6X6X6X6X6X6X6X6X5X3X%X{.'.U y & $ # # # X + # # # # # # $ $ % % ; & % % : : : : % : : $ $ $ # $ X   % % & $ % $ % $ # X . X X X + # : : % % $ $ % $ $ $ $ # X X X X + # $ # $ # + # # $ % $ % % % $ $ $ $ $ $ $ % % $ % % $ $ $ % & & : : : : : % % % % $ % : w.u.u.u.t.N 4 4 4 4 4 4 6 7 7 q q q q q q q q q q q q q e f f B B r f f f f f f f f B B B f f f f f f ",
"M M M M M M M M M M M B B B B B B M M B B B m m m m m m m m m m m m m m m m m n n m e w w w 0 0 w ^ V.u.u.t./ G J K K J y > : : 1 t y i G G J J J y 5 : % % % & & : : 1 5 5 5 1 : - # # X X + + X # $ $ $ $ % $ # # # X # # # # # + # X # # $ : : > > > > t t t : $ # X X # + # & : : > t t 5 : 1 1 : > > 5 p F F G K p : X . # $ : > > % + $ > > > : : 6 5 1 < 5 : : : > < 1 5 1 5 > < 5 > 5 1 5 5 > 5 : # S.L.~.}.5X5X7X5X5X5X6X6X5X5X6X6XqX6X7X6X4X4X:X-X{.%.p > % $ # # # + # X # # # # $ $ % % : & % % : : : : : : & % $ $ $ $ # . . - % & $ % % % $ $ X X X + X X # : % % % % $ $ $ $ $ # # # + X + X # # $ # # # # # $ % % % : % $ $ $ $ % $ $ $ % % % $ $ $ % % % : > : : - : & : % % % % / t.u.u.u.^ 4 4 4 4 4 4 6 6 6 7 7 q q q q q q q q q q q q q q r f B B f f f f f f f f f f B f f f f f f ",
"M M M M M M M M M B B B B B B B B B B B B B B M M M M M m m m m m m m m m m m m n m e w w w 0 0 0 n e.u.u.u.t.~ K J K u y : - 1 1 t y i i G K K K u t > : $ % & : ; > 1 5 t 1 5 % $ $ # X X # # # # # $ $ $ & $ # # # # # + + X # # # + # # : : - > - > > t t t % # # + + + # # % ; : 1 t 5 5 ; 1 : 1 1 > t p i G J J J : X . X # $ : : & # # > : : : & : : : > : : : > > > > : > 1 5 5 > 1 1 1 < > 5 > > % -.L.~.}. X5X5X7X5X7X7X5X7X6X7X6XqXqXqX6X5X4X=X{.(.p t - $ # # # # # # # # # $ $ % ; & % : : : : : : : : : : & $ # % $ $ #   X : % $ & $ & % % # X X + + X X # : & % % $ $ % $ % $ # # X X X X X # # $ $ # # # # $ % % % $ $ $ $ $ $ $ # $ $ $ % $ $ $ $ $ $ % : : : : : > : % % % % N r.u.u.u.e.w 4 4 4 4 6 6 6 6 7 7 q q q q q q q q q q q q q q q q r f B B f f f f B f r r f f f B f f f f ",
"M M M M M M M M B B B B B B B B B B B B B B B M M M M M m m m m m m m m m m n n n m m e e w w 0 0 0 C r.u.u.u.r.~ J J u 5 - > > 1 1 y i y u G J K p y t > - % & & : 1 5 5 t 5 : $ $ # # + X X # # + $ $ $ % % # $ # # # + # X # # + + + # $ % : - : - > > t t t $ # + X # # # $ % : : 5 y t t - : : : 1 > 5 p F J J G p - X . . # # : ; & # X $ % : % : : : > > : : : : : : : > > 5 : > > < 5 5 > 6 5 > > & g L.P.{.}.5X7X7X7X5X7X7X7X6X7X7X6X7X6XqX4X3X=X=X%.p > % $ $ $ $ # $ # $ $ $ $ & & % % & : : : : : : : > : : % $ $ % % $ X   $ : % $ % % $ % $ $ X X X X X # # : % $ % % % % $ $ $ # $ X X X X X + # $ # # X # # $ % $ % % $ $ $ $ $ $ $ $ $ $ % % $ $ % % $ $ : : : : : - : % % % 3 r.u.u.u.r.N 4 4 4 4 4 6 6 7 7 q 7 7 q q q q q q q q q q q q q q q q e f f f f f f f f f f f f f f f f f f ",
"M M M M M M M B B B B B B B B B B B B B B B B M M M M M m m m m m m m m m m m n n n m e e w 0 0 0 0 0 ^ u.u.u.V.e.J G u > : > : 1 1 t t t i G J K J p t > 1 % & & > > 5 5 5 > ; $ $ # # X X + # + + $ # $ % $ $ $ $ # # # # # X X + # # # $ : - : : : > 5 t y 5 $ # + # # + # # % - 1 5 y t 5 : : : : 1 > 1 p G J G G G > X . . + % % > $ % $ # $ > $ % : $ : $ : $ % $ : ; : % : : : % : > : > > > > : > : $ S.L.~.}.5X5X7X5X7X7X7X7X7X7X7X7X7X6X4X4X=X=X!.y 6 : $ $ $ $ $ $ $ $ $ % % % & & : % : : : : : : : : : : : % # % $ $ $ . X % % % % % $ $ $ $ $ X X X X # # $ : % % % % % % $ $ $ $ $ # X + X X X X # # # $ # $ $ % % $ $ $ $ $ $ $ $ $ $ $ $ % % % % % % % % : - > : > : : & % % ^ u.u.u.u./ 4 4 4 4 4 6 6 6 q q q q 7 7 q q q q q q q q q q q q q q q q q r f f B f r f f B f f f f f f f f ",
"M M M M M M B B B B B B B B B B B B B B B B B M M m m m m m m m m m m m m m n n m n m e e e w w 0 0 0 n w.u.u.u.t./ p t 5 > : : > 1 1 t t i p J J J J u 5 > $ % $ : > 5 5 5 > % $ # X + + X + X X # # # $ $ $ $ $ # $ # + + X X # # X # $ & : : : > > > t t t 5 # + # + # + # $ : : 1 y t t 5 : : - : : > 5 u F G J F G 1 X .   X : $ > > # $ % $ 5 % > $ : : # 6 $ 5 $ : & & : > $ : & % % $ % : % : > > % # ;.L.~.[. X7X5X5X5X7X7X7X7X7X7X7X5X7X4X3X{.4X@.y : $ $ $ $ $ % $ $ % $ % & : : : : : > : : : : : : & & & & $ $ $ $ $ X X X : % % $ $ $ % % $ # + X X X # X $ : % $ % % $ % $ $ $ # $ # X + + X + + # # X $ # # $ % $ $ $ # $ $ + $ # # $ $ % : % $ $ % % % % : - : : > > : % % / t.u.u.u.w.9 4 4 4 4 6 6 6 7 q q q q q q q q q q q q q q q q q q q q q q q q q f f B f r f f B f B f f B B B ",
"M M m m m m B B B B B B B B B B B B B B M B B M m m m m m m m m m m m m m m m m m m n m e e e w 0 0 0 0 N e.u.u.u.t.~ 1 5 > - ; : : 1 t t y i J K J J p t 5 : & % : 1 5 5 5 - & $ # + X X X X + # # # $ # $ $ & $ $ $ + X + X X X + + # $ $ : : : - > > 5 t t > $ + + + # + # $ : : 5 5 t y 5 - : ; 1 : : 1 i F F J J G 5 # . . . $ % % : : # % # 5 : 5 % > : $ 6 > : > $ 5 : % 6 ; - : u % 6 % 5 + : % % % < ) L.P.[.}.5X5X6X6X7X7X7X7X6X6X7X6X4X3X=X{.G.u 5 > % $ $ $ $ % % % $ % : % : & : : : : > : : : : : : & & : + $ $ % $ X #   : % & % $ & % $ $ # X X X + X X # % : % $ $ $ % $ $ $ $ $ $ + # # X X X $ + # # # # $ $ % $ # $ $ $ $ # $ $ $ $ % % % $ $ % % % ; : - : 1 - - : % b r.u.u.u.e.w 4 4 4 4 4 6 6 7 q q q q q q q q q q q q q q q q q q q q q q q q q q q r f B B B r B B B f B B B B ",
"M M m m m B B B B B B B B B B B B B B B m B B M M m m m m m m m m m m m m m m m m m n n e e e w 0 0 0 0 0 C t.u.u.u.r.s t > : : : & : t 1 y y F J J J J i t : : : > 1 5 1 1 : $ $ # + # . X X + + + # $ $ $ $ $ $ $ & # # # + X + + # X $ $ : : : > > 1 t t y : # + + + # # + $ > > 1 t y y 5 ; : : > : : > p p J J J J t $ . . . # & $ $ % $ $ $ & % : X 5 % : ; > - 5 $ : 1 $ 5 > % : y : 5 - > 5 5 : : % > & >.9.L.~.}.}.7X7X7X7X7X7X8X7X6X6X-X=X{.-XU u 1 : % & % & $ & $ % % % % % % & : & : : : % : : & & % % & % $ % $ $ # # X   : % % $ $ $ $ $ $ $ + + + + # X $ % : : % % % % $ $ $ $ $ # + # # X X # # # + # # $ $ $ $ $ $ $ $ $ # # # # $ % % % % $ $ % % % : : : : ; - ; : w r.u.u.u.r.N 4 4 4 4 4 4 6 6 6 7 7 7 7 q q q q q q q q q q q q q q q q q q q q q q q q q f f B B f f f f f f f f ",
"M M m m B B B B B B B B B B B B B B B B B B B M M M m m m m m m m m m m m m m m m m m n n e e e w 0 0 0 0 w ^ u.u.u.u.e.u > ; & : : : t 5 t t i J J K J F i 1 : : : 1 5 1 : & % $ # + + . . X X X # # # $ $ $ $ $ % $ $ # # + X + + # $ $ $ % : : > > 1 t y y - # + # + # X # % : : 1 5 y t t : : % : - - 1 G F F F J J t $ . . . X $ % $ # $ $ % $ $ $ X $ # : # > $ > % % 1 $ : 5 & % 5 5 $ t 5 p > : : > : : $ > t J T @.@.:.g.g.G.R.E.^.(.(.{.(.{.G.u 1 > : % % % % & % % $ % & $ $ % $ : & % : & : % % & % % $ $ + $ $ $ $ + $ . . : % % $ & $ $ % $ # + + + # # X # & : % % % % % $ $ $ $ $ $ X # # X X X # # # # + $ $ $ $ $ $ # # $ # # # # $ $ % % % $ + $ & % : : : : : : : : w.u.u.u.u.^ 4 4 4 4 4 6 6 6 6 7 7 7 q 7 q q q q q q q q q q q q q q q q q q q q q q q q q q e f f f f f f f f f B ",
"M M m B B B B B B B B B B B B B B B B B B B B B B M m m m m m m m m m m m m M M m m m m n m e e e w 0 0 0 0 n w.u.u.u.t.^ - : $ % % : t y 5 t p J J K K J p t > : : 5 > : : % $ # # # X X X . X X X # # # $ $ % % % % $ X + X # # + # $ % % & : : : > 5 y i y ; # + # X X # # & : > 1 5 y t 5 ; : % % % - > i F F G J J t $ . . . . X & : % & % 1 $ % > $ % # % + % + : $ : $ > % 1 > $ > 5 $ t u t 5 1 > 5 > : & % < a J ) ` ` ` @.O.O.` @.` P H K T a 5 : & & % : # $ # $ % $ $ $ $ & & : % % % $ % % $ # $ $ & $ # $ & $ $ # $ #   % : % : % $ % % $ $ # X # X + # X $ & : : $ % % $ $ $ $ $ $ $ $ + X X X X # # + # + # $ $ $ # # # $ # $ # $ # $ $ % % & % % % % ; : : : : : - : ^ t.V.u.u.^ 9 4 4 4 4 6 6 6 6 q q 7 q 7 7 q q q q q q q q q q q q q q q q q q q q q q q q q q q q r B f f B B f B B ",
"B B B B B B B B B B B B B B B B B B B B B B B B B M m m m m M M m m m m m m m m m m m m m m e e e w 0 0 0 0 0 N e.u.u.u.t./ % $ % $ ; 5 t t t y G J K K K G u 5 : > > - : & % $ $ # + + X X . X X # + # $ $ $ ; % & $ # # # # + X # # $ & : : : - > > t y u t ; $ # + + + # # % > : 5 t y t 5 ; > : % : : : p F G F G G t % X . . . X $ : : % : : % $ > ; : % : % : % : $ % o % $ % # $ $ : $ 5 5 - 5 1 : : : : % X # % : : t J P ` ` ` ` > t J J J 5 > : : % % $ & $ $ $ $ & $ & $ % $ $ $ $ $ $ $ $ $ # $ # # $ $ $ $ # % # + % .   > - & % % $ $ $ % $ X + X + + X # # : : & % $ $ $ $ $ $ $ $ $ $ # + + X X X + + + # # $ $ $ # # # $ $ $ $ $ # $ % % & % % $ % : & : ; - ; - ; / t.u.u.u.e.w 4 4 4 4 4 6 6 6 6 q q q q 7 q q q q q q q q q q q q q q q q q q q q q q q q q q q q q q r f f f f B B B ",
"B B B B B B B B B B B B B B B B B B B B M M B B B M m m m m M M m m m m m m m m m m m m m n m m e e e 0 0 0 0 0 N r.u.u.u.r.b $ $ $ ; 5 1 t t t p J K K K J p y > 1 1 : : : % $ # # # X X X . X X # + # $ $ $ : & % $ $ # + X # + # # % : : : : : - 1 t t u t ; # + # + # # # & : 1 5 t u t 5 - > : % : : > u G F G F J i % X . . . X $ : : % : : % $ : ; : % - % : $ : $ $ $ $ & X X X X X . X X X + % % % > : % X # $ $ 6 : u p K ) g : > : & $ $ : 1 5 : : : ; : $ % % $ : $ $ $ : $ : $ % & % $ % $ & % $ $ % $ $ # # # X % #     5 $ % % & & $ % % # X X X # + # # # % : % % $ $ % $ $ $ $ $ $ $ # + X X X + # # # # $ # $ # # # $ # $ # $ + $ $ % % % % : % % % : ; - - - : ~ r.u.u.u.r.n 4 4 4 4 4 6 6 6 6 q q q q q q q q q q q q q q q q q q q q q q q q q q q q q q q q q q q q q q f f B B B f ",
"B B B B B B B B B B B B B B B B B B B B B B B B B M m m m m m m m m m m m m m m m m m m m m n m e e e w w 0 0 0 0 C t.u.u.u.r.w # # - > 5 5 1 5 p J J K K J G y > > : : & : & $ # + # X X X . X X X # # $ $ $ & : & $ # + + # X + $ $ % : : % : : : 1 t t u t : # # # # # # # % : > 5 5 t y t : < % $ & : > i i G G J J i ; + . . . X $ : : : : : % $ % : ; % % & & & % $ $ $ $ $ $ $ & $ $ % : : : & > : X > : $ X X $ $ a 1 ` u p K 5 X g + % # # 5 5 : % > > > % : $ : $ > $ & $ : % > % % : $ % % $ : % % $ $ $ & X $ # X % .     6 $ % % $ $ $ $ $ X X X # # # + # # % : ; % $ $ % $ $ $ $ $ % $ + # # X X X # # # + # $ # # # # + # # $ # # # $ $ % % % % % % % : - - : - s r.u.u.u.t.C 4 4 4 4 4 4 4 6 7 6 q q q q q q q q q q q q q q q q q q q q q q q q q q q q q q q q q q q q q q q r f f B B ",
"B B B B B B B B B B B B B B B B B B B B B B B B B M m m m m m m m m m m m m m m m m m m m m n m e e e e w 0 0 0 0 w ^ u.u.u.u.e.3 # ; > > 5 5 1 y J J K K K H i 1 > : : % & % $ $ $ # X X X . . # + + # # $ $ % % % $ # # X + + X # $ & > & % : : : > t i i t : + X + # # # # % : > 5 5 t t t : > % % : : > y G F F G J i : # . . . . # % & : : > % % $ % ; : % % % % : % % $ % $ $ $ $ $ ; - 1 > > 1 1 > $ > > % X X % u i 3 ` > ` y % > X $ $ # % - % $ # % > > : : % % % : # % & : % > $ & $ $ % % % : % & $ $ % # # # . % +     . > $ % % $ % $ $ $ # X X # + # X X # % % % % ; $ % % $ % $ $ $ $ # $ # + X X + # X # # # # + # + # # # $ $ # + $ $ $ & % & % % % - ; > : w e.u.V.u.u.^ 4 4 4 4 4 6 4 6 6 7 q q q q q q q q q q q q q q q q q q q q q q q q q q q q q q q q q q q q q q q q q q f f B ",
"B B B B B B B B B B B B B B B B B B B B B B B B B B M m m m m m m m m m m m m m m m m m m m m m n e e e w w 0 0 0 0 n w.u.u.u.t.w.& $ : 1 1 1 > t F G J K K K F t > : : : % % $ # # + X . . . X X X # $ $ $ $ : : : $ $ # # # # # # % : : & % : : 1 1 t i y 5 & + + + # # # $ % : 1 5 5 t t t : : % $ % : : t G F G G J p 1 $ . . . X # & : : : > : % % $ % % % % % % % $ % $ % $ % $ % & % : : : : 1 5 5 % 5 5 % X . X J i t @.o p % % : # # $ X $ $ # X # $ : $ % $ $ $ # $ % $ % & $ % $ % $ $ % $ $ % X % $ $ # # X X $ $ .     $ : $ $ $ % % % & $ + X # # # $ + # # $ : : % $ % % $ $ $ $ % $ $ # # # # X X X # # + # + X + X + # # # $ $ # + # $ $ % ; % ; $ ; ; - : 3 w.u.u.u.u.^ w 4 4 4 4 6 6 6 6 6 7 q q q q q q q q q q q q q q q q q q q q q q q q q q q q q q q q q q q q q q q q q q q r f ",
"B B B B B B B B B B B B B B B B B B B B B B M B B B M M m m m m m m m m m m m m m m m m m m m m m n e e e w 0 0 0 0 0 n e.u.u.u.t.^ & : > 1 1 > 1 i J J K K K J u 5 : : : & % $ # + # X X . . X X X + + $ $ $ & : & % $ # # # # X # % : : & : : : > > t t u 5 % $ # + + # # $ % : 1 5 t t t t 1 : % % & ; : 5 J F G G F p 5 % X . . X $ $ - : > : % : % % & % % % % % % $ $ % % % % $ % % ; : > : : : 5 5 & : 5 % X . # > J i @.- 6 : % > . X # + $ # # + $ % - % % $ % # $ # $ $ $ $ $ $ $ $ $ $ $ $ $ + % $ $ $ $ # # X $ X .     > $ & $ $ % % % $ $ + # X # # # + + # % : : % % % % $ $ $ $ $ $ $ # $ $ # X X X + # # # + + X X X X + # $ $ # # # # $ $ ; % ; % % : : : ^ t.u.u.u.w.w 4 4 4 4 4 6 6 6 7 q q 7 q q q q q q q q q q q q q q q q q q q q q q q q q q q q q q q q q q q q q q q q q q q q ",
"B B B B B B B B B B B B B B B B B B B B B B M B B B B M m m m m m m m m m m m m m m m m m m m m m m m e e e w 0 0 0 0 9 N e.u.u.u.t.^ : > > > 1 1 y G G K J K J i 5 : : ; ; % $ # # # X . . . . X X X # # $ % & : : % $ $ + # # # $ : : : % & > : > 1 t y t > $ # + X X X # $ % : 1 1 5 t t 5 1 > % $ $ % : > p F J F G p y % X . . . # $ % % : - : % % % % % % % % % $ $ % % % % % % ; % : : 1 : - : < 5 - < 5 $ # . # : ` i f., p - : # . # # # $ + $ # $ : ; % % % $ $ & $ & % : % % $ : % ; # % $ $ # $ $ $ # + # X : X .       5 $ % & & $ $ $ % $ X # # $ # $ # # # $ : : % % $ % $ $ $ $ % $ $ # $ $ $ # X X + # # X # X X # X # # # $ + + X # $ % % : ; : : % : % / t.u.u.u.e.w 4 4 4 4 4 4 6 6 7 q q q q q q q q q q q q q q q q q q q q q q q q q q q q q q q q q q q q q q q q q q q q q q q q ",
"B B B B B B B B B B B B B B B B B M m M B B M B B B B B m m m m m m m m m m m m m m m m m m m m m m m e e e e w w 0 0 0 0 C r.u.u.u.t./ : > : : > t F J J K K K p y 5 - : ; $ $ $ # + . . . . X + X X + # # & % % : % % # # # + + $ % > : : : : : 1 5 t i t : & # # + # # # $ % : 1 5 5 t t t 1 : ; $ $ & : 5 p F F G G p t % + . . . # $ % & : ; : % : % % % % % % % % $ % $ $ $ $ $ % % % : > : ; : : - $ $ : $ # . . o ~ > j.i H X %   X X $ $ # $ # $ $ % ; % $ $ # % $ % $ % $ $ $ % % $ $ $ # # + # X X X X + # $ # . .     X 5 $ % $ & $ $ $ $ # X # # $ $ # + + # $ : : : % % % $ $ $ $ $ % $ # $ $ $ $ X X X X # + + + + # # + # X $ # # # X $ $ % % : : % & ; / t.u.u.u.e.n 4 4 4 4 4 4 6 6 6 6 q q q q q q q q q q q q q q q q q q q q q q q q q q q q q q q q q q q q q q q q q q q q q q q q ",
"B B B B B B B B B B B B B B B B B M m M B B M B B B B B m m m m m m m m m m m m m m m m m m m m m m m n e e e e w w 0 0 0 0 C r.u.u.u.t./ : : : > > i F G J J J G y 1 : : ; % $ # # # X . . . . X X + X # $ % % : & & % # # X + # $ : : : % % > : > t t u t > % # # # # # # $ % : > 1 5 t t 5 1 : ; $ $ % ; t u F F F G p t : # . . . # $ $ % : : % % % % % & % $ % % % % % % % $ % $ % % % : : : ; : : % $ $ < $ # . . X :.> f.H t # $   . X X $ $ # $ # $ % % $ $ $ $ % % $ % % $ $ $ $ $ $ X # X + # + + + $ $ $ % $ # . .     $ 1 % % % $ $ $ $ $ $ + # $ $ $ # # # # $ : : % % $ % $ $ % $ $ $ $ # $ $ $ $ + X X # # # # X # + + # X + + # $ # $ $ % % % % % & & / t.u.u.u.r.N 4 4 4 4 4 4 6 6 6 7 7 q q q q q q q q q q q q q q q q q q q q q q q q q q q q q q q q q q q q q q q q q q q q q q q q ",
"B B B B B B B B M m M B B B B B B B B M M M B B B B B B B M m m m M m m m m m m m m m m m m m m m m m m m m e e e w 0 0 0 0 w C t.u.u.u.r.~ : - : 5 t F G J J J G i 5 > % : % $ # # + X . . . X X X X X $ $ % % : & : % $ # # X # $ : : : : : > : 1 t y i t > % # X # # # # $ $ : > 1 5 t t 5 1 : % $ & % - t u F G G G p t : $ . . . X $ % % : : & % % % % ; ; % % % % % % % % $ % % $ % & : : : & : % $ $ X > % $ X . X ` > @.u $ # X   . X X # % $ $ $ $ % $ $ $ $ $ $ $ $ % $ $ $ # $ $ X + X + # # $ $ # $ % : % # # . .     : > % % $ % & % % $ # + $ $ $ $ # # + $ $ : & % $ $ $ $ $ $ $ % $ $ $ $ $ $ $ # X X # # # # # # # # # + + # + + # $ $ % % % : % : ~ r.u.u.V.t.C 4 4 4 4 4 4 6 6 7 7 6 q 7 q q q q q q q q q q q q q q q q q q q q q q q q q q q q q q q q q q q q q q q q q q q q q q q ",
"B B B B B B m m m M M B B B B B B B B B M B B B B B B B B M m m m M m m m m m m m m m m m m m m m m m m m m m e e w w 0 0 0 0 w ^ t.u.u.u.r.~ : : > 1 y F F K J J t 5 > : ; $ $ $ # # X . . . . . X X # X $ $ % ; ; : % $ # # # # % : : : & : > > > 1 t u 5 > % # $ + # + # $ & : 1 1 1 t y 5 > : - $ $ % : 5 i p F G J F t : $ . . . X # $ % : : : % % $ % % % $ $ $ % % % % % % % $ % % : : : : & : % % $ % > : % X . X ` X > : X & # . . . $ # % & $ $ % $ % $ $ $ $ $ $ $ $ $ $ X $ $ # # # + $ $ # $ # $ % : $ $ # X X .     > - % % % $ % % $ $ # + $ $ # $ $ # $ # % & : % $ $ $ $ % $ $ $ $ # $ # $ $ $ # + X X # # # # # # X X # # # # # # + $ % % % % % ~ r.u.u.u.t.~ 4 4 4 4 4 4 6 6 6 7 7 7 7 q q q q q q q q q q q q q q q q q q q q q q q q q q q q q q q q q q q q q q q q q q q q q q q q ",
"B B B B B m m m M B B B B B B B B B B B B B B B B B B B B M m m m m m m m m m m m m m m m m m m m m m m m n n e e e e w w 0 0 0 n ^ t.u.u.u.r.~ : : > t p G G J K p t > : ; $ $ $ # # X . . . . X X X X + $ $ & $ : % % # # # # $ & : : : : : : 1 1 > y i t - ; $ $ + # # # $ & > 5 5 5 1 t 5 > > - % # % : > u p p i F F y > $ X . X X # # % & : % % % ; % % $ % % % % $ % % % % $ $ % % % : : % % % % % % % 5 : % X . X ` $     + u # . . . # # % $ & # % % % $ $ $ $ % % $ # $ $ $ $ $ $ $ $ $ # $ % % $ : : % $ # # X X       1 & $ & $ $ % $ % $ # # $ # $ # # # + $ $ : : % $ $ $ $ $ $ $ $ $ $ # # $ $ $ $ X X + + + # # # $ # # # X X # # # # $ $ % % % b r.u.u.u.t.^ 9 4 4 4 4 4 6 6 6 6 6 7 7 q q q q q q q q q q q q q q q q q q q q q q q q q q q q q q q q q q q q q q q q q q q q q q q q q ",
"B B B B B B m m M B B B B B B B B B B B B B B B B B B B B M m m m m m m m m m m m m m m m m m m m m m m m n n m e e e e w 0 0 0 0 n ^ u.u.u.u.r.~ : > t i F G J J J i 5 : ; $ $ $ # # X . . . . X X X X + # $ $ $ % : % $ # X $ $ : : : : : > > > 1 5 y i t > ; % # # + # + # $ > 1 5 5 t 5 5 > > : & $ % : > t p F i G p t : $ + . . . X $ % & : % & : : : % $ $ % $ % % ; $ $ % % $ $ % % : : % & $ : : : $ : : % X . X ` - X X 5 t # . . . $ $ $ & $ $ $ % $ $ $ % % $ % $ $ $ # $ $ $ # $ $ $ $ % % % % & $ $ $ # + X .   . X 5 % % % $ % $ $ $ $ X # $ # # # # $ + # $ : : % $ $ $ $ $ % % $ $ $ $ # $ $ $ $ + X X # # # $ $ # # # # # # X + # # $ % % & C r.u.u.u.u.^ 9 4 4 4 4 4 6 6 6 6 6 7 7 q q q q q q q q q q q q q q q q q q q q q q q q q q q q q q q q q q q q q q q q q q q q q q q q q q ",
"B B B B B B M M B B B B B B B B B B B B B B B B B B B B B B M m m m m m m m m m m m m m m m m m m m m m m m m n e m e e e 0 0 0 0 0 n ^ u.u.u.u.r.~ > 5 t F G J G J i y > ; % $ # # # X . . . . X X X X + $ $ & $ % % $ # # # & % : : > : ; : > > 5 t u t 5 : ; $ $ # # # # $ % : 1 t t 5 t 1 1 > ; % $ $ ; > y i F F F G y : % $ . X X X # & % % : % % % : % % $ % % $ % % % : % % $ $ $ $ % & % % % : : : ; : : % X . X ` - > > > > X . X X $ $ $ $ $ $ & % % % % $ $ $ $ $ $ # $ $ % % % $ $ % % % % % % % $ $ # # + X . . . - > % $ & % $ $ % $ $ # # # # $ $ $ # # $ $ : : % $ $ $ $ $ $ % $ $ $ # # $ # $ $ # # + # # # + # $ # # # # # + # # $ $ % & C r.u.u.u.u.^ w 4 4 4 4 4 4 6 6 6 7 7 7 7 q q q q q q q q q q q q q q q q q q q q q q q q q q q q q q q q q q q q q q q q q q q q q q q q q q ",
"B B m M B B B B B M m B B B B B B B B B B B B B B B B B B B M M m m m m m m m m m m m m m m m m m m m m m m m m n m m m e w w w 0 0 0 n ^ u.u.u.u.r.C > t i J F J J F y > - % $ # # # . . . . . X X X # # # $ % $ $ % $ $ # $ % % : : : : : > 1 5 t t t t 1 : : $ $ + # X $ # $ : > 1 t t 5 t > > - : % % % - t p G F G F t 1 & $ . X . X # % $ : % % : % % % % $ % % $ $ % % % % % $ $ $ $ % : % % $ % % % $ ; % & X . # ` 1 > 5 > ` X X X X $ $ # % $ $ $ % % % $ % % $ $ % $ $ $ $ $ % % $ $ % % % % % $ $ # # # + + X . . . 5 - $ $ $ $ $ $ % $ # X # # # $ $ # $ + $ $ : : % $ $ $ $ $ $ $ $ $ $ # # $ $ $ # $ # # # # # $ # # # # # # # # # X $ % : b r.u.u.u.u.^ w 4 4 4 4 4 4 6 6 6 7 q 7 7 q q q q q q q q q q q q q q q q q q q q q q q q q q q q q q q q q q q q q q q q q q q q q q q q q q q ",
"B B m m B B B B m m m B B B B B B B B B B B B B B B B B B B M M m m m M m m m m m m m m m m m m m m m m m m m m m m m m m e e w 0 0 0 0 n w.u.u.u.u.r.~ t i p J J K J i > : % $ $ # # X . . . . X X X X X + $ $ # % : $ # $ $ % % : : : & : > > 5 t y y y t 1 ; $ $ + # + # $ % : > 1 5 5 5 5 : : - : % % % : y p G G F G t > % $ X . . X # $ $ % & & & % % % % % % % % % $ $ % $ $ $ $ # $ % % % $ % % % % % : & $ X . X ` - K t > `   . X X $ # $ # # # $ $ $ $ % % % % % $ $ $ % $ $ % $ % % % & & : $ $ $ # # # + + X . . . 6 : $ % % $ % $ $ $ $ # # $ # # $ # # # # $ : : % $ % % % $ $ $ $ $ $ $ # $ $ $ $ $ # # $ $ $ $ $ # # # # # # # + # $ $ b r.u.u.u.u.^ w 4 4 4 4 4 4 6 6 6 7 q q 7 q q q q q q q q q q q q q q q q q q q q q q q q q q q q q q q q q q q q q q q q q q q q q q q q q q q q ",
"B B M M B B B B m m m B B B B B B B B B B B B B B B B B B B B M m m m M m m m m m m m m m m m m m m m m m m m m m m m m m m e e w 0 0 0 0 n w.u.u.u.u.r./ t i J J J J p 5 - ; $ $ # + X . . . . X X X X X # $ $ $ % : % # $ % % : & % & % : : > 1 t t i y t > : $ $ # # + # $ $ : > 1 5 1 5 5 > > : & % % % : t p G G G F y 1 % $ + . . X + $ $ % & : & : % % % : % % % $ % % $ % $ $ $ $ # % % % $ $ % % % : ; : $ . . X ~ > ~ p t `   . . # $ # $ $ # $ $ $ # & & $ % % % % $ $ $ $ $ % % % % % % : % % $ $ # # # # + X . . X 5 ; $ $ $ $ $ $ $ $ $ # # $ # # # # # # # $ $ : ; $ $ % $ $ $ % $ $ $ $ $ $ $ $ $ $ $ # # # # $ $ # # + # # # # + + $ b r.u.u.u.u.^ w 4 4 4 4 4 4 4 6 6 7 q q q q q q q q q q q q q q q q q q q q q q q q q q q q q q q q q q q q q q q q q q q q q q q q q q q q q q q q ",
"B B B B B B M m m m M B B B B B B B B B B B B B B B B B B B B M m m m M m m m m m m m m m m m m m m m m m m m M B m m m m m m e e w 0 0 0 0 n ^ u.V.V.V.t./ i J G J J p 5 : % $ + # # X . . . . . X X X X # $ % $ $ : : # $ % & : % % % % : : 1 5 t i i t t 1 : % $ $ # # $ # $ : : 1 5 5 1 1 1 1 : : % $ & ; t p F G J G u > & $ X X . . + $ $ % % : % : % ; % % % % % $ $ $ $ $ % $ # $ $ % % $ $ $ % : $ > & % $ . . # P > K t i ~     X # $ $ $ $ $ $ $ $ $ % $ % % % : % % % $ % % % % : & : % & % $ $ $ $ $ # # X . . . $ 5 % $ $ $ $ $ $ $ $ # $ $ $ # # # # # # $ $ % ; : & % % $ $ $ $ $ $ $ $ $ $ $ $ $ $ $ # $ $ # # # # $ # # + # # # $ b r.u.u.u.u.^ w 4 4 4 4 4 4 4 4 6 6 q 7 q q q q q q q q q q q q q q q q q q q q q q q q q q q q q q q q q q q q q q q q q q q q q q q q q q q q q q q ",
"B B B B B B B B B B B B B B B B B B B B B B B B B B B B B B B M m m m m m m m m m m m m m m M m m m M m m m m m m m m m m m m m e e w 0 0 0 0 n ^ u.V.V.u.t./ G G G K p t > : $ # # # X . X . . . . + X X + $ $ # # & : & % & % : & & $ : : : 1 5 y u u i 5 5 : $ $ # # # $ $ $ & > 1 5 5 5 1 > > ; & % % % : t t p F J J u 5 ; $ $ . . . X # $ % ; % % % % $ % % % % & % % % $ % % $ % $ $ & % ; $ $ $ % $ : : % $ . . o K > K 5 F `   . . X $ $ % $ % % $ $ $ $ $ % : : % $ $ % $ % $ % % & % : & % $ $ $ $ $ $ # # X . .   - > $ $ $ $ $ % $ $ $ # # # # # # $ # # $ $ % & % : % $ $ % % % $ $ $ # $ $ $ $ $ $ $ $ $ # $ # # # # # # + # $ # X / r.u.u.u.u.^ w 4 4 4 4 4 4 4 4 6 6 6 q q q q q q q q q q q q q q q q q q q q q q q q q q q q q q q q q q q q q q q q q q q q q q q q q q q q q q q q q ",
"B B B B B B B B B B B B B B B B B B B B B B B B B B B B B B B B M m m m m m m m m m m m m m M m m m m m m m M m m m m m m m m m e e w w 0 0 0 0 n ^ t.u.u.u.t./ H J J F t 1 : % # # $ X X . . . . . X X X X # $ # # & : : > : : % : % % & : 1 1 5 u u i i t 1 - % $ $ # # # # $ : > 1 1 5 5 5 > > ; & % % % : t i i F G G i 1 ; $ # X . X . + $ $ $ % % : % % % % % % % % % % % $ % $ $ $ $ $ % % $ $ $ % $ : : % $ . . $ G - $ % J P . . . X $ $ $ $ & $ $ $ # $ $ ; : : % % % $ % % % % % % % : : % % $ $ # $ # $ # X . . . 5 - $ $ $ # # $ # $ $ # $ # $ # # $ # $ $ $ % % : & % $ $ $ $ $ $ $ $ $ $ $ $ $ $ $ $ $ $ # # # # X + # # # # # # ^ t.u.u.u.t.^ 9 4 4 4 4 4 4 4 6 6 6 6 7 q q q q q q q q q q q q q q q q q q q q q q q q q q q q q q q q q q q q q q q q q q q q q q q q q q q q q q q q q ",
"B B B B B B B B B B B B B B B B B B B B B B B B B B B B B B B B m M m m m m m m m m m m m m M m m m m m m M M B m m m m m m m m m e e w w 0 0 0 0 n ^ t.u.u.u.t.w.K K G u > - % $ # # # . . . . . . X X X X # $ # # $ & > > > : : & % % % : > 5 t u y u t t 5 - $ $ # # # # $ $ : > > 5 5 1 5 > : : % % % % : t y F F G F i 5 : $ # X . . . # $ $ $ % % % % % % % % % % $ $ % % % $ % # $ $ $ $ % % % & : $ : : % $ . X - p $ % . ` K X . . X $ $ $ $ $ % $ $ $ % % % : : % % % % % % % % % % % : & $ $ $ $ # $ # $ # X . . . u : % $ $ $ $ $ $ $ $ $ # # # # # # # + $ $ % % - ; $ % $ $ $ $ % $ $ $ # # # $ $ % $ $ $ # + # X + X + # # # & ^ t.u.u.u.t.^ 9 4 4 4 4 4 4 4 6 6 6 7 7 q q q q q q q q q q q q q q q q q q q q q q q q q q q q q q q q q q q q q q q q q q q q q q q q q q q q q q q q q q ",
"B B B B B B B B B B B B B B B B B B B B B B B B B B B B B B B B m M m m m m m m m m m m m m m m m m m m m M V V B m m m m m m m m m e e w 0 0 0 0 0 n ^ t.u.u.u.t.e.~ F t 5 > ; $ # + + . . . . . . X # X X X $ # # X % : : > > : & % % : > 1 5 t p u u y t t > % $ $ # + # $ $ % > : > > 5 5 5 - % & % % : ; 5 i p F G F u 5 : $ $ # . . . X $ $ % % % % $ & : % % % % % % $ $ % $ $ $ $ $ # $ % % $ % % % > : & $ . X > i K X # ) J X . . X $ $ $ $ $ % % $ % % % : : % : % % % % % % % % % % : $ $ $ $ # $ $ # # # X . . # t : % % $ $ $ $ $ $ & # # $ $ $ # # # # # $ % : : % $ & $ $ $ $ $ $ $ $ $ $ $ $ $ # $ $ # # # # # X + + # X 4 w.t.u.u.u.t.~ 9 4 4 4 4 4 4 6 4 6 6 7 q q q q q q q q q q q q q q q q q q q q q q q q q q q q q q q q q q q q q q q q q q q q q q q q q q q q q q q q q q q q ",
"B B B B B B B B B B B B B B B B B B B B B B B B B B B B B B B B B M M m m m m m m m m m m m M m m m m m m V V V V B m m m m m m m m m e w w 0 0 0 0 0 w C r.u.u.u.u.r.~ i 1 > $ $ $ # + . . . . . X . X X X # $ $ # # $ & > > > : : % & - 5 5 t i u u i y y y : & $ $ $ # # # $ : > > > 1 5 5 1 : % $ % : : - 1 y G F G G i 5 : $ $ # . . . + # $ % $ $ $ % $ % % % % % % % $ & % % % $ $ $ $ $ $ $ % % % % : % & $ . X > i 5 X X @.p X X X + $ $ % % $ % % % % % & : : : : % % % % % % % % ; % % % % $ $ $ # # # # + .     : 5 % % % $ $ $ $ % $ $ + $ $ $ $ # $ # # # $ $ ; - - $ % % $ $ $ $ $ $ $ $ # $ $ # $ $ # # # # + X X X # # w e.u.u.u.u.r.C 4 4 4 4 4 4 4 6 6 6 6 6 q q q q q q q q q q q q q q q q q q q q q q q q q q q q q q q q q q q q q q q q q q q q q q q q q q q q q q q q q q q q q ",
"B B B B B B B B B B B B B B B B B B B B B B B B B B B B B B B B B M M M m m m m m m m m m m M m m m m m M V V B V V B m m m m m m m m m e e w w 0 0 0 0 0 C r.u.u.u.u.r.~ t > ; $ # $ X . . . . . . X . . X # $ $ # # # % - > : : : & % : 1 5 t i i i i y t t : & $ $ # # # # $ : - : > > 1 1 > ; % $ % % : ; 1 i J F F G i 5 : % $ $ . . . X + $ $ $ $ $ % % % % % % % % % $ % % $ $ % $ # $ $ $ $ % % % $ : % % $ . X > t - : $ u 5 # X X $ $ $ % $ $ : % % $ & : > : : & % % % % & % % % % : : & $ $ $ $ $ # $ # X . .   1 - % % % $ $ $ $ $ $ # $ # $ $ # + $ # # $ # % % ; % & $ % $ $ $ $ # $ $ $ $ $ $ $ $ $ # # # # # X X X # b r.u.u.u.u.e.N 4 4 4 4 4 4 4 6 6 6 6 6 6 q q q q q q q q q q q q q q q q q q q q q q q q q q q q q q q q q q q q q q q q q q q q q q q q q q q q q q q q q q q q q ",
"B B B B B B B B B B B B B B B B B B B B B B B B B B B B B B B B B B M M M m m m m m m m m m M m m m m M B V B B V B B B m m m m m m m m m e e w w 0 0 0 0 0 C e.u.u.u.u.t./ 1 ; $ $ # X . . . . . . . # . X X $ $ $ + # $ : > : : % & : > 1 t t i y i i t y y 5 % $ $ $ # # # $ & : : > : 5 5 : ; $ $ % : - ; 1 i G G G G p 5 : % $ # X . . X # $ $ $ $ $ % $ & % % % : % $ % % $ % % $ $ $ $ $ $ $ $ % % # : % $ # . # # $ J $ % $ $ # # X # $ $ % % $ : % & & % : : : : : % % $ % % % % % : % : $ $ % $ $ # $ $ # X     . t - % % $ $ $ # $ $ $ # # $ $ $ # # + # # # # $ ; - ; % % $ $ $ $ $ $ $ $ $ $ $ $ $ $ # # X # # X X + X b r.u.u.u.u.e.n 4 4 4 4 4 4 4 6 6 6 6 7 7 7 q q q q q q q q q q q q q q q q q q q q q q q q q q q q q q q q q q q q q q q q q q q q q q q q q q q q q q q q q q q q q ",
"B B B B B B B B B B B B B B B B B B B B B B B B B B B B B B B B B B M M M m m m m m m m m m M m M M M V V V m B V V B B B m m m m m m m m m e e e w 0 0 0 0 0 N e.u.u.u.u.t.^ > $ # # X X . . . . . . . X X X $ $ $ $ $ # ; : 1 : : : > > 1 y y t i u t y u t > ; $ $ + # # # # & > > : 1 > 5 : % % % & % - : 1 t p J J J p t - % # $ X . . X # $ $ $ $ $ % $ % $ % % % : & $ $ $ $ $ $ # $ # $ $ $ $ % : % > : % $ . X # : $ : X % # $ # $ % $ % % % % > % % % : : > : : % & : ; ; % % % % % % : % $ % $ $ $ $ $ # . . . # t % $ $ $ $ % $ % $ $ # # # $ $ X $ $ $ # $ # & : % $ % $ $ $ $ # $ $ $ $ $ $ $ $ $ $ $ # # # X # # $ ^ t.u.u.u.u.w.w 4 4 4 4 4 4 4 6 6 6 6 7 7 7 7 q q q q q q q q q q q q q q q q q q q q q q q q q q q q q q q q q q q q q q q q q q q q q q q q q q q q q q q q q q q q q ",
"B B B B B B B B B B B B B B B B B B B B B B B B B B B B B B B B B B M M m m m m m m m m m m M m m M M V V V V V V V B B B B m m m m m m m m e e e e w 0 0 0 0 0 n w.u.u.V.u.t.w.9 $ # + X . . . . . . . . X + # $ $ $ X $ : : 1 : : > 5 5 t t y y t u y u y y 1 ; % $ # # # # $ & : : > : 1 5 : & $ % % ; : : 1 i F F G G p t - % $ $ X . . . X $ $ $ $ $ % $ % % % % % & % % % $ $ $ $ $ $ # $ $ # $ % % % : : % + . X + $ p $ $ X X X $ + % - ; % % $ : : % % : : > : & & % % % % % % $ $ % : % % $ % % $ $ # # # . . . % t ; $ $ $ % $ $ $ $ $ # $ # # $ # # $ # $ $ $ % : & & $ $ % $ $ # $ $ $ $ # $ $ $ $ $ $ X # + # X 3 w.t.u.u.u.u.^ w 4 4 4 4 4 4 4 4 6 6 6 7 7 7 7 q q q q q q q q q q q q q q q q q q q q q q q q q q q q q q q q q q q q q q q q q q q q q q q q q q q q q q q q q q q q q q ",
"B B M M M B B B B B B B B B B B B B B B B B B B B B B B B B B B B B B m m m m m m m M M m m m m m M V V V V m V V V V B B B B m m m m m m m m m e e w w 0 0 0 0 0 n ^ t.u.u.u.u.r.b # + X . . . . . . X X X X $ $ $ $ + $ - > > > ; > 1 5 t t t t t y y u u t 1 % % $ # # # # $ : : : : - 1 > : % $ $ % % - ; 5 i G G G G p t - % $ $ # X X X X # $ $ $ $ $ $ % % ; & % % & $ $ $ $ % $ $ $ $ $ $ $ % $ & % : % % # . # # % 5 # X $ X X + X ; : % : : : : : % % ; > : : : % % % % % % % $ % % % % % % $ $ % $ $ $ # . .   5 5 % & $ $ $ $ $ $ $ $ $ $ $ # $ $ # # # $ $ $ $ : % % $ $ $ $ $ $ $ $ $ $ $ # # $ $ $ $ # # # # b r.u.u.u.u.t.^ 9 4 4 4 4 4 4 4 4 6 6 6 7 q 7 7 q q q q q q q q q q q q q q q q q q q q q q q q q q q q q q q q q q q q q q q q q q q q q q q q q q q q q q q q q q q q q q q ",
"B B B B B B B B B B B B B B B B B B B B B B B B B B B B B B B B B B B M m m m m m m m m m m m m M V V V V V V V V V V B B B B B m m m m m m m m m e e e w 0 0 0 0 0 w C r.u.u.u.u.r.b # X . . . . . . . X X X $ $ $ # + $ : 1 > > : : 5 5 t > t 5 y t y t u t 1 ; % $ $ $ $ # $ & : : : : 1 1 > $ $ % & ; : : 1 i G F G G F u - % $ # $ . . . X + $ % $ $ % % % % : : : % % % $ $ $ # $ $ $ $ $ $ $ $ % & : % % : $ + $ $ > - % X % X # $ % 1 : % > > % > : % - : > : > & % % $ % % % % $ % $ % % % % % $ % $ $ + # . .   6 : $ # $ $ $ $ % $ $ $ $ # # $ # # $ # # $ $ $ % % % % $ $ $ $ $ $ $ $ & $ $ $ $ $ $ $ # $ + $ b r.u.u.u.u.r.C 4 4 4 4 4 4 4 4 4 6 6 6 7 q q 7 q q q q q q q q q q q q q q q q q q q q q q q q q q q q q q q q q q q q q q q q q q q q q q q q q q q q q q q q q q q q q q q q ",
"B B B B B B B B B B B B B B B B B B B B B B B B B B B B B B B B B B B M m m M m m m m m m m m m V V V V m B V B B B B B V V V B B m m m m m m m m m e e w w 0 0 0 0 0 0 C e.u.u.u.u.t.^ : . . . . . . . . X + $ $ # # # $ - > > > 5 1 5 5 5 5 t y t t u i y t 5 ; : $ $ $ # $ $ : : : : : > > - $ $ $ % & : - 1 y F G F G G i - % $ $ $ X . . . # $ $ $ $ % % % % & : % % % % % $ $ $ $ $ $ $ $ $ $ $ % % % : % % $ X $ $ % J # # # & $ $ & > : : > : - : : : : - > > - % & % % $ % % $ % % $ $ $ % % % $ % $ # + X . . . u : $ $ $ $ $ $ $ $ $ $ $ $ $ # # # # + $ $ $ $ $ % $ % $ $ # $ $ $ $ # $ $ $ $ $ $ $ $ $ # 3 ^ t.u.u.u.u.e.n 4 4 4 4 4 4 4 4 4 6 6 6 q q q q q q q q q q q q q q q q q q q q q q q q q q q q q q q q q q q q q q q q q q q q q q q q q q q q q q q q q q q q q q q q q q q q q ",
"B B B B B B B B B B B B B B B B B B B B B B B B B B B B B B B B B B B M m m M M m m m m m m m M V V V V m B V B V B B B V V V V B B m m m m m m m m m e e e w 0 0 0 0 0 0 n w.u.u.u.u.t.r.b . . . . . . . X # $ $ # + # % - : 1 > 1 5 5 1 5 1 5 t t t y u y i 5 : % $ # # $ $ & % & : % : : : - $ $ $ % & : : 1 t G J J J F i > : $ $ $ X . . . # # $ $ $ % $ & % : % % : % % $ $ $ $ $ $ # # $ $ # $ % : : : % % $ + # & > : 5 X : # $ $ $ > : : > : : 1 - ; : : 5 > - : % % $ $ % $ $ % % $ $ $ % % $ $ $ $ $ + . . . $ t ; % $ $ $ $ % $ $ $ $ $ $ # # $ # # # # $ $ $ $ % % $ $ # $ $ $ $ $ $ $ $ $ # # $ $ $ # b r.t.u.u.u.u.^ w 4 4 4 4 4 4 4 4 6 6 6 6 7 q q q q q q q q q q q q q q q q q q q q q q q q q q q q q q q q q q q q q q q q q q q q q q q q q q q q q q q q q q q q q q q q q q q q q ",
"B B B B B B B B B B B B B B B B B B B B B B B B B B B B B B B B B B B m M m m m M m m m m m M V V V V V V B V B V V B B V B V V V B B m m m m m m m m m m e e w w 0 0 0 0 0 n ^ t.u.u.u.u.r.C + . . . . . X # $ $ $ # # $ : > > 1 1 t 5 5 5 1 5 t 5 y y u y y 5 > ; $ $ $ # $ # % % % & : : > : % $ $ $ : : : 1 t F J J J F t > ; & $ # # . . . X # $ $ $ % $ % % & % : % % % % $ $ $ $ $ # $ $ $ # % % % : : : % $ X # & : u # # # # $ & % > : : - : : : : ; : : 5 > - % % $ % $ % $ % % : $ $ $ $ % % $ $ % # + . .   > > ; % $ $ $ $ $ $ # $ # # $ # $ # # # $ $ + $ $ $ % $ $ $ $ $ $ $ $ $ $ $ $ # $ $ $ $ & ^ r.u.u.u.u.r.^ 9 4 4 4 4 4 4 4 4 6 6 6 7 7 6 q q q q q q q q q q q q q q q q q q q q q q q q q q q q q q q q q q q q q q q q q q q q q q q q q q q q q q q q q q q q q q q q q q q q q ",
"M M B B B B B B B B B B B B B B B B B B B B B B B B B B B B B B B B B B M m m m M M m m m m V V B B V B V V V V V V B B B B V V V V B B m m m m m m m m m m e e w 0 0 0 0 0 0 0 C e.u.u.u.u.t.w.3 . . . . X X # $ # $ # $ & > 1 1 5 5 5 5 1 5 1 t t y i i t y t : ; % $ # # # $ % & % % % : & > % $ $ # % - : 5 t i G J F F i 1 ; $ $ $ # X . . X # # $ $ $ $ $ % : & % : % % % # $ $ $ $ # $ $ $ $ % % % - % % % % # $ # : > . X % $ % $ % > & : - : 5 : : - : 1 1 > : % % % $ % $ % % $ & $ $ $ % % $ $ % % # X .   . y > : $ $ $ $ $ $ $ $ $ # $ $ $ $ $ $ # # $ # $ $ $ $ $ $ $ % % $ $ $ $ $ $ $ $ $ $ $ 9 w.t.u.u.u.u.e.N 4 4 4 4 4 4 4 4 4 6 6 7 6 7 7 q q q q q q q q q q q q q q q q q q q q q q q q q q q q q q q q q q q q q q q q q q q q q q q q q q q q q q q q q q q q q q q q q q q q q q ",
"B B B B B B B B B B B B B B B B B B B B B B B B B B B B B B B B B B B B B m m m M m m m M M V V B B B B V V B B V V V V B B B B V V B B B m m m m m m m m m m e e w w 0 0 0 0 0 0 N w.u.u.u.u.u.r.b . . . X + # $ $ # $ $ % : : 5 1 5 1 5 5 5 1 t t y i p y y t > % $ $ # # # % $ % % % % ; : : % $ $ $ - - : > t F J J J G y 1 : $ $ # # . . . X # $ $ $ $ $ $ % % % : % % % $ $ # $ # $ # $ $ # $ $ : % : & % : $ # $ % : - $ X & # $ % % : & : : : ; > : - : 1 1 : : ; % $ % $ $ % $ % $ $ $ $ % % % % % $ X . . . . y : ; $ $ # $ # $ # $ $ $ $ $ # $ $ $ $ # # $ $ $ $ $ $ $ $ $ $ $ $ $ $ $ $ $ $ # # b r.u.u.u.u.u.w.w 4 4 4 4 4 4 4 4 4 6 6 6 q 7 7 q q q q q q q q q q q q q q q q q q q q q q q q q q q q q q q q q q q q q q q q q q q q q q q q q q q q q q q q q q q q q q q q q q q q q q q ",
"B B B M M B B B B B B B B B B B B B B B B B B B B B B B B B B B B B B B B m m M M m m M M V V V V V B B V V V B V V B V B B B B V V B B B B m m m m m m m m m m e e w w 0 0 0 0 0 0 n ^ r.u.u.u.u.t.^ 4 . X X # $ # # $ # ; - > 1 1 > 5 1 5 1 1 t t i i p i i t > : % # # $ $ $ $ % % % $ % ; : $ % % % % : : 5 t G J H J J t 1 : % % $ $ X . . X + $ # $ $ $ % % ; % : : % % $ $ $ $ # $ $ $ $ $ $ $ % & % : % % $ X $ % > u X $ X $ % $ % > ; : - : : 1 > : : 1 1 : : % $ % % % $ $ $ $ $ $ % $ % $ % $ $ # X . . . X u - % % $ $ % $ $ $ $ $ $ $ # # # # $ # # $ $ $ # $ $ $ % % % % $ # $ $ $ $ $ $ 9 w.t.u.u.u.u.r./ 9 4 4 4 4 4 4 4 4 4 6 6 6 7 q 7 q q q q q q q q q q q q q q q q q q q q q q q q q q q q q q q q q q q q q q q q q q q q q q q q q q q q q q q q q q q q q q q q q q q q q q q q ",
"B B M M M B B B B B B B B B B B B B B B B B B B B B B B B B B B B B B B B M M M m m m M B V B B V V B B V V B B B B B B B B B V V V V B B B B m m m m m m m m m e e e w w 0 0 0 0 0 0 0 C e.u.u.u.u.u.r.b . X $ $ # # $ # % - > > 1 5 1 1 1 1 5 t y i i p p p y > - % $ # # # $ $ % % % % : : : % $ % & % : : 5 t G J H G F y 5 ; % $ $ $ X . . . + # $ # $ $ $ ; ; : % : : % % $ $ # $ # # $ $ $ $ $ % $ : : % % % # # & > o 5 # % # $ $ % > ; : > - ; > - : : > > : : & $ % % % $ $ $ $ $ % % $ $ $ % % $ + . . . . % t ; & % $ $ $ $ $ $ $ # $ $ $ $ $ # $ # # # # # # # $ $ % % $ % $ # $ $ $ $ $ b r.u.u.u.u.u.e.n 4 4 4 4 4 4 4 4 4 4 6 6 6 q q q q q q q q q q q q q q q q q q q q q q q q q q q q q q q q q q q q q q q q q q q q q q q q q q q q q q q q q q q q q q q q q q q q q q q q q q q q ",
"B B B B B B B B B B B B B B B B B B B B B B B B B B B B B B B B B B B B B B M m m m m M M V B B V V B B B B B V V V B B B B B V V V V B B B V B m m m m m m m m m e e e e w 0 0 0 0 0 0 0 n ^ t.u.u.u.u.t.w.9 # $ $ # $ # % : > > 1 1 t 5 > 5 5 t i i p G J G y > ; ; % $ # $ $ $ % $ $ % % $ & % $ % % & : : 1 t p G J F p y 5 : $ $ $ # X . . . + # $ $ $ $ & $ % % : % % % $ $ # # $ $ # # $ $ $ $ $ & : & % % $ $ # & > 5 # $ X $ % $ % 1 ; : : : > : : : : 1 > : > % % $ % % $ $ $ $ $ % % % % : % $ # X . . . . 1 5 % % $ $ $ % $ $ $ $ & $ $ # $ $ $ # # # + # # + + $ % $ % $ $ $ $ $ $ $ 9 w.t.u.u.u.u.t.^ w 4 4 4 4 4 4 4 4 4 4 4 6 6 q q q q q q q q q q q q q q q q q q q q q q q q q q q q q q q q q q q q q q q q q q q q q q q q q q q q q q q q q q q q q q q q q q q q q q q q q q q q q ",
"B B B B B B B B B B B B B B B B B B B B B B B B B B B B B B B B B B B B B B B m m m M V V V B B V V B B B B B B B B m m m m V V V V V V B B V V B m m m m m m m m m m e e e w 0 0 0 0 0 0 0 w C e.u.u.u.u.u.r./ & $ # $ $ - : : > 1 1 1 1 5 5 1 t y i G G J G y 1 : ; % % $ $ $ $ % % $ $ % % : % $ $ % & : ; 1 t p G F F F i 5 : ; $ $ $ + . . . X # $ $ $ $ % % : % : % : $ % $ $ # $ $ $ $ $ # $ # $ $ : % % % % X $ $ > : # + % & & % : : - - : - > : ; > : 5 : : : % % % % $ $ $ $ $ $ & % % % % % $ # X X . . X t > % $ $ $ $ $ # $ $ $ $ $ $ $ # $ # $ # # # # $ $ $ $ $ $ $ $ $ $ $ $ & / r.u.u.u.u.u.e.N 4 4 4 4 4 4 4 4 4 4 4 6 6 7 q 7 q q q q q q q q q q q q q q q q q q q q q q q q q q q q q q q q q q q q q q q q q q q q q q q q q q q q q q q q q q q q q q q q q q q q q q q q q q q q ",
"B B B B B B B B B B B B B B B B B B B B B B B B B B B B B B B B B B B B B B M m m m V V V V B B V V B B B B V B B B B B B B V V V V V V B B B V V B m m m m m m m m m m m e e w w 0 0 0 0 0 0 0 n ^ t.u.u.u.u.t.e.b $ # $ % ; > > 1 1 1 1 1 5 5 t i u p J G p t 1 : ; % % $ $ # $ $ $ $ $ % % & % $ % $ % & : > t p J F F p i 5 : : % # $ + X . X + # $ $ $ $ % ; % % % ; % % $ % $ $ # # # $ $ $ # # $ & : % % % $ # # & > $ 5 X % $ % # & 5 : : : : 1 : ; : 1 1 : : & % % % % $ $ $ $ $ $ & % % % % $ $ X X X . . X u - % $ $ $ $ $ $ $ $ $ $ $ $ $ $ $ $ # $ # + # # # $ $ % % $ $ $ % $ b e.t.u.u.u.u.t.^ w 4 4 4 4 4 4 4 4 4 4 6 6 7 q q q q q q q q q q q q q q q q q q q q q q q q q q q q q q q q q q q q q q q q q q q q q q q q q q q q q q q q q q q q q q q q q q q q q q q q q q q q q q q q ",
"B B B B B B B B B B B B B B B B B B B B B B B B B B B B B B B B B B B B B B B m m m B V V V V V V V V V V V V V V V V V V V V V V V B B B B V V V V B m B B m m m m m m m e e e e w 0 0 0 0 0 0 0 w C e.u.u.u.u.u.t.^ 3 # % ; > > > 5 1 > 5 1 1 t t i F p p u y 1 - : % % $ $ $ $ $ $ $ $ % % % % % $ $ : % - > y p F G G G i 5 - : % $ $ $ X . X X + # # $ $ $ % : % % % % $ % % % $ $ $ # $ $ # $ # $ % : & & & : X $ $ t 5 # $ X % & & ; 5 & & : : > : : : 1 5 > - ; % % % $ $ $ $ $ % % % % % % % $ $ # X . . . $ y : $ $ $ % $ $ % $ $ $ $ $ $ $ # $ # $ # $ # # $ # $ $ $ $ $ $ $ 9 ^ t.u.u.u.u.u.e.N 4 4 4 4 4 4 4 4 4 4 4 6 6 7 7 q q q q q q q q q q q q q q q q q q q q q q q q q q q q q q q q q q q q q q q q q q q q q q q q q q q q q q q q q q q q q q q q q q q q q q q q q q q q q q q q ",
"B B B B B B B B B B B B B B B B B B B B B B B B B B B B B B B B B B B B B B B B B B V V V V B B V V B B V V V V V V V V V V V V V V m m m m V V V V V B B B B B m m m m m m e e e e w w 0 0 0 0 0 0 0 n ^ t.u.u.u.u.u.r./ : : : 1 > 1 > 1 > 1 5 t t i p F p y t 5 > : % % $ $ # # $ $ $ $ $ % : % $ $ $ $ % - 1 t i F F G G i 5 - : & $ $ # + X . . X # $ $ $ % % % % : % % % : % % $ # # # $ # # # # $ & : % % % : X $ $ > X u X & # $ & $ : & % : - : - - : 5 > : : % $ $ % $ % $ $ $ % & % % % ; % $ $ + X . . . > 5 : % % $ $ # # $ $ $ $ $ $ $ $ $ $ $ $ $ + $ $ $ # $ $ $ $ $ $ / r.u.u.u.u.u.r.^ w 4 4 4 4 4 4 4 4 4 4 4 6 6 6 7 q q q q q q q q q q q q q q q q q q q q q q q q q q q q q q q q q q q q q q q q q q q q q q q q q q q q q q q q q q q q q q q q q q q q q q q q q q q q q q q q q ",
"B B B B B B B B B B B B B B B B B B B B B B B B B B B B B B B B B B B B B B B B B B B B V V B B V V V V V V B B V V V V V V V V V V V V V V V V V V V V B B m m m m m m m m m m e e e w w 0 0 0 0 0 0 0 w N e.u.u.u.u.u.t.e.N > > > 1 1 1 > 1 t t i i F i u y t 1 > : % $ $ $ # $ $ $ $ $ % % % $ % % $ % ; > > t p F G G F p 5 > : % $ # $ # . X X X $ $ $ $ % % % % % % % % : $ $ $ $ $ $ $ # $ # # $ $ - $ % & % + $ & 6 > # + X $ $ & % : : & : : & : : > 5 > - - % $ $ $ $ % % $ % % : ; & : & % $ # X X . . . t > ; $ $ $ $ # # $ $ $ $ # $ # $ # $ $ $ # $ $ $ $ $ $ $ $ $ b e.t.u.u.u.u.u.w.n 4 4 4 4 4 4 4 4 4 4 4 6 6 6 6 6 6 q q q q q q q q q q q q q q q q q q q q q q q q q q q q q q q q q q q q q q q q q q q q q q q q q q q q q q q q q q q q q q q q q q q q q q q q q q q q q q q q q ",
"B B B B B B B B B B B B B B B B B B B B B B B B B B B B B B B B B B B B B B B m m m M M B m B B B B B B B B B B B B V V V V V V V V V V V V V V V V V V V V B m m V m m m m m m m m e e e w 0 0 0 0 0 0 0 0 n ^ r.u.u.u.u.u.t.w.N 1 1 1 1 1 1 5 t u p p i p y y 5 5 ; & $ $ $ # # $ # $ $ $ % $ % % % % % - : > t p G G G p u t > : & % $ # # X X X X # $ $ $ $ % % % % $ & % : % % $ # # $ $ # $ $ # # $ % % & & % X $ % 5 : # X : % % $ % : % & % & > : : > 5 > - - : $ $ $ $ % % % % : : % ; : % - $ # X . . . X y - ; % $ $ $ $ $ $ # $ $ $ # $ $ # $ # $ # # # $ $ $ # # w w.t.u.V.u.u.u.r.~ 9 4 4 4 4 4 4 4 4 4 4 6 6 6 6 6 6 7 q q q q q q q q q q q q q q q q q q q q q q q q q q q q q q q q q q q q q q q q q q q q q q q q q q q q q q q q q q q q q q q q q q q q q q q q q q q q q q q q q q ",
"B B B B B B B B B B B B B B B B B B B B B B B B B B B B B B B B B B B B B B B m m m m M M m M M M M M M M M M M M M M M M M M M M M M M M M M M M B V V V V V B m V m m m m m m m m m e m e w w 0 0 0 0 0 0 0 0 n ^ t.u.u.u.u.u.t.w.s 1 1 > 1 5 t i F F i p y t 5 1 : % $ $ $ $ $ # + # # $ $ $ % % % $ $ % ; : t i G p G F p 5 1 : : % # # # X X . + + $ $ $ $ % % % % % % & $ % % $ $ $ # # $ $ $ $ $ $ : ; : : $ # $ % 5 % 6 + % # $ # $ : : & : : : : : > t 1 : $ % % $ $ % % & % : : : : % : : % $ # X X . X % y : % $ $ $ $ $ # # $ $ $ $ $ $ # $ $ $ X # # $ $ $ # 9 ^ t.u.u.u.u.u.t.^ w 4 4 4 4 4 4 4 4 4 4 4 6 6 6 6 7 6 q q q q q q q q q q q q q q q q q q q q q q q q q q q q q q q q q q q q q q q q q q q q q q q q q q q q q q q q q q q q q q q q q q q q q q q q q q q q q q q q q q q q ",
"B B B B B B B B B B B B B B B B B B B B B B B B B B B B B B B B B B B B B M m m m m m M M M M M M M M M M M M M M M M m m m m m m m m m m M M M M M M M M M M M m m m m m m m m m m m m m e e w e 0 0 0 0 0 0 0 0 0 N w.u.u.u.u.u.u.t.^ s 1 5 t t i F F p i i t 5 > : % $ $ $ # $ $ # $ $ $ $ % % % % $ % % : > t i p F F F i t > : & % # # # X . . X # $ # # $ % % ; % % % % $ $ $ $ # # # # # # # # $ $ : ; & & % X $ : u > X + # $ & $ $ > : % & : > : : > t > : $ $ $ $ $ % % % % : : : ; % : % % # # X . . X > 5 ; % $ $ % $ $ $ $ $ # $ $ # $ $ $ $ # $ # # # $ 9 ^ r.u.u.u.u.u.t.w.n 4 4 4 4 4 4 4 4 4 4 4 6 6 6 6 7 6 7 q q q q q q q q q q q q q q q q q q q q q q q q q q q q q q q q q q q q q q q q q q q q q q q q q q q q q q q q q q q q q q q q q q q q q q q q q q q q q q q q q q q q q ",
"B B B B B B B B B B B B B B B B B B B B B B B B B B B B B B B B B B B B M m m m m m m M M M M M M M M M M M M M M M M m m m m m m m m m m M M M M M M M M M M M M M M m m m m m m m m n e e e e e w w 0 0 0 0 0 0 0 0 w C e.u.u.V.V.u.u.t.^ s t t p i F i i y t 5 > : % % % $ $ $ $ $ # $ # $ # $ % $ $ $ % : > y i i p F G p t 1 : : & $ # # X . X X # # $ $ $ % & % % % % % $ $ $ $ $ # + # # # $ # # % ; % % % % X % % > X 6 X % # $ $ $ > % % : % > & ; > t 1 : & % $ $ $ % % % : : : & : : & % % # # X . . . t 1 ; % $ $ $ $ $ $ $ $ $ # # $ # $ $ $ # # # $ 3 ^ r.u.u.u.u.u.u.e.C 4 4 4 4 4 4 4 4 4 4 4 4 6 6 6 6 6 q q q q q q q q q q q q q q q q q q q q q q q q q q q q q q q q q q q q q q q q q q q q q q q q q q q q q q q q q q q q q q q q q q q q q q q q q q q q q q q q q q q q q q q q ",
"B B B B B B B B B B B B B B B B B B B B B B B B B B B B B B B B B B B M M m m m m m m m M M m m M M M M M M M M M M M M m M M M m m m m M M M M M M M M M M M M M m m m m m m m m m m m n e e e e w w 0 0 0 0 0 0 0 0 0 0 n ^ r.V.V.V.V.u.u.t.^ ~ i F F F i y y 5 > : % % $ $ $ # $ # $ $ $ $ $ # $ $ $ % % ; > t i p p p J p y 5 - ; & $ # $ X . . . + # $ $ $ % % % % : % % % $ $ $ # + # # $ # + $ $ $ ; $ % % & # $ $ a % X # X # # $ % > & % % % : : % 1 t > ; % $ $ $ $ % ; : : : : ; : : : % $ # X . . . X t - - % $ $ $ $ $ $ $ $ $ $ $ # $ # $ $ # # 9 ^ r.u.u.u.u.u.u.e.~ 9 4 4 4 4 4 4 4 4 4 4 4 4 6 6 6 6 7 q q q q q q q q q q q q q q q q q q q q q q q q q q q q q q q q q q q q q q q q q q q q q q q q q q q q q q q q q q q q q q q q q q q q q q q q q q q q q q q q q q q q q q q q q ",
"B B B B B B B B B B B B B B B B B B B B B B B B B B B B B B B B B B M M e m m m m m m m m m m m m M M M M M M M M M M M M M M M M M M M M M M M M M M M M M M M M M M M M m m m m m m m n e e e e e w w 0 0 0 0 0 0 0 0 0 0 0 n ^ r.V.u.u.u.u.u.t.w.~ F p i y y 5 > - $ % $ $ $ # # # # $ $ $ $ $ $ $ $ % % - 5 t p p F p p i t 1 > : % $ # $ + . X . X $ $ # $ $ % % % % % $ % $ $ $ $ # $ # # $ # + $ $ : & & : % # % & u $   # : % $ $ : > : : & : : % : > 5 1 % % $ $ % & : : % > : : ; : : : % $ # X X X . X t - % & % $ $ # $ # $ # $ $ $ # # $ # $ 9 ^ r.u.u.u.u.u.u.r.^ w 4 4 4 4 4 4 4 4 4 4 4 4 4 4 6 6 7 q q q q q q q q q q q q q q q q q q q q q q q q q q q q q q q q q q q q q q q q q q q q q q q q q q q q q q q q q q q q q q q q q q q q q q q q q q q q q q q q q q q q q q q q q q q ",
"B B B B B B B B B B B B B B B B B B B B B B B B B B B B B B B B B M M M M m m m m m m m m m e m m m m M M M M M M M M M M M M M M M M M M M M M M M M M M M M M M M M M M M M m m m m m m e e e e e w w w w 0 0 0 0 0 0 9 9 9 9 9 n ^ r.u.u.u.u.u.u.t.e.~ u y y 5 - : % & $ $ $ # # # # # $ $ $ $ $ $ $ % % - > t y F i p i i y 1 : : % % $ $ # . . . X # $ $ $ $ % & % % : % % $ $ $ $ $ # # # # # + $ $ : : : % % + % ; t % 6 X % # & $ % > : % : % & % ; 5 5 1 % % $ % % % % ; : : > > ; : : % % $ # X X . . : 5 : : $ % $ $ # # # $ # $ $ % $ $ # w w.t.u.u.u.u.u.u.r.^ w 4 4 4 4 4 4 4 4 4 4 4 4 4 4 4 6 6 q q q q q q q q q q q q q q q q q q q q q q q q q q q q q q q q q q q q q q q q q q q q q q q q q q q q q q q q q q q q q q q q q q q q q q q q q q q q q q q q q q q q q q q q q q q q q ",
"B B B B B B B B B B B B B B B B B B B B B B B B B B B B B B B B M M m M M m m m m m m m m m M M m m m m m M M M M M M M M M M M M M M M M M M M M M M M M M M M M M M M M M M M m m m m m m m m m e e e e e w 0 0 0 0 0 0 0 0 0 9 9 9 n ^ r.u.u.u.u.u.u.t.e./ p 5 > : % % % $ $ # $ # $ # $ $ $ $ $ # $ % % - > t i p F i p i y 1 > : % % $ # # . . X X # $ # $ $ % ; % % % : % % $ # $ # # $ # # # # $ # : & : % % X : : ) > + X # & $ # % > : & : : : % : 5 t > % % $ % % : : : : - : > : : - & & % # X X . X t > : % % $ $ $ $ $ $ $ # $ # $ & b e.t.u.u.u.u.u.u.r.^ n 4 4 4 4 4 4 4 4 4 4 4 4 4 4 6 6 6 7 6 7 q q q q q q q q q q q q q q q q q q q q q q q q q q q q q q q q q q q q q q q q q q q q q q q q q q q q q q q q q q q q q q q q q q q q q q q q q q q q q q q q q q q q q q q q q q q q ",
"B B B B B B B B B B B B B B B B B B B B B B B B B B B B B B B B M m m M M M m m m m m m m m M M M m m m m M M M M M M M M M M M M M M M M M M M M M M M M M M M M M M M M M M M M M m m m m m m m m m e e e e e w 0 w 0 0 0 0 0 9 9 0 9 0 n ^ r.u.u.u.u.u.u.u.r./ s : % : $ $ # $ $ # $ # $ $ $ $ $ $ $ $ % ; 1 t y i p p u i y 5 > ; % $ $ $ # X X . . X $ $ $ $ % % : % % % $ % % $ $ $ # # # # # + $ $ ; % & % % $ : ; 3 X 7 # % $ % $ % > % & % % $ $ - 5 t > % % % & % ; : : : : > : ; : : % % % # + . . X i - ; $ $ $ $ # $ $ $ $ # # 3 / r.u.u.u.u.u.u.V.r.^ n w 0 4 4 4 4 4 4 4 4 4 4 4 4 6 6 6 7 q q q q q q q q q q q q q q q q q q q q q q q q q q q q q q q q q q q q q q q q q q q q q q q q q q q q q q q q q q q q q q q q q q q q q q q q q q q q q q q q q q q q q q q q q q q q q q q q ",
"B B B B B B B B B B B B B B B B B B B B B B B B B B B B B B M m m M M m m m m m m m m m m m M M M m m m M M M m m M M M M M M m M M M M M M M M M M M M M M M M M M M M M M M M M M M m m m m m m m n m e e e e w w w w 0 0 0 0 0 0 9 0 9 9 0 n ^ r.u.u.u.u.u.u.u.t.w.b - $ # $ $ $ # + X $ $ $ # # $ # $ $ : 1 1 t i p i u u y 5 : : $ % $ # # X . X X # X $ $ $ % % : % % % % % % $ # $ # # # # + # $ $ : % : % % $ % : g - # # # $ $ # $ - : & % % $ $ - 5 t - % % % % % : : : : : : : : & : % % $ # X . . X i : : $ $ $ $ $ # $ $ $ b w.t.u.u.u.u.u.u.u.r.^ n 0 0 0 0 9 4 4 4 4 4 4 4 4 4 6 6 6 6 7 q q q q q q q q q q q q q q q q q q q q q q q q q q q q q q q q q q q q q q q q q q q q q q q q q q q q q q q q q q q q q q q q q q q q q q q q q q q q q q q q q q q q q q q q q q q q q q q q q ",
"B B B B B B B B B B B B B B B B B B B B B B B B B B B B B M m m m M M m m m m m m m m m m m M M M M M M M M M m m M M B M M M m M M M M M M M M M M M M M M M M M M M M M M M M M M M M m m m m m m m m m e e e e w w w 0 0 0 0 0 0 0 0 0 9 9 9 9 w ^ e.u.u.u.u.u.u.u.t.r./ 9 $ $ $ # $ $ # $ # $ # # $ $ $ : > 5 y i i i p y t 1 : : ; % % $ # X . . . X # + $ $ % % : % ; % % % $ $ $ # $ $ # # + # $ $ % % & & % # : : g % X # $ $ $ $ % : $ $ & $ % % - t t : % % % ; ; ; : : : : : & : : & % $ $ X . .   - 5 > % $ $ $ $ $ $ 3 / r.t.u.u.u.u.u.u.u.e.^ n 0 0 0 0 0 0 9 4 4 4 4 4 4 4 4 6 6 6 6 7 7 q q q q q q q q q q q q q q q q q q q q q q q q q q q q q q q q q q q q q q q q q q q q q q q q q q q q q q q q q q q q q q q q q q q q q q q q q q q q q q q q q q q q q q q q q q q q q q q q q ",
"B B B B B B B B B B B B B B B B B B B B B B B B B B B B M m m m m m m m m m M M M M M M M M M M M M M M M M M m m M M M M M M m M M M M M M m m M M M M M M M M M M M M M M M M M M M M M M m m m m m m m m e e e e e w w w 0 0 0 0 0 0 0 0 0 0 0 9 0 w C w.t.u.u.u.u.u.u.u.t.w.b : # # # # $ # $ # $ $ % % : > 5 t i i i u i y 5 > > ; % % $ # X X . . X # # # $ $ % % & : % % % % $ # $ $ $ # # # # # $ : $ : & $ # % : t $ u $ $ # # $ $ % $ % % % $ $ - 5 t ; $ % : : : - : - : : % : & % % $ # X . .     1 5 - % $ $ $ : b w.t.u.u.u.u.u.u.u.t.w.C w 0 0 0 0 0 0 0 w 0 4 4 4 4 4 6 6 4 6 6 7 7 7 q q q q q q q q q q q q q q q q q q q q q q q q q q q q q q q q q q q q q q q q q q q q q q q q q q q q q q q q q q q q q q q q q q q q q q q q q q q q q q q q q q q q q q q q q q q q q q q q q q ",
"B B B B B B B B B B B B B B B B B B B B B B B B B B B M m m m m m m m m m M M M M M M M M M M M M M M M M M M M M M M M m M M M M M M m M M M M M M M M M M M M M M M M M M M M M M M M M M M m m m m m m m m m e e e e e w w w w w 0 0 0 0 0 0 0 0 9 9 0 0 n ^ r.u.u.u.u.u.u.u.u.t.w.b & # $ $ $ # $ $ % % % > t y i i i t y y t 5 ; ; % % $ $ # X . . X # # $ $ % % % : : % % % $ $ $ $ $ $ # # # # # % $ : : % $ % : : ` > $ . X $ $ $ $ : $ $ % $ $ % : 5 t : % : : : ; : : : - : : % % % % $ # X .   . . y 5 : % : b w.t.u.u.u.u.u.u.u.u.r.^ N 0 0 0 0 0 0 0 0 w 0 w 0 4 4 4 6 6 6 6 6 6 6 7 7 q q q q q q q q q q q q q q q q q q q q q q q q q q q q q q q q q q q q q q q q q q q q q q q q q q q q q q q q q q q q q q q q q q q q q q q q q q q q q q q q q q q q q q q q q q q q q q q q q q q ",
"B B B B B B B B B B B B B B B B B B B B B B B B B B M m m m m m m m m m m M M M M M M M M M M M M M M M M M M M M M m m m m m M M M M m m M M M M M M M M M M M M M M M M M M M M M M M M M M M m m m m m m m m m m e e e e e e w w w w 0 0 0 0 0 0 0 9 9 9 9 0 w ^ e.t.u.u.u.u.V.u.u.u.r.^ b & # $ # $ % % % : 5 t i y t i i y 5 1 > : % & % $ + X . . X X # $ $ $ % : : & & % % $ $ # # # $ + # # # # # % % & % # $ > - t X 6 % $ $ # $ % ; % $ % % % $ : t t % % : : : : % : ; : : & & & $ $ X + . . . . $ u t C w.r.u.u.u.u.u.u.u.u.t.e.^ w 0 0 0 0 0 0 0 0 0 0 w w m w 9 4 6 6 6 6 6 7 6 7 q q q q q q q q q q q q q q q q q q q q q q q q q q q q q q q q q q q q q q q q q q q q q q q q q q q q q q q q q q q q q q q q q q q q q q q q q q q q q q q q q q q q q q q q q q q q q q q q q q q q q ",
"B B B B B B B B B B B B B B B B B B B B B B B B B M m m m m m m m m m m m M M M M M M M M M M M M M M M M M M M M M m m m m m M M M M M M M M M M M M M M M M M M M M M M M M M M M M M M M M M m m m m m m m m m m m m m e e e e w w w w w 0 0 0 0 0 0 9 9 0 9 9 9 9 n ^ r.u.u.u.u.u.u.u.u.u.t.w.b 3 $ $ % % > 5 y t i y y y y 5 1 : ; % % % $ # X . . . + # # $ % % : : % & % $ $ # # # # # $ + + X # $ $ : % % $ $ > ; K % % # # # # # % ; % $ % % $ % > 5 5 ; % % > : : : - - : & % % % $ # # X . . . - / e.t.u.u.u.u.u.u.u.u.u.r.^ n 0 0 0 0 0 0 0 0 0 0 0 0 w w m m e w 4 6 7 6 7 6 q q q q q q q q q q q q q q q q q q q q q q q q q q q q q q q q q q q q q q q q q q q q q q q q q q q q q q q q q q q q q q q q q q q q q q q q q q q q q q q q q q q q q q q q q q q q q q q q q q q q q q q q ",
"B B B B B B B B B B B B B B B B B B B B B B B B M M m m m m m M M M M M M M M M M M M M M M M M M M M M M M M M M M M m m m m m M M M M M M M m M M M M M M M M M M M M M M M M M M M M M M M M M M M M m m m m m m m m m e m e e e w w w w w 0 0 0 0 0 0 0 0 0 9 9 9 9 9 0 C w.r.u.u.u.u.u.u.u.u.u.t.e.^ w > : t y t i y t i t t 1 > : % % % $ # X . . X X # $ $ $ ; : : : % % $ $ $ # # # # $ # # + # # $ % % % $ $ % : ` $ X X $ $ $ # $ % $ $ $ % % % : t 5 : & % > : : : : : % % % % $ $ X X $ 9 ^ e.t.u.u.u.u.u.u.u.u.u.r.w.C w 0 0 0 0 0 0 0 0 w 0 0 0 0 0 w e m m m w 6 7 q 7 q 7 q q q q q q q q q q q q q q q q q q q q q q q q q q q q q q q q q q q q q q q q q q q q q q q q q q q q q q q q q q q q q q q q q q q q q q q q q q q q q q q q q q q q q q q q q q q q q q q q q q q q q q q q ",
"B B B B B B B B B B B B B B B B B B B B B B B B m m m M M M M M M M M M M M M M M M M M M M M M M M M M M M M m M M M M M m m m m m M M M M M M M M M M M M M M M M M M M M M M M M M M M M M M M M M M M M m m m m m m m m m m e e e e e w w w w w 0 0 0 0 0 0 9 9 9 9 9 9 9 9 w C w.t.u.u.u.u.u.u.u.u.u.u.t.w./ N t t i y t y t > > - % : % $ # X . . . X # $ $ $ & : : : $ % $ $ $ $ $ # + # # $ # $ $ $ $ % : $ % & - 1 $ K & $ # $ # $ % $ % $ $ $ % > t > - $ : : : : : - - : $ % % & 9 b w.r.u.u.u.u.u.u.u.u.u.u.t.w.C w 0 0 0 0 0 0 0 0 0 0 0 w 0 0 w w w e e m m m w 7 7 q q q q q q q q q q q q q q q q q q q q q q q q q q q q q q q q q q q q q q q q q q q q q q q q q q q q q q q q q q q q q q q q q q q q q q q q q q q q q q q q q q q q q q q q q q q q q q q q q q q q q q q q q q q q ",
"B B B B B B B B B B B B B B B B B B B B B B B M m m m M M m M M M M M M M M M M M M M M M M M M M M M M M M M m M M M M M M m m m m M M M M M M M M M M M M M M M M M M M M M M M M M M M M M M M M M M M M M M m m m m m m m m m m e e e e w w w w 0 0 0 0 0 0 9 9 9 9 9 9 9 9 9 9 9 w C w.t.u.u.u.u.V.u.u.u.u.u.u.t.e./ ~ p y t : : - : : : $ # X . . . X # # $ $ : % : : % $ $ $ $ $ # # # # # $ + $ # $ % & % $ $ : % +.% # . X # $ # $ % % $ % $ $ % > t 1 : & : : : : : : : : w / w.t.u.u.u.u.u.u.u.u.u.u.u.t.w.C w 9 9 9 9 9 9 0 9 9 0 0 0 0 0 0 w w w w w e e e m m e w 7 q q q q q q q q q q q q q q q q q q q q q q q q q q q q q q q q q q q q q q q q q q q q q q q q q q q q q q q q q q q q q q q q q q q q q q q q q q q q q q q q q q q q q q q q q q q q q q q q q q q q q q q q q q q q ",
"B B B B B B B B B B B B B B B B B B B B B B m m m m M m m m m m M M M M M M M M M M M M M M M M M M M M M M M M M M M M M M M M M M m M M M M M M M M M M M M M M M M M M M M M M M M M M M M M M M M M M M M M m m m m m m m m m m m e e e e e e w w w 0 0 0 0 0 0 9 9 9 9 9 9 9 9 9 0 9 0 w C w.r.u.u.u.u.u.u.u.u.u.u.u.u.t.r.^ ~ s : : - : $ # X . . . X # # # % % : : : - $ $ $ $ $ # # # # # # # # # % % : % $ $ : - t X % & $ # $ # $ % $ $ $ $ $ & > 5 > : % : : > w ~ ^ e.t.u.u.u.u.u.u.u.u.u.u.u.u.r.w.C w 9 9 9 9 9 9 9 9 9 0 9 9 0 0 0 w 0 0 w w w w w e e e e m e q q q q q q q q q q q q q q q q q q q q q q q q q q q q q q q q q q q q q q q q q q q q q q q q q q q q q q q q q q q q q q q q q q q q q q q q q q q q q q q q q q q q q q q q q q q q q q q q q q q q q q q q q q q q q q ",
"B B B B B B B B B B B B B B B B B B B B B m m m M M m m m m m m m M M M M M M M M M M M M M M M M M M M M M M M M M m m M M B B B M m m m m m M M M M M M M M M M M M M M M M M M M M M M M M M M M M M M M M M M M M m m m m m m m m m m e e e e e e w w 0 0 0 0 0 0 0 0 0 0 9 9 0 9 9 9 9 9 9 0 0 M ^ e.t.u.u.u.u.u.u.u.u.u.u.u.u.u.t.e.w./ b 4 # . . . X + # $ $ : : : : : $ $ $ $ $ # # # # # # $ $ $ % % % % # $ & > J % % $ X + # # $ $ $ $ $ # $ % > t s N / w.e.t.u.u.u.u.u.u.u.u.u.u.u.u.u.t.e.^ n 9 9 9 9 9 9 9 9 9 9 9 9 9 0 0 0 0 w w w w w w w e e e e m e e e e d q q q q q q q q q q q q q q q q q q q q q q q q q q q q q q q q q q q q q q q q q q q q q q q q q q q q q q q q q q q q q q q q q q q q q q q q q q q q q q q q q q q q q q q q q q q q q q q q q q q q q q q q q q q q q ",
"B B B B B B B B B B B B B B B B B B B B M M M M M M M M M M M M M M M M M M M M M M M M M M M M M M M M M M M M M M M M M M M M M M M M M M M M M m m m m m m M M m M M M M M M M M M M M M M M M M M M M M M M M M M M M m m m m m m m m m m e e e e e e e w 0 0 0 0 0 0 0 0 0 0 0 9 9 9 9 9 9 9 9 9 9 9 w C ^ e.t.u.u.u.u.u.u.u.u.u.u.u.u.u.u.u.t.e.w.^ b b 9 & $ % : : : : % $ $ $ $ # $ # # + $ # # $ % % : % $ $ % : ` o . . $ # $ # # % & 3 b ~ ^ w.r.t.u.u.u.u.u.u.u.u.u.u.u.u.u.u.u.t.e.^ C w 9 9 9 9 9 9 9 9 9 9 9 9 9 0 0 0 0 0 w w w w w w w e e e e e e m m m m e e e q q q q q q q q q q q q q q q q q q q q q q q q q q q q q q q q q q q q q q q q q q q q q q q q q q q q q q q q q q q q q q q q q q q q q q q q q q q q q q q q q q q q q q q q q q q q q q q q q q q q q q q q q q q q ",
"B B B B B B B B B B B B B B B B B B B B M M M M M M M M M M M M M M M M M M M M M M M M M M M M M M M M M M M M M M M M M M M M M M M M M M M M m m m m M M M M M M M M M M M M M M M M M M M M M M M M M M M M M M M M M M M m m m m m m m m m e e e e e e e w w 0 0 0 0 0 0 0 0 0 0 0 0 0 9 9 9 9 9 9 9 9 9 9 0 w C ^ e.t.u.u.u.u.u.u.u.u.u.u.u.u.u.u.u.u.u.u.u.t.r.e.w.^ ^ / b b w 9 3 : & $ # # # # # $ : > : & : 3 w N b / / ^ ^ w.e.r.t.u.u.u.u.u.u.u.u.u.u.u.u.u.u.u.u.u.u.u.t.e.^ C 0 9 9 9 9 9 9 9 9 9 9 9 9 9 9 9 0 0 0 0 w w w w w w w e w e e e e e m m m m m m m e e e e e q q q q q q q q q q q q q q q q q q q q q q q q q q q q q q q q q q q q q q q q q q q q q q q q q q q q q q q q q q q q q q q q q q q q q q q q q q q q q q q q q q q q q q q q q q q q q q q q q q q q q q q q q ",
"B B B B B B B B B B B B B B B B B B M m M M M M M M M M M M M M M M M M M M M M M M M M M M M M M M M M M M M M M M M M M M M M M M M M M M M M m m m M M M M m m M M M M M M M M M M M M M M M M M M M M M M M M M M M M M M M M m m m m m m m m m m m e e e e e e w w w w w w w 0 0 0 0 0 0 0 9 9 9 9 9 9 9 9 9 9 9 9 0 0 n ^ w.e.t.u.u.u.u.u.u.u.u.u.u.u.u.u.u.u.u.u.u.u.u.u.u.u.u.u.V.V.V.V.V.V.V.u.V.V.V.V.V.V.V.V.u.u.u.u.u.u.u.u.u.u.u.u.u.u.u.u.u.u.u.u.u.u.u.u.u.t.e.w.^ n 0 9 9 9 9 9 9 9 9 9 9 9 9 9 9 9 9 0 0 0 0 w w 0 w w w w w w e e e e e e e e m m m m m m m d d e d d q q q q q q q q q q q q q q q q q q q q q q q q q q q q q q q q q q q q q q q q q q q q q q q q q q q q q q q q q q q q q q q q q q q q q q q q q q q q q q q q q q q q q q q q q q q q q q q q q q q q q q q q q ",
"B B B B B B B B B B B B B B B B B M M m M M M M M M M M M M M M M M M M M M M M M M M M M M M M M M M M M M M M M M M M M M M M M M M M M M M M M m m M M m M m m M M M M M M M M m M M M M M M M M M M M M M M M M M M M M M M M M M m m m m m m m m m m n e e e e e e w w w w w w w w 0 0 0 0 0 0 0 9 0 0 0 9 9 9 9 9 9 9 9 9 0 0 0 n C ^ w.r.t.u.u.u.u.u.u.u.u.u.u.u.u.u.u.u.u.u.u.u.u.u.u.u.u.u.u.u.u.u.u.u.u.u.u.u.u.u.u.u.u.u.u.u.u.u.u.u.u.u.u.u.u.u.u.t.r.w.^ C n 9 9 9 9 9 9 9 9 9 9 9 9 9 9 9 9 9 9 9 0 0 0 0 w w w w w w w w w w e e e e e e e e m m m m m e m M M e e e d d d q q q q q q q q q q q q q q q q q q q q q q q q q q q q q q q q q q q q q q q q q q q q q q q q q q q q q q q q q q q q q q q q q q q q q q q q q q q q q q q q q q q q q q q q q q q q q q q q q q q q q q q q ",
"B B B B B B B B B B B B B B B B M M M M M M M M M M M M M M M M M M M M M M M M M M M M M M M M M M M M M M M M M M M M M M M M M M M M M M M M M M M M M m m M M M M M M M M M M m M M M M M M M M M M M M M M M M M M M M M M M M m m m m m m m m m m n n n m m e e e e w w w w w w w w w w 0 0 0 0 0 0 0 0 0 9 9 9 9 9 9 9 9 9 9 9 9 9 9 9 0 9 n C ^ ^ e.r.t.t.u.u.u.u.u.u.u.u.u.u.u.u.u.u.u.u.u.u.u.u.u.u.u.u.u.u.u.u.u.u.u.u.u.u.u.u.u.u.t.t.r.e.^ ^ C w 9 9 9 9 9 9 9 9 9 9 9 9 9 9 9 9 9 9 9 9 9 0 0 0 0 0 w w w w w w w w w e e e e e e e e e e m m m m m m m M M B B d e e e d d d q q q q q q q q q q q q q q q q q q q q q q q q q q q q q q q q q q q q q q q q q q q q q q q q q q q q q q q q q q q q q q q q q q q q q q q q q q q q q q q q q q q q q q q q q q q q q q q q q q q q q q q ",
"B B B B B B B B B B B B B B B M M M M M M M M M M M M M M M M M M M M M M M M M M M M M M M M M M M M M M M M M M M M M M M M M M M M M M M M M M M M m M m m M M M M M M M M M M M M M m M m B M M M M M M M M M M M M M M M M M M m m m m m m m m m m m m n n m e e e e e e e w w w w w w w w w w 0 0 0 0 0 0 0 0 0 9 9 9 9 9 9 9 9 9 9 9 9 9 9 9 9 9 9 9 9 9 9 n C ^ ^ ^ w.w.e.e.r.r.t.t.t.t.u.u.u.u.u.u.u.u.t.t.t.t.r.r.e.e.w.w.^ ^ ^ N n 9 9 9 9 9 9 9 9 9 9 9 9 9 9 9 9 9 9 9 9 9 9 9 9 9 0 0 0 0 0 0 w w w w w w w w w w e e e e e e e e e m m m m m m m m M M M M B B M e e e d e d d e q q q q q q q q q q q q q q q q q q q q q q q q q q q q q q q q q q q q q q q q q q q q q q q q q q q q q q q q q q q q q q q q q q q q q q q q q q q q q q q q q q q q q q q q q q q q q q q q q q q q q "
};
